; generated by Slic3r 1.3.1-dev on 2019-11-09 at 09:44:13

; Print Config Notes: 
; DMF_3D_0.3mmThin222HC25%
; 
; external perimeters extrusion width = 0.60mm (4.82mm^3/s)
; perimeters extrusion width = 0.54mm (5.71mm^3/s)
; infill extrusion width = 0.70mm (7.63mm^3/s)
; solid infill extrusion width = 0.51mm (5.35mm^3/s)
; top infill extrusion width = 0.51mm (5.35mm^3/s)

M190 S90 ; set bed temperature and wait for it to be reached
M104 S250 ; set temperature
G28 ; home all axes
; Filament gcode

M109 S250 ; set temperature and wait for it to be reached
G21 ; set units to millimeters
G90 ; use absolute coordinates
M82 ; use absolute distances for extrusion
G92 E0
G1 Z0.300 F4500.000
G1 E-0.60000 F900.00000
G92 E0
G1 X85.528 Y76.452 F4500.000
G1 E0.65000 F900.00000
G1 F1920
G1 X86.871 Y75.139 E0.79888
G1 X88.571 Y73.712 E0.97489
G1 X89.814 Y72.809 E1.09664
G1 X91.400 Y71.804 E1.24549
G1 X93.360 Y70.761 E1.42154
G1 X95.080 Y70.009 E1.57038
G1 X96.523 Y69.484 E1.69213
G1 X98.657 Y68.872 E1.86813
G1 X100.159 Y68.552 E1.98987
G1 X102.018 Y68.279 E2.13875
G1 X104.232 Y68.124 E2.31476
G1 X106.110 Y68.136 E2.46362
G1 X107.642 Y68.243 E2.58537
G1 X109.841 Y68.552 E2.76139
G1 X111.675 Y68.954 E2.91026
G1 X113.151 Y69.378 E3.03201
G1 X115.237 Y70.137 E3.20799
G1 X116.640 Y70.761 E3.32972
G1 X118.304 Y71.633 E3.47862
G1 X119.903 Y72.618 E3.62751
G1 X121.699 Y73.922 E3.80350
G1 X123.129 Y75.139 E3.95238
G1 X124.234 Y76.205 E4.07412
G1 X125.500 Y77.593 E4.22302
G1 X126.866 Y79.343 E4.39901
G1 X127.907 Y80.906 E4.54790
G1 X128.835 Y82.538 E4.69674
G1 X129.545 Y83.995 E4.82518
G1 X149.939 Y127.702 E8.64889
G1 X150.245 Y128.417 E8.71056
G1 X150.471 Y129.071 E8.76540
G1 X150.649 Y129.738 E8.82015
G1 X150.782 Y130.419 E8.87509
G1 X150.866 Y131.103 E8.92977
G1 X150.902 Y131.794 E8.98465
G1 X150.890 Y132.487 E9.03952
G1 X150.830 Y133.174 E9.09419
G1 X150.722 Y133.858 E9.14911
G1 X150.567 Y134.531 E9.20389
G1 X150.364 Y135.193 E9.25876
G1 X150.117 Y135.837 E9.31347
G1 X149.665 Y136.766 E9.39538
G1 X149.303 Y137.368 E9.45106
G1 X148.908 Y137.932 E9.50560
G1 X148.472 Y138.470 E9.56052
G1 X148.002 Y138.974 E9.61515
G1 X147.233 Y139.666 E9.69718
G1 X146.676 Y140.086 E9.75252
G1 X145.800 Y140.633 E9.83439
G1 X144.872 Y141.086 E9.91622
G1 X143.894 Y141.442 E9.99875
G1 X143.225 Y141.621 E10.05365
G1 X142.208 Y141.800 E10.13554
G1 X141.519 Y141.861 E10.19035
G1 X140.999 Y141.876 E10.23162
G1 X69.001 Y141.876 E15.93939
G1 X68.140 Y141.837 E16.00772
G1 X67.110 Y141.692 E16.09024
G1 X66.106 Y141.442 E16.17223
G1 X65.130 Y141.086 E16.25458
G1 X64.200 Y140.633 E16.33659
G1 X63.319 Y140.082 E16.41898
G1 X62.504 Y139.445 E16.50098
G1 X61.998 Y138.974 E16.55584
G1 X61.528 Y138.469 E16.61049
G1 X61.091 Y137.931 E16.66545
G1 X60.696 Y137.366 E16.72011
G1 X60.338 Y136.772 E16.77509
G1 X60.025 Y136.156 E16.82987
G1 X59.638 Y135.199 E16.91170
G1 X59.433 Y134.530 E16.96716
G1 X59.278 Y133.858 E17.02187
G1 X59.170 Y133.173 E17.07679
G1 X59.110 Y132.485 E17.13155
G1 X59.098 Y131.794 E17.18634
G1 X59.134 Y131.103 E17.24124
G1 X59.218 Y130.419 E17.29588
G1 X59.351 Y129.738 E17.35088
G1 X59.529 Y129.071 E17.40558
G1 X59.755 Y128.417 E17.46047
G1 X60.061 Y127.702 E17.52209
G1 X80.455 Y83.995 E21.34580
G1 X81.165 Y82.538 E21.47424
G1 X82.093 Y80.906 E21.62309
G1 X83.134 Y79.343 E21.77198
G1 X84.280 Y77.855 E21.92086
G1 X85.488 Y76.496 E22.06497
G1 X86.000 Y76.877 F4500.000
G1 F1920
G1 X87.312 Y75.596 E22.21033
G1 X88.945 Y74.226 E22.37931
G1 X90.187 Y73.323 E22.50106
G1 X91.736 Y72.343 E22.64639
G1 X93.619 Y71.342 E22.81541
G1 X95.298 Y70.606 E22.96074
G1 X96.741 Y70.081 E23.08249
G1 X98.790 Y69.493 E23.25146
G1 X100.585 Y69.122 E23.39683
G1 X102.106 Y68.908 E23.51857
G1 X104.232 Y68.760 E23.68754
G1 X106.066 Y68.770 E23.83289
G1 X107.598 Y68.877 E23.95464
G1 X109.708 Y69.174 E24.12362
G1 X111.500 Y69.565 E24.26898
G1 X112.976 Y69.989 E24.39073
G1 X114.978 Y70.718 E24.55968
G1 X116.381 Y71.342 E24.68142
G1 X118.005 Y72.194 E24.82679
G1 X119.566 Y73.157 E24.97217
G1 X121.290 Y74.409 E25.14113
G1 X122.688 Y75.596 E25.28649
G1 X123.793 Y76.663 E25.40823
G1 X125.027 Y78.018 E25.55361
G1 X126.339 Y79.698 E25.72257
G1 X127.356 Y81.224 E25.86795
G1 X128.264 Y82.817 E26.01328
G1 X128.969 Y84.263 E26.14085
G1 X149.363 Y127.971 E29.96456
G1 X149.648 Y128.635 E30.02183
G1 X149.860 Y129.247 E30.07314
G1 X150.028 Y129.871 E30.12439
G1 X150.152 Y130.507 E30.17579
G1 X150.232 Y131.148 E30.22697
G1 X150.267 Y131.794 E30.27832
G1 X150.256 Y132.442 E30.32968
G1 X150.201 Y133.085 E30.38085
G1 X150.100 Y133.726 E30.43224
G1 X149.956 Y134.356 E30.48350
G1 X149.767 Y134.975 E30.53485
G1 X149.537 Y135.579 E30.58605
G1 X149.103 Y136.468 E30.66447
G1 X148.764 Y137.031 E30.71657
G1 X148.394 Y137.558 E30.76763
G1 X147.985 Y138.061 E30.81902
G1 X147.545 Y138.532 E30.87015
G1 X147.071 Y138.973 E30.92148
G1 X146.327 Y139.555 E30.99634
G1 X145.482 Y140.083 E31.07533
G1 X144.634 Y140.496 E31.15013
G1 X143.697 Y140.837 E31.22914
G1 X143.071 Y141.004 E31.28051
G1 X142.141 Y141.168 E31.35538
G1 X141.148 Y141.238 E31.43431
G1 X69.001 Y141.240 E37.15393
G1 X68.207 Y141.205 E37.21699
G1 X67.220 Y141.066 E37.29598
G1 X66.303 Y140.837 E37.37093
G1 X65.368 Y140.497 E37.44978
G1 X64.518 Y140.083 E37.52475
G1 X63.674 Y139.555 E37.60364
G1 X62.929 Y138.973 E37.67859
G1 X62.455 Y138.532 E37.72993
G1 X62.014 Y138.061 E37.78109
G1 X61.605 Y137.557 E37.83251
G1 X61.235 Y137.029 E37.88367
G1 X60.900 Y136.473 E37.93511
G1 X60.605 Y135.898 E37.98638
G1 X60.235 Y134.982 E38.06471
G1 X60.044 Y134.355 E38.11663
G1 X59.900 Y133.726 E38.16784
G1 X59.799 Y133.085 E38.21923
G1 X59.744 Y132.441 E38.27048
G1 X59.733 Y131.794 E38.32175
G1 X59.768 Y131.147 E38.37313
G1 X59.848 Y130.507 E38.42428
G1 X59.972 Y129.870 E38.47573
G1 X60.140 Y129.247 E38.52693
G1 X60.352 Y128.634 E38.57830
G1 X60.637 Y127.971 E38.63552
G1 X81.031 Y84.263 E42.45922
G1 X81.736 Y82.817 E42.58680
G1 X82.644 Y81.224 E42.73213
G1 X83.661 Y79.698 E42.87750
G1 X84.781 Y78.247 E43.02287
G1 X85.960 Y76.922 E43.16346
G1 X86.473 Y77.302 F4500.000
G1 F1920
G1 X87.754 Y76.053 E43.30531
G1 X89.318 Y74.740 E43.46726
G1 X90.561 Y73.838 E43.58901
G1 X92.073 Y72.882 E43.73083
G1 X93.877 Y71.923 E43.89281
G1 X95.515 Y71.203 E44.03463
G1 X96.958 Y70.678 E44.15637
G1 X98.922 Y70.115 E44.31832
G1 X100.424 Y69.796 E44.44006
G1 X102.194 Y69.538 E44.58191
G1 X104.232 Y69.395 E44.74386
G1 X106.021 Y69.404 E44.88569
G1 X107.553 Y69.511 E45.00744
G1 X109.576 Y69.796 E45.16939
G1 X111.324 Y70.176 E45.31123
G1 X112.801 Y70.600 E45.43298
G1 X114.720 Y71.298 E45.59490
G1 X116.123 Y71.923 E45.71664
G1 X117.707 Y72.755 E45.85850
G1 X119.229 Y73.696 E46.00036
G1 X120.881 Y74.896 E46.16229
G1 X122.246 Y76.053 E46.30414
G1 X123.351 Y77.120 E46.42588
G1 X124.555 Y78.444 E46.56774
G1 X125.812 Y80.053 E46.72967
G1 X126.806 Y81.542 E46.87153
G1 X127.692 Y83.095 E47.01335
G1 X128.393 Y84.532 E47.14005
G1 X148.787 Y128.240 E50.96376
G1 X149.051 Y128.852 E51.01662
G1 X149.249 Y129.422 E51.06442
G1 X149.406 Y130.003 E51.11215
G1 X149.523 Y130.595 E51.16003
G1 X149.598 Y131.192 E51.20771
G1 X149.631 Y131.794 E51.25553
G1 X149.622 Y132.398 E51.30336
G1 X149.571 Y132.997 E51.35103
G1 X149.479 Y133.593 E51.39889
G1 X149.345 Y134.181 E51.44664
G1 X149.170 Y134.758 E51.49447
G1 X148.956 Y135.320 E51.54217
G1 X148.542 Y136.169 E51.61705
G1 X148.225 Y136.694 E51.66561
G1 X147.880 Y137.184 E51.71318
G1 X147.499 Y137.652 E51.76104
G1 X147.087 Y138.091 E51.80869
G1 X146.451 Y138.664 E51.87663
G1 X145.965 Y139.032 E51.92493
G1 X145.164 Y139.532 E51.99979
G1 X144.395 Y139.907 E52.06758
G1 X143.501 Y140.233 E52.14307
G1 X142.917 Y140.387 E52.19090
G1 X142.075 Y140.536 E52.25875
G1 X141.126 Y140.602 E52.33417
G1 X69.001 Y140.605 E58.05202
G1 X68.273 Y140.573 E58.10982
G1 X67.331 Y140.440 E58.18528
G1 X66.499 Y140.233 E58.25320
G1 X65.606 Y139.908 E58.32854
G1 X64.836 Y139.532 E58.39647
G1 X64.030 Y139.028 E58.47185
G1 X63.355 Y138.501 E58.53977
G1 X62.912 Y138.091 E58.58758
G1 X62.501 Y137.652 E58.63524
G1 X62.120 Y137.184 E58.68313
G1 X61.774 Y136.692 E58.73079
G1 X61.461 Y136.175 E58.77869
G1 X61.186 Y135.639 E58.82645
G1 X60.832 Y134.763 E58.90133
G1 X60.655 Y134.180 E58.94967
G1 X60.521 Y133.593 E58.99737
G1 X60.429 Y132.997 E59.04523
G1 X60.378 Y132.397 E59.09297
G1 X60.369 Y131.794 E59.14073
G1 X60.402 Y131.192 E59.18858
G1 X60.477 Y130.595 E59.23623
G1 X60.594 Y130.002 E59.28414
G1 X60.751 Y129.422 E59.33184
G1 X60.949 Y128.852 E59.37968
G1 X61.213 Y128.240 E59.43250
G1 X81.607 Y84.532 E63.25621
G1 X82.308 Y83.095 E63.38291
G1 X83.194 Y81.542 E63.52474
G1 X84.188 Y80.053 E63.66659
G1 X85.282 Y78.638 E63.80844
G1 X86.433 Y77.347 E63.94552
G1 E63.34552 F900.00000
G92 E0
G1 X142.161 Y133.982 F4500.000
G1 E0.65000 F900.00000
G1 F720
G1 X141.600 Y134.214 E0.69810
G1 X140.999 Y134.293 E0.74621
G1 X140.397 Y134.214 E0.79433
G1 X139.836 Y133.982 E0.84242
G1 X139.355 Y133.612 E0.89052
G1 X138.986 Y133.131 E0.93863
G1 X138.753 Y132.571 E0.98672
G1 X138.674 Y131.969 E1.03484
G1 X138.753 Y131.367 E1.08295
G1 X138.986 Y130.807 E1.13105
G1 X139.355 Y130.325 E1.17916
G1 X139.836 Y129.956 E1.22726
G1 X140.397 Y129.724 E1.27537
G1 X140.998 Y129.645 E1.32347
G1 X141.600 Y129.724 E1.37157
G1 X142.161 Y129.956 E1.41968
G1 X142.642 Y130.325 E1.46779
G1 X143.012 Y130.807 E1.51590
G1 X143.244 Y131.367 E1.56401
G1 X143.323 Y131.969 E1.61211
G1 X143.244 Y132.571 E1.66021
G1 X143.012 Y133.131 E1.70832
G1 X142.642 Y133.613 E1.75642
G1 X142.208 Y133.945 E1.79977
G1 X141.840 Y133.427 F4500.000
G1 F720
G1 X141.434 Y133.595 E1.83461
G1 X140.999 Y133.652 E1.86945
G1 X140.563 Y133.595 E1.90429
G1 X140.157 Y133.427 E1.93912
G1 X139.808 Y133.159 E1.97396
G1 X139.541 Y132.811 E2.00879
G1 X139.373 Y132.405 E2.04362
G1 X139.315 Y131.969 E2.07846
G1 X139.373 Y131.533 E2.11330
G1 X139.541 Y131.127 E2.14814
G1 X139.808 Y130.779 E2.18298
G1 X140.157 Y130.511 E2.21781
G1 X140.563 Y130.343 E2.25265
G1 X140.998 Y130.286 E2.28749
G1 X141.434 Y130.343 E2.32232
G1 X141.840 Y130.511 E2.35716
G1 X142.189 Y130.779 E2.39200
G1 X142.456 Y131.127 E2.42684
G1 X142.624 Y131.533 E2.46168
G1 X142.682 Y131.969 E2.49652
G1 X142.624 Y132.405 E2.53135
G1 X142.456 Y132.811 E2.56619
G1 X142.189 Y133.159 E2.60102
G1 X141.888 Y133.390 E2.63110
G1 X141.840 Y133.427 F4500.000
G1 E2.03110 F900.00000
G92 E0
G1 X132.161 Y116.661 F4500.000
G1 E0.65000 F900.00000
G1 F720
G1 X131.600 Y116.894 E0.69810
G1 X130.999 Y116.973 E0.74621
G1 X130.397 Y116.894 E0.79433
G1 X129.836 Y116.661 E0.84242
G1 X129.355 Y116.292 E0.89051
G1 X128.985 Y115.811 E0.93863
G1 X128.753 Y115.250 E0.98673
G1 X128.674 Y114.648 E1.03484
G1 X128.753 Y114.047 E1.08294
G1 X128.985 Y113.486 E1.13105
G1 X129.355 Y113.005 E1.17917
G1 X129.836 Y112.635 E1.22726
G1 X130.397 Y112.403 E1.27537
G1 X130.999 Y112.324 E1.32347
G1 X131.600 Y112.403 E1.37157
G1 X132.161 Y112.635 E1.41968
G1 X132.642 Y113.005 E1.46779
G1 X133.012 Y113.486 E1.51590
G1 X133.244 Y114.047 E1.56401
G1 X133.323 Y114.648 E1.61211
G1 X133.244 Y115.250 E1.66021
G1 X133.012 Y115.811 E1.70832
G1 X132.642 Y116.292 E1.75642
G1 X132.208 Y116.625 E1.79977
G1 X131.840 Y116.106 F4500.000
G1 F720
G1 X131.434 Y116.274 E1.83461
G1 X130.999 Y116.332 E1.86945
G1 X130.563 Y116.274 E1.90429
G1 X130.157 Y116.106 E1.93912
G1 X129.808 Y115.839 E1.97395
G1 X129.541 Y115.490 E2.00880
G1 X129.373 Y115.084 E2.04363
G1 X129.315 Y114.648 E2.07847
G1 X129.373 Y114.213 E2.11330
G1 X129.541 Y113.807 E2.14814
G1 X129.808 Y113.458 E2.18299
G1 X130.157 Y113.191 E2.21782
G1 X130.563 Y113.022 E2.25266
G1 X130.998 Y112.965 E2.28749
G1 X131.434 Y113.022 E2.32233
G1 X131.840 Y113.191 E2.35717
G1 X132.189 Y113.458 E2.39201
G1 X132.456 Y113.807 E2.42684
G1 X132.624 Y114.213 E2.46169
G1 X132.682 Y114.648 E2.49652
G1 X132.624 Y115.084 E2.53136
G1 X132.456 Y115.490 E2.56619
G1 X132.189 Y115.839 E2.60103
G1 X131.888 Y116.070 E2.63111
G1 X131.840 Y116.106 F4500.000
G1 E2.03111 F900.00000
G92 E0
G1 X122.161 Y99.341 F4500.000
G1 E0.65000 F900.00000
G1 F720
G1 X121.600 Y99.573 E0.69811
G1 X120.999 Y99.652 E0.74621
G1 X120.397 Y99.573 E0.79432
G1 X119.836 Y99.341 E0.84242
G1 X119.355 Y98.972 E0.89052
G1 X118.985 Y98.490 E0.93864
G1 X118.753 Y97.929 E0.98674
G1 X118.674 Y97.328 E1.03484
G1 X118.753 Y96.726 E1.08295
G1 X118.985 Y96.166 E1.13105
G1 X119.355 Y95.684 E1.17917
G1 X119.836 Y95.315 E1.22726
G1 X120.397 Y95.083 E1.27537
G1 X120.999 Y95.003 E1.32347
G1 X121.600 Y95.083 E1.37158
G1 X122.161 Y95.315 E1.41969
G1 X122.642 Y95.684 E1.46779
G1 X123.012 Y96.166 E1.51590
G1 X123.244 Y96.726 E1.56401
G1 X123.323 Y97.328 E1.61211
G1 X123.244 Y97.929 E1.66021
G1 X123.012 Y98.490 E1.70832
G1 X122.642 Y98.971 E1.75642
G1 X122.208 Y99.304 E1.79978
G1 X121.840 Y98.786 F4500.000
G1 F720
G1 X121.434 Y98.954 E1.83462
G1 X120.999 Y99.011 E1.86945
G1 X120.563 Y98.954 E1.90429
G1 X120.157 Y98.786 E1.93913
G1 X119.808 Y98.518 E1.97396
G1 X119.541 Y98.170 E2.00880
G1 X119.373 Y97.764 E2.04364
G1 X119.315 Y97.328 E2.07848
G1 X119.373 Y96.892 E2.11331
G1 X119.541 Y96.486 E2.14815
G1 X119.808 Y96.138 E2.18299
G1 X120.157 Y95.870 E2.21783
G1 X120.563 Y95.702 E2.25266
G1 X120.999 Y95.645 E2.28750
G1 X121.434 Y95.702 E2.32233
G1 X121.840 Y95.870 E2.35718
G1 X122.189 Y96.138 E2.39201
G1 X122.456 Y96.486 E2.42685
G1 X122.624 Y96.892 E2.46169
G1 X122.682 Y97.328 E2.49652
G1 X122.624 Y97.764 E2.53136
G1 X122.456 Y98.170 E2.56620
G1 X122.189 Y98.518 E2.60104
G1 X121.888 Y98.749 E2.63112
G1 X121.840 Y98.786 F4500.000
G1 E2.03112 F900.00000
G92 E0
G1 X110.860 Y96.246 F4500.000
G1 E0.65000 F900.00000
G1 F720
G1 X110.750 Y96.684 E0.68585
G1 X110.470 Y97.453 E0.75073
G1 X110.077 Y98.193 E0.81716
G1 X109.597 Y98.853 E0.88181
G1 X109.295 Y99.189 E0.91765
G1 X108.702 Y99.723 E0.98093
G1 X108.348 Y99.980 E1.01562
G1 X107.979 Y100.211 E1.05013
G1 X107.246 Y100.569 E1.11478
G1 X106.449 Y100.828 E1.18121
G1 X105.643 Y100.970 E1.24608
G1 X105.192 Y101.001 E1.28194
G1 X104.391 Y100.973 E1.34543
G1 X103.961 Y100.913 E1.37992
G1 X103.535 Y100.822 E1.41441
G1 X102.757 Y100.570 E1.47927
G1 X102.006 Y100.203 E1.54550
G1 X101.330 Y99.748 E1.61014
G1 X100.994 Y99.466 E1.64486
G1 X100.680 Y99.162 E1.67957
G1 X100.156 Y98.537 E1.74421
G1 X99.722 Y97.844 E1.80907
G1 X99.524 Y97.437 E1.84493
G1 X99.250 Y96.684 E1.90842
G1 X99.140 Y96.245 E1.94429
G1 X99.026 Y95.433 E2.00935
G1 X99.027 Y94.617 E2.07400
G1 X99.074 Y94.167 E2.10985
G1 X99.240 Y93.384 E2.17334
G1 X99.380 Y92.954 E2.20920
G1 X99.706 Y92.222 E2.27269
G1 X99.924 Y91.845 E2.30720
G1 X100.168 Y91.483 E2.34190
G1 X100.693 Y90.858 E2.40654
G1 X101.298 Y90.312 E2.47117
G1 X101.652 Y90.055 E2.50587
G1 X102.021 Y89.824 E2.54037
G1 X102.754 Y89.467 E2.60502
G1 X103.551 Y89.208 E2.67145
G1 X104.354 Y89.066 E2.73611
G1 X104.808 Y89.034 E2.77217
G1 X105.609 Y89.062 E2.83568
G1 X106.039 Y89.122 E2.87017
G1 X106.465 Y89.213 E2.90466
G1 X107.243 Y89.466 E2.96952
G1 X107.978 Y89.824 E3.03438
G1 X108.347 Y90.055 E3.06887
G1 X108.699 Y90.311 E3.10336
G1 X109.293 Y90.845 E3.16665
G1 X109.599 Y91.185 E3.20291
G1 X110.078 Y91.845 E3.26759
G1 X110.471 Y92.585 E3.33402
G1 X110.750 Y93.351 E3.39866
G1 X110.860 Y93.790 E3.43452
G1 X110.971 Y94.583 E3.49801
G1 X110.986 Y95.018 E3.53252
G1 X110.971 Y95.455 E3.56721
G1 X110.868 Y96.186 E3.62573
G1 X110.235 Y96.124 F4500.000
G1 F720
G1 X110.141 Y96.498 E3.65631
G1 X109.888 Y97.194 E3.71501
G1 X109.536 Y97.855 E3.77439
G1 X109.103 Y98.452 E3.83288
G1 X108.845 Y98.739 E3.86345
G1 X108.301 Y99.228 E3.92146
G1 X107.992 Y99.453 E3.95175
G1 X107.670 Y99.654 E3.98184
G1 X107.007 Y99.978 E4.04034
G1 X106.295 Y100.210 E4.09972
G1 X105.565 Y100.338 E4.15842
G1 X105.181 Y100.365 E4.18899
G1 X104.447 Y100.339 E4.24720
G1 X104.071 Y100.287 E4.27729
G1 X103.700 Y100.208 E4.30739
G1 X102.996 Y99.979 E4.36608
G1 X102.325 Y99.652 E4.42526
G1 X101.713 Y99.239 E4.48375
G1 X101.420 Y98.994 E4.51405
G1 X101.145 Y98.728 E4.54435
G1 X100.671 Y98.163 E4.60284
G1 X100.279 Y97.535 E4.66153
G1 X100.110 Y97.188 E4.69211
G1 X99.859 Y96.498 E4.75032
G1 X99.765 Y96.124 E4.78090
G1 X99.662 Y95.388 E4.83979
G1 X99.662 Y94.651 E4.89829
G1 X99.702 Y94.267 E4.92886
