; generated by Slic3r 1.3.1-dev on 2019-10-12 at 15:07:36

; Print Config Notes: 
; DMF_3D_0.3mm333HC25%
; 
; external perimeters extrusion width = 0.70mm (5.72mm^3/s)
; perimeters extrusion width = 0.70mm (7.63mm^3/s)
; infill extrusion width = 0.75mm (8.23mm^3/s)
; solid infill extrusion width = 0.65mm (7.03mm^3/s)
; top infill extrusion width = 0.65mm (7.03mm^3/s)

M190 S90 ; set bed temperature and wait for it to be reached
M104 S250 ; set temperature
G28 ; home all axes
; Filament gcode

M109 S250 ; set temperature and wait for it to be reached
G21 ; set units to millimeters
G90 ; use absolute coordinates
M82 ; use absolute distances for extrusion
G92 E0
G1 Z0.300 F3000.000
G1 E-0.60000 F900.00000
G92 E0
G1 X155.949 Y29.852 F3000.000
G1 E0.65000 F900.00000
G1 F1920
G1 X156.614 Y29.203 E0.71208
G1 X157.330 Y28.596 E0.77475
G1 X158.087 Y28.039 E0.83757
G1 X158.605 Y27.703 E0.87883
G1 X159.709 Y27.092 E0.96310
G1 X160.561 Y26.707 E1.02558
G1 X161.445 Y26.379 E1.08860
G1 X162.344 Y26.116 E1.15116
G1 X162.947 Y25.977 E1.19247
G1 X164.193 Y25.779 E1.27680
G1 X165.130 Y25.709 E1.33953
G1 X165.748 Y25.698 E1.38083
G1 X166.687 Y25.736 E1.44360
G1 X167.615 Y25.839 E1.50595
G1 X168.854 Y26.080 E1.59033
G1 X169.451 Y26.240 E1.63161
G1 X170.342 Y26.534 E1.69431
G1 X171.215 Y26.893 E1.75736
G1 X172.044 Y27.303 E1.81913
G1 X173.136 Y27.958 E1.90422
G1 X173.642 Y28.312 E1.94548
G1 X174.381 Y28.896 E2.00838
G1 X175.302 Y29.755 E2.09252
G1 X175.929 Y30.444 E2.15475
G1 X176.513 Y31.183 E2.21765
G1 X176.868 Y31.690 E2.25900
G1 X177.364 Y32.493 E2.32207
G1 X177.932 Y33.610 E2.40581
G1 X178.291 Y34.483 E2.46882
G1 X178.493 Y35.069 E2.51024
G1 X178.746 Y35.973 E2.57298
G1 X178.935 Y36.888 E2.63536
G1 X179.088 Y38.129 E2.71893
G1 X179.895 Y52.821 E3.70190
G1 X179.980 Y54.767 E3.83205
G1 X180.028 Y56.661 E3.95860
G1 X180.044 Y58.556 E4.08518
G1 X180.029 Y60.370 E4.20641
G1 X179.980 Y62.267 E4.33318
G1 X179.898 Y64.160 E4.45972
G1 X179.783 Y66.053 E4.58647
G1 X179.635 Y67.942 E4.71301
G1 X179.445 Y69.908 E4.84498
G1 X179.230 Y71.792 E4.97164
G1 X178.993 Y73.592 E5.09291
G1 X178.714 Y75.466 E5.21954
G1 X178.388 Y77.415 E5.35154
G1 X178.042 Y79.278 E5.47813
G1 X177.663 Y81.136 E5.60480
G1 X177.270 Y82.908 E5.72607
G1 X176.828 Y84.752 E5.85274
G1 X176.333 Y86.665 E5.98472
G1 X175.826 Y88.491 E6.11134
G1 X175.267 Y90.373 E6.24251
G1 X174.717 Y92.115 E6.36456
G1 X174.141 Y93.837 E6.48581
G1 X173.508 Y95.625 E6.61256
G1 X172.817 Y97.475 E6.74450
G1 X172.121 Y99.239 E6.87113
G1 X171.426 Y100.916 E6.99241
G1 X170.671 Y102.655 E7.11906
G1 X169.852 Y104.452 E7.25099
G1 X169.035 Y106.163 E7.37765
G1 X168.189 Y107.858 E7.50425
G1 X167.313 Y109.540 E7.63093
G1 X166.408 Y111.206 E7.75758
G1 X165.474 Y112.855 E7.88417
G1 X164.553 Y114.418 E8.00541
G1 X163.563 Y116.035 E8.13207
G1 X162.545 Y117.634 E8.25868
G1 X161.499 Y119.216 E8.38535
G1 X160.380 Y120.844 E8.51733
G1 X159.279 Y122.386 E8.64396
G1 X158.199 Y123.846 E8.76522
G1 X156.997 Y125.413 E8.89721
G1 X143.305 Y142.542 E10.36218
G1 X142.536 Y143.427 E10.44046
G1 X141.488 Y144.491 E10.54023
G1 X140.222 Y145.600 E10.65267
G1 X123.239 Y159.170 E12.10495
G1 X121.672 Y160.373 E12.23695
G1 X120.148 Y161.500 E12.36357
G1 X118.670 Y162.554 E12.48484
G1 X117.041 Y163.674 E12.61686
G1 X115.528 Y164.675 E12.73812
G1 X113.929 Y165.694 E12.86476
G1 X112.314 Y166.685 E12.99137
G1 X110.681 Y167.648 E13.11801
G1 X109.031 Y168.582 E13.24463
G1 X107.366 Y169.487 E13.37126
G1 X105.684 Y170.363 E13.49791
G1 X103.989 Y171.209 E13.62452
G1 X102.205 Y172.060 E13.75654
G1 X100.480 Y172.845 E13.88316
G1 X98.742 Y173.601 E14.00978
G1 X97.065 Y174.295 E14.13105
G1 X95.301 Y174.991 E14.25769
G1 X93.526 Y175.655 E14.38431
G1 X91.739 Y176.289 E14.51096
G1 X89.942 Y176.891 E14.63759
G1 X88.134 Y177.461 E14.76421
G1 X86.317 Y178.000 E14.89084
G1 X84.491 Y178.508 E15.01747
G1 X82.656 Y178.983 E15.14410
G1 X80.813 Y179.426 E15.27073
G1 X78.962 Y179.837 E15.39737
G1 X77.105 Y180.216 E15.52399
G1 X75.241 Y180.562 E15.65062
G1 X73.372 Y180.875 E15.77727
G1 X71.498 Y181.156 E15.90387
G1 X69.539 Y181.414 E16.03586
G1 X67.655 Y181.628 E16.16250
G1 X65.768 Y181.809 E16.28914
G1 X63.879 Y181.957 E16.41577
G1 X61.987 Y182.072 E16.54239
G1 X60.093 Y182.154 E16.66904
G1 X58.198 Y182.203 E16.79567
G1 X56.383 Y182.219 E16.91693
G1 X54.487 Y182.203 E17.04358
G1 X52.592 Y182.154 E17.17019
G1 X50.698 Y182.072 E17.29686
G1 X35.955 Y181.263 E18.28327
G1 X35.033 Y181.160 E18.34524
G1 X34.107 Y180.991 E18.40811
G1 X33.196 Y180.759 E18.47096
G1 X32.307 Y180.464 E18.53346
G1 X31.439 Y180.108 E18.59621
G1 X30.597 Y179.691 E18.65894
G1 X29.786 Y179.217 E18.72168
G1 X29.010 Y178.688 E18.78444
G1 X28.273 Y178.105 E18.84718
G1 X27.352 Y177.246 E18.93137
G1 X26.929 Y176.793 E18.97278
G1 X26.331 Y176.072 E19.03537
G1 X25.608 Y175.039 E19.11958
G1 X25.134 Y174.228 E19.18232
G1 X24.717 Y173.386 E19.24506
G1 X24.476 Y172.818 E19.28633
G1 X24.066 Y171.626 E19.37052
G1 X23.905 Y171.028 E19.41187
G1 X23.717 Y170.120 E19.47386
G1 X23.590 Y169.178 E19.53734
G1 X23.524 Y167.921 E19.62143
G1 X23.535 Y167.303 E19.66275
G1 X23.605 Y166.366 E19.72549
G1 X23.803 Y165.122 E19.80967
G1 X23.942 Y164.519 E19.85096
G1 X24.205 Y163.618 E19.91370
G1 X24.657 Y162.441 E19.99790
G1 X25.064 Y161.596 E20.06059
G1 X25.364 Y161.055 E20.10191
G1 X26.050 Y159.998 E20.18609
G1 X26.624 Y159.254 E20.24885
G1 X27.249 Y158.553 E20.31159
G1 X155.907 Y29.895 E32.46685
G1 X156.328 Y30.231 F3000.000
G1 F1920
G1 X156.966 Y29.608 E32.52643
G1 X157.652 Y29.024 E32.58662
G1 X158.146 Y28.652 E32.62792
G1 X158.897 Y28.152 E32.68819
G1 X159.935 Y27.577 E32.76746
G1 X160.753 Y27.206 E32.82746
G1 X161.602 Y26.891 E32.88796
G1 X162.465 Y26.638 E32.94804
G1 X163.067 Y26.499 E32.98935
G1 X164.240 Y26.313 E33.06867
G1 X165.139 Y26.244 E33.12891
G1 X165.757 Y26.234 E33.17020
G1 X166.658 Y26.271 E33.23047
G1 X167.550 Y26.370 E33.29037
G1 X168.716 Y26.597 E33.36974
G1 X169.313 Y26.757 E33.41101
G1 X170.168 Y27.041 E33.47122
G1 X171.006 Y27.386 E33.53174
G1 X171.801 Y27.780 E33.59105
G1 X172.829 Y28.396 E33.67112
G1 X173.563 Y28.923 E33.73150
G1 X174.252 Y29.494 E33.79129
G1 X174.705 Y29.915 E33.83256
G1 X175.331 Y30.573 E33.89320
G1 X175.903 Y31.263 E33.95309
G1 X176.429 Y31.997 E34.01345
G1 X177.040 Y33.015 E34.09275
G1 X177.321 Y33.565 E34.13404
G1 X177.681 Y34.388 E34.19404
G1 X177.986 Y35.243 E34.25467
G1 X178.291 Y36.383 E34.33352
G1 X178.410 Y36.990 E34.37482
G1 X178.530 Y37.889 E34.43544
G1 X179.360 Y52.850 E35.43645
G1 X179.442 Y54.709 E35.56074
G1 X179.492 Y56.596 E35.68688
G1 X179.509 Y58.551 E35.81747
G1 X179.492 Y60.438 E35.94355
G1 X179.442 Y62.323 E36.06950
G1 X179.359 Y64.208 E36.19558
G1 X179.243 Y66.090 E36.32152
G1 X179.101 Y67.900 E36.44280
G1 X178.920 Y69.779 E36.56889
G1 X178.708 Y71.651 E36.69476
G1 X178.462 Y73.522 E36.82082
G1 X178.173 Y75.457 E36.95156
G1 X177.849 Y77.385 E37.08212
G1 X177.517 Y79.172 E37.20355
G1 X177.155 Y80.950 E37.32479
G1 X176.747 Y82.793 E37.45086
G1 X176.290 Y84.696 E37.58161
G1 X175.799 Y86.587 E37.71218
G1 X175.313 Y88.339 E37.83363
G1 X174.797 Y90.079 E37.95489
G1 X174.209 Y91.946 E38.08561
G1 X173.610 Y93.735 E38.21166
G1 X172.979 Y95.512 E38.33764
G1 X172.344 Y97.212 E38.45886
G1 X171.653 Y98.968 E38.58495
G1 X170.932 Y100.711 E38.71095
G1 X170.151 Y102.505 E38.84169
G1 X169.339 Y104.283 E38.97221
G1 X168.556 Y105.924 E39.09370
G1 X167.746 Y107.548 E39.21494
G1 X166.876 Y109.221 E39.34093
G1 X165.976 Y110.880 E39.46702
G1 X165.048 Y112.522 E39.59300
G1 X164.055 Y114.208 E39.72373
G1 X163.069 Y115.815 E39.84972
G1 X162.055 Y117.406 E39.97574
G1 X161.053 Y118.920 E40.09702
G1 X159.986 Y120.474 E40.22295
G1 X158.890 Y122.011 E40.34906
G1 X157.769 Y123.527 E40.47502
G1 X156.577 Y125.080 E40.60576
G1 X142.900 Y142.191 E42.06917
G1 X141.938 Y143.283 E42.16644
G1 X141.109 Y144.112 E42.24473
G1 X139.888 Y145.182 E42.35319
G1 X122.906 Y158.751 E43.80538
G1 X121.353 Y159.943 E43.93614
G1 X119.894 Y161.022 E44.05741
G1 X118.359 Y162.118 E44.18340
G1 X116.746 Y163.227 E44.31417
G1 X115.232 Y164.229 E44.43543
G1 X113.641 Y165.243 E44.56144
G1 X112.034 Y166.229 E44.68744
G1 X110.409 Y167.187 E44.81345
G1 X108.768 Y168.116 E44.93944
G1 X107.110 Y169.016 E45.06545
G1 X105.437 Y169.888 E45.19148
G1 X103.750 Y170.730 E45.31747
G1 X101.983 Y171.573 E45.44824
G1 X100.266 Y172.354 E45.57423
G1 X98.537 Y173.106 E45.70023
G1 X96.794 Y173.827 E45.82625
G1 X95.039 Y174.518 E45.95225
G1 X93.271 Y175.178 E46.07826
G1 X91.493 Y175.807 E46.20426
G1 X89.704 Y176.405 E46.33027
G1 X87.973 Y176.950 E46.45153
G1 X86.165 Y177.487 E46.57754
G1 X84.348 Y177.991 E46.70355
G1 X82.522 Y178.464 E46.82955
G1 X80.688 Y178.905 E46.95556
G1 X78.846 Y179.314 E47.08157
G1 X76.998 Y179.691 E47.20757
G1 X75.144 Y180.035 E47.33357
G1 X73.283 Y180.347 E47.45959
G1 X71.418 Y180.626 E47.58558
G1 X69.478 Y180.882 E47.71631
G1 X67.604 Y181.095 E47.84233
G1 X65.726 Y181.275 E47.96835
G1 X63.846 Y181.422 E48.09435
G1 X61.963 Y181.537 E48.22034
G1 X60.079 Y181.618 E48.34637
G1 X58.193 Y181.667 E48.47238
G1 X56.378 Y181.683 E48.59364
G1 X54.492 Y181.667 E48.71966
G1 X52.606 Y181.618 E48.84565
G1 X50.722 Y181.537 E48.97169
G1 X35.984 Y180.728 E49.95770
G1 X35.098 Y180.628 E50.01726
G1 X34.210 Y180.466 E50.07762
G1 X33.335 Y180.241 E50.13796
G1 X32.482 Y179.958 E50.19799
G1 X31.648 Y179.615 E50.25824
G1 X30.840 Y179.214 E50.31848
G1 X30.062 Y178.758 E50.37872
G1 X29.317 Y178.249 E50.43898
G1 X28.610 Y177.689 E50.49923
G1 X27.743 Y176.881 E50.57842
G1 X27.321 Y176.428 E50.61982
G1 X26.747 Y175.734 E50.67993
G1 X26.067 Y174.763 E50.75914
G1 X25.611 Y173.985 E50.81939
G1 X25.330 Y173.435 E50.86066
G1 X24.969 Y172.609 E50.92090
G1 X24.583 Y171.488 E51.00010
G1 X24.359 Y170.614 E51.06036
G1 X24.241 Y170.007 E51.10168
G1 X24.121 Y169.113 E51.16192
G1 X24.060 Y167.930 E51.24103
G1 X24.070 Y167.312 E51.28234
G1 X24.139 Y166.413 E51.34259
G1 X24.324 Y165.242 E51.42178
G1 X24.463 Y164.640 E51.46307
G1 X24.718 Y163.775 E51.52331
G1 X25.143 Y162.668 E51.60252
G1 X25.532 Y161.855 E51.66271
G1 X25.832 Y161.314 E51.70403
G1 X26.478 Y160.320 E51.78322
G1 X27.028 Y159.606 E51.84349
G1 X27.627 Y158.932 E51.90373
G1 X156.286 Y30.274 E64.05898
G1 X156.707 Y30.610 F3000.000
G1 F1920
G1 X157.317 Y30.012 E64.11607
G1 X157.975 Y29.452 E64.17376
G1 X158.671 Y28.938 E64.23157
G1 X159.189 Y28.602 E64.27283
G1 X160.161 Y28.063 E64.34710
G1 X160.945 Y27.706 E64.40464
G1 X161.758 Y27.403 E64.46261
G1 X162.585 Y27.160 E64.52021
G1 X163.430 Y26.973 E64.57797
G1 X164.040 Y26.877 E64.61925
G1 X164.902 Y26.793 E64.67710
G1 X166.013 Y26.774 E64.75134
G1 X166.871 Y26.827 E64.80877
G1 X167.733 Y26.941 E64.86689
G1 X168.577 Y27.115 E64.92444
G1 X169.174 Y27.274 E64.96571
G1 X170.227 Y27.637 E65.04013
G1 X171.017 Y27.982 E65.09767
G1 X171.781 Y28.380 E65.15526
G1 X172.311 Y28.698 E65.19654
G1 X173.028 Y29.189 E65.25458
G1 X173.706 Y29.728 E65.31245
G1 X174.340 Y30.307 E65.36981
G1 X175.097 Y31.119 E65.44398
G1 X175.487 Y31.600 E65.48533
G1 X175.991 Y32.304 E65.54317
G1 X176.445 Y33.044 E65.60118
G1 X176.844 Y33.809 E65.65877
G1 X177.278 Y34.831 E65.73299
G1 X177.551 Y35.651 E65.79071
G1 X177.711 Y36.250 E65.83213
G1 X177.884 Y37.092 E65.88959
G1 X177.998 Y37.954 E65.94766
G1 X178.826 Y52.880 E66.94630
G1 X178.909 Y54.795 E67.07438
G1 X178.956 Y56.610 E67.19569
G1 X178.973 Y58.485 E67.32096
G1 X178.958 Y60.361 E67.44628
G1 X178.909 Y62.239 E67.57177
G1 X178.828 Y64.113 E67.69708
G1 X178.709 Y66.048 E67.82660
G1 X178.561 Y67.920 E67.95205
G1 X178.387 Y69.727 E68.07333
G1 X178.176 Y71.590 E68.19859
G1 X177.931 Y73.452 E68.32402
G1 X177.645 Y75.369 E68.45351
G1 X177.334 Y77.220 E68.57890
G1 X177.003 Y79.005 E68.70020
G1 X176.630 Y80.843 E68.82550
G1 X176.224 Y82.677 E68.95093
G1 X175.772 Y84.562 E69.08044
G1 X175.301 Y86.379 E69.20583
G1 X174.799 Y88.187 E69.33122
G1 X174.284 Y89.927 E69.45247
G1 X173.720 Y91.718 E69.57786
G1 X173.125 Y93.497 E69.70319
G1 X172.478 Y95.325 E69.83273
G1 X171.820 Y97.083 E69.95812
G1 X171.131 Y98.829 E70.08351
G1 X170.437 Y100.506 E70.20478
G1 X169.689 Y102.227 E70.33018
G1 X168.885 Y103.991 E70.45963
G1 X168.104 Y105.629 E70.58092
G1 X167.267 Y107.309 E70.70627
G1 X166.401 Y108.974 E70.83164
G1 X165.505 Y110.624 E70.95711
G1 X164.551 Y112.311 E71.08656
G1 X163.598 Y113.928 E71.21194
G1 X162.617 Y115.528 E71.33731
G1 X161.608 Y117.110 E71.46270
G1 X160.572 Y118.675 E71.58808
G1 X159.508 Y120.222 E71.71346
G1 X158.418 Y121.749 E71.83886
G1 X157.338 Y123.208 E71.96011
G1 X156.197 Y124.697 E72.08544
G1 X155.028 Y126.167 E72.21090
G1 X142.589 Y141.728 E73.54173
G1 X141.727 Y142.724 E73.62973
G1 X140.730 Y143.733 E73.72451
G1 X139.554 Y144.763 E73.82900
G1 X122.523 Y158.370 E75.28526
G1 X121.034 Y159.512 E75.41062
G1 X119.575 Y160.592 E75.53189
G1 X117.997 Y161.718 E75.66140
G1 X116.450 Y162.780 E75.78678
G1 X114.936 Y163.782 E75.90804
G1 X113.354 Y164.791 E76.03342
G1 X111.754 Y165.772 E76.15879
G1 X110.137 Y166.725 E76.28418
G1 X108.504 Y167.650 E76.40955
G1 X106.855 Y168.546 E76.53494
G1 X105.190 Y169.413 E76.66033
G1 X103.511 Y170.251 E76.78570
G1 X101.761 Y171.085 E76.91522
G1 X100.053 Y171.863 E77.04059
G1 X98.332 Y172.611 E77.16597
G1 X96.597 Y173.329 E77.29136
G1 X94.851 Y174.016 E77.41673
G1 X93.093 Y174.673 E77.54213
G1 X91.323 Y175.299 E77.66750
G1 X89.543 Y175.894 E77.79289
G1 X87.753 Y176.458 E77.91826
G1 X85.954 Y176.990 E78.04365
G1 X84.145 Y177.491 E78.16903
G1 X82.328 Y177.961 E78.29441
G1 X80.503 Y178.398 E78.41978
G1 X78.670 Y178.804 E78.54517
G1 X76.831 Y179.178 E78.67056
G1 X74.985 Y179.519 E78.79595
G1 X73.134 Y179.828 E78.92131
G1 X71.278 Y180.105 E79.04671
G1 X69.417 Y180.350 E79.17206
G1 X67.552 Y180.562 E79.29745
G1 X65.684 Y180.741 E79.42284
G1 X63.813 Y180.888 E79.54822
G1 X61.940 Y181.002 E79.67359
G1 X60.065 Y181.083 E79.79900
G1 X58.188 Y181.132 E79.92438
G1 X56.373 Y181.148 E80.04564
G1 X54.496 Y181.132 E80.17103
G1 X52.620 Y181.083 E80.29640
G1 X50.745 Y181.002 E80.42181
G1 X36.014 Y180.193 E81.40742
G1 X35.163 Y180.097 E81.46458
G1 X34.312 Y179.940 E81.52242
G1 X33.474 Y179.724 E81.58026
G1 X32.656 Y179.451 E81.63782
G1 X31.857 Y179.122 E81.69557
G1 X31.083 Y178.737 E81.75331
G1 X30.338 Y178.299 E81.81106
G1 X29.625 Y177.810 E81.86881
G1 X28.761 Y177.111 E81.94303
G1 X28.309 Y176.689 E81.98434
G1 X27.713 Y176.062 E82.04215
G1 X27.015 Y175.200 E82.11626
G1 X26.660 Y174.694 E82.15753
G1 X26.213 Y173.967 E82.21458
G1 X25.808 Y173.192 E82.27302
G1 X25.374 Y172.169 E82.34724
G1 X25.100 Y171.349 E82.40498
G1 X24.940 Y170.751 E82.44630
G1 X24.728 Y169.662 E82.52047
G1 X24.653 Y169.048 E82.56179
G1 X24.600 Y168.196 E82.61879
G1 X24.606 Y167.321 E82.67723
G1 X24.703 Y166.215 E82.75141
G1 X24.846 Y165.363 E82.80918
G1 X24.985 Y164.760 E82.85046
G1 X25.310 Y163.698 E82.92467
G1 X25.628 Y162.894 E82.98243
G1 X26.001 Y162.115 E83.04013
G1 X26.301 Y161.574 E83.08144
G1 X26.905 Y160.643 E83.15564
G1 X27.277 Y160.149 E83.19693
G1 X27.838 Y159.491 E83.25468
G1 X156.664 Y30.652 E95.42641
G1 E94.82641 F900.00000
G92 E0
G1 X42.718 Y163.522 F3000.000
G1 E0.65000 F900.00000
G1 F1920
G1 X43.006 Y163.932 E0.68351
G1 X43.264 Y164.362 E0.71702
G1 X43.492 Y164.809 E0.75053
G1 X43.688 Y165.271 E0.78403
G1 X43.851 Y165.745 E0.81754
G1 X43.981 Y166.230 E0.85105
G1 X44.076 Y166.722 E0.88456
G1 X44.138 Y167.220 E0.91807
G1 X44.164 Y167.721 E0.95158
G1 X44.155 Y168.222 E0.98509
G1 X44.111 Y168.722 E1.01860
G1 X44.033 Y169.217 E1.05210
G1 X43.920 Y169.706 E1.08561
G1 X43.773 Y170.186 E1.11912
G1 X43.594 Y170.654 E1.15263
G1 X43.382 Y171.109 E1.18614
G1 X43.139 Y171.547 E1.21964
G1 X42.871 Y171.959 E1.25245
G1 X42.564 Y172.368 E1.28662
G1 X42.234 Y172.747 E1.32017
G1 X41.880 Y173.102 E1.35368
G1 X41.509 Y173.424 E1.38648
G1 X41.101 Y173.732 E1.42065
G1 X40.680 Y174.006 E1.45420
G1 X40.241 Y174.249 E1.48771
G1 X39.787 Y174.461 E1.52122
G1 X39.318 Y174.641 E1.55473
G1 X38.839 Y174.788 E1.58824
G1 X38.350 Y174.900 E1.62175
G1 X37.855 Y174.979 E1.65525
G1 X37.355 Y175.023 E1.68876
G1 X36.853 Y175.031 E1.72227
G1 X36.352 Y175.005 E1.75578
G1 X35.855 Y174.944 E1.78929
G1 X35.362 Y174.848 E1.82280
