; generated by Slic3r 1.3.1-dev on 2019-10-08 at 15:16:25

; Print Config Notes: 
; DMF_3D_0.3mmThin222HC25%
; 
; external perimeters extrusion width = 0.60mm (4.82mm^3/s)
; perimeters extrusion width = 0.54mm (5.71mm^3/s)
; infill extrusion width = 0.70mm (7.63mm^3/s)
; solid infill extrusion width = 0.51mm (5.35mm^3/s)
; top infill extrusion width = 0.51mm (5.35mm^3/s)

M190 S90 ; set bed temperature and wait for it to be reached
M104 S250 ; set temperature
G28 ; home all axes
; Filament gcode

M109 S250 ; set temperature and wait for it to be reached
G21 ; set units to millimeters
G90 ; use absolute coordinates
M82 ; use absolute distances for extrusion
G92 E0
G1 Z0.300 F4500.000
G1 E-0.60000 F900.00000
G92 E0
G1 X48.036 Y23.396 F4500.000
G1 E0.65000 F900.00000
G1 F1920
G1 X48.316 Y22.845 E0.69898
G1 X48.800 Y22.016 E0.77508
G1 X49.341 Y21.222 E0.85124
G1 X49.936 Y20.469 E0.92731
G1 X50.824 Y19.517 E1.03056
G1 X51.534 Y18.871 E1.10667
G1 X52.288 Y18.276 E1.18277
G1 X52.794 Y17.922 E1.23177
G1 X53.611 Y17.417 E1.30789
G1 X54.461 Y16.970 E1.38401
G1 X55.330 Y16.588 E1.45928
G1 X56.571 Y16.160 E1.56333
G1 X57.168 Y16.000 E1.61232
G1 X58.108 Y15.806 E1.68844
G1 X59.060 Y15.677 E1.76457
G1 X60.007 Y15.615 E1.83982
G1 X61.319 Y15.637 E1.94388
G1 X62.274 Y15.733 E2.01999
G1 X62.885 Y15.830 E2.06898
G1 X63.823 Y16.034 E2.14509
G1 X64.744 Y16.303 E2.22120
G1 X65.960 Y16.770 E2.32442
G1 X66.825 Y17.186 E2.40054
G1 X67.365 Y17.486 E2.44953
G1 X68.177 Y17.999 E2.52564
G1 X68.951 Y18.567 E2.60175
G1 X69.934 Y19.421 E2.70499
G1 X190.579 Y140.066 E16.23123
G1 X191.218 Y140.783 E16.30734
G1 X192.002 Y141.823 E16.41062
G1 X192.514 Y142.634 E16.48665
G1 X192.814 Y143.175 E16.53564
G1 X193.363 Y144.353 E16.63870
G1 X193.697 Y145.256 E16.71506
G1 X193.966 Y146.176 E16.79103
G1 X194.105 Y146.778 E16.84006
G1 X194.267 Y147.724 E16.91615
G1 X194.363 Y148.682 E16.99244
G1 X194.385 Y149.985 E17.09572
G1 X194.353 Y150.602 E17.14476
G1 X194.248 Y151.551 E17.22043
G1 X194.076 Y152.501 E17.29698
G1 X193.740 Y153.755 E17.39989
G1 X193.415 Y154.663 E17.47637
G1 X193.172 Y155.233 E17.52549
G1 X192.749 Y156.089 E17.60114
G1 X192.077 Y157.208 E17.70462
G1 X191.515 Y157.989 E17.78093
G1 X190.907 Y158.721 E17.85640
G1 X190.484 Y159.175 E17.90556
G1 X189.784 Y159.844 E17.98231
G1 X188.779 Y160.658 E18.08484
G1 X187.980 Y161.202 E18.16147
G1 X187.154 Y161.684 E18.23732
G1 X186.297 Y162.108 E18.31311
G1 X185.404 Y162.474 E18.38959
G1 X184.493 Y162.775 E18.46564
G1 X183.893 Y162.935 E18.51487
G1 X182.959 Y163.129 E18.59050
G1 X181.744 Y163.283 E18.68762
G1 X163.169 Y164.559 E20.16368
G1 X161.410 Y164.666 E20.30337
G1 X159.683 Y164.741 E20.44041
G1 X157.959 Y164.785 E20.57717
G1 X156.233 Y164.799 E20.71397
G1 X154.507 Y164.783 E20.85086
G1 X152.782 Y164.738 E20.98764
G1 X151.057 Y164.662 E21.12455
G1 X149.333 Y164.556 E21.26143
G1 X147.614 Y164.419 E21.39814
G1 X145.982 Y164.263 E21.52816
G1 X144.265 Y164.068 E21.66515
G1 X142.552 Y163.843 E21.80208
G1 X140.762 Y163.575 E21.94556
G1 X139.059 Y163.290 E22.08244
G1 X137.361 Y162.975 E22.21941
G1 X135.671 Y162.629 E22.35614
G1 X133.985 Y162.255 E22.49303
G1 X132.306 Y161.851 E22.62996
G1 X130.635 Y161.418 E22.76678
G1 X128.973 Y160.956 E22.90355
G1 X127.318 Y160.466 E23.04041
G1 X125.671 Y159.946 E23.17730
G1 X124.036 Y159.398 E23.31406
G1 X122.408 Y158.821 E23.45099
G1 X120.791 Y158.215 E23.58787
G1 X119.185 Y157.582 E23.72475
G1 X117.591 Y156.920 E23.86154
G1 X116.008 Y156.231 E23.99842
G1 X114.438 Y155.515 E24.13523
G1 X112.880 Y154.771 E24.27212
G1 X111.335 Y154.000 E24.40898
G1 X109.804 Y153.202 E24.54585
G1 X108.362 Y152.419 E24.67591
G1 X106.860 Y151.570 E24.81275
G1 X105.372 Y150.695 E24.94959
G1 X103.900 Y149.794 E25.08640
G1 X102.443 Y148.866 E25.22331
G1 X101.003 Y147.914 E25.36019
G1 X99.580 Y146.937 E25.49700
G1 X98.174 Y145.935 E25.63388
G1 X96.787 Y144.910 E25.77064
G1 X95.349 Y143.806 E25.91435
G1 X93.999 Y142.731 E26.05120
G1 X92.667 Y141.633 E26.18803
G1 X91.420 Y140.567 E26.31806
G1 X80.158 Y130.671 E27.50659
G1 X79.111 Y129.609 E27.62483
G1 X69.477 Y118.631 E28.78281
G1 X68.368 Y117.333 E28.91808
G1 X67.270 Y116.002 E29.05493
G1 X66.104 Y114.535 E29.20345
G1 X65.091 Y113.214 E29.33544
G1 X64.065 Y111.826 E29.47226
G1 X63.113 Y110.491 E29.60232
G1 X62.134 Y109.068 E29.73920
G1 X61.134 Y107.557 E29.88284
G1 X60.207 Y106.101 E30.01968
G1 X59.306 Y104.629 E30.15653
G1 X58.430 Y103.141 E30.29340
G1 X57.581 Y101.638 E30.43023
G1 X56.758 Y100.121 E30.56710
G1 X55.962 Y98.589 E30.70393
G1 X55.192 Y97.044 E30.84080
G1 X54.450 Y95.486 E30.97764
G1 X53.734 Y93.915 E31.11450
G1 X53.047 Y92.331 E31.25135
G1 X52.387 Y90.736 E31.38820
G1 X51.755 Y89.130 E31.52504
G1 X51.151 Y87.513 E31.66190
G1 X50.575 Y85.885 E31.79877
G1 X50.029 Y84.248 E31.93560
G1 X49.510 Y82.601 E32.07245
G1 X49.020 Y80.946 E32.20932
G1 X48.560 Y79.282 E32.34615
G1 X48.128 Y77.611 E32.48303
G1 X47.726 Y75.932 E32.61985
G1 X47.353 Y74.247 E32.75672
G1 X47.010 Y72.555 E32.89358
G1 X46.696 Y70.857 E33.03043
G1 X46.412 Y69.156 E33.16720
G1 X46.169 Y67.533 E33.29729
G1 X45.943 Y65.820 E33.43423
G1 X45.747 Y64.105 E33.57108
G1 X45.581 Y62.387 E33.70792
G1 X45.444 Y60.666 E33.84478
G1 X45.338 Y58.944 E33.98162
G1 X45.262 Y57.219 E34.11847
G1 X45.216 Y55.493 E34.25532
G1 X45.200 Y53.767 E34.39218
G1 X45.215 Y52.041 E34.52905
G1 X45.259 Y50.315 E34.66587
G1 X45.338 Y48.505 E34.80952
G1 X46.717 Y28.256 E36.41857
G1 X46.871 Y27.043 E36.51552
G1 X46.989 Y26.436 E36.56451
G1 X47.226 Y25.506 E36.64061
G1 X47.527 Y24.594 E36.71671
G1 X48.010 Y23.450 E36.81520
G1 X48.602 Y23.684 F4500.000
G1 F1920
G1 X48.882 Y23.134 E36.86418
G1 X49.345 Y22.343 E36.93677
G1 X49.862 Y21.587 E37.00941
G1 X50.430 Y20.869 E37.08197
G1 X51.258 Y19.982 E37.17818
G1 X51.934 Y19.365 E37.25078
G1 X52.652 Y18.797 E37.32337
G1 X53.159 Y18.442 E37.37236
G1 X53.938 Y17.962 E37.44496
G1 X54.749 Y17.537 E37.51757
G1 X55.579 Y17.174 E37.58932
G1 X56.735 Y16.774 E37.68634
G1 X57.332 Y16.614 E37.73534
G1 X58.229 Y16.430 E37.80794
G1 X59.137 Y16.308 E37.88054
G1 X60.040 Y16.250 E37.95229
G1 X61.264 Y16.270 E38.04931
G1 X62.175 Y16.361 E38.12191
G1 X62.785 Y16.457 E38.17090
G1 X63.680 Y16.653 E38.24349
G1 X64.559 Y16.911 E38.31609
G1 X65.691 Y17.346 E38.41228
G1 X66.517 Y17.742 E38.48488
G1 X67.057 Y18.042 E38.53387
G1 X67.831 Y18.532 E38.60647
G1 X68.568 Y19.074 E38.67906
G1 X69.484 Y19.871 E38.77527
G1 X190.129 Y140.516 E52.30151
G1 X190.738 Y141.200 E52.37410
G1 X191.469 Y142.169 E52.47035
G1 X191.958 Y142.942 E52.54287
G1 X192.258 Y143.483 E52.59186
G1 X192.770 Y144.581 E52.68791
G1 X193.089 Y145.442 E52.76073
G1 X193.347 Y146.319 E52.83319
G1 X193.486 Y146.922 E52.88222
G1 X193.639 Y147.824 E52.95480
G1 X193.730 Y148.737 E53.02755
G1 X193.750 Y149.951 E53.12379
G1 X193.718 Y150.569 E53.17282
G1 X193.618 Y151.474 E53.24503
G1 X193.452 Y152.380 E53.31801
G1 X193.139 Y153.548 E53.41393
G1 X192.830 Y154.414 E53.48685
G1 X192.587 Y154.984 E53.53595
G1 X192.183 Y155.800 E53.60814
G1 X191.557 Y156.843 E53.70457
G1 X191.022 Y157.589 E53.77733
G1 X190.441 Y158.288 E53.84937
G1 X190.019 Y158.742 E53.89850
G1 X189.351 Y159.378 E53.97165
G1 X188.414 Y160.137 E54.06725
G1 X187.654 Y160.657 E54.14029
G1 X186.865 Y161.118 E54.21266
G1 X186.048 Y161.523 E54.28498
G1 X185.198 Y161.873 E54.35789
G1 X184.329 Y162.161 E54.43044
G1 X183.729 Y162.321 E54.47963
G1 X182.838 Y162.505 E54.55180
G1 X181.700 Y162.649 E54.64270
G1 X163.125 Y163.925 E56.11875
G1 X161.456 Y164.027 E56.25134
G1 X159.743 Y164.103 E56.38728
G1 X158.026 Y164.148 E56.52347
G1 X156.239 Y164.164 E56.66516
G1 X154.523 Y164.148 E56.80116
G1 X152.809 Y164.103 E56.93707
G1 X151.095 Y164.027 E57.07309
G1 X149.383 Y163.922 E57.20909
G1 X147.675 Y163.787 E57.34494
G1 X145.967 Y163.622 E57.48095
G1 X144.262 Y163.427 E57.61700
G1 X142.635 Y163.213 E57.74709
G1 X140.940 Y162.960 E57.88298
G1 X139.249 Y162.678 E58.01886
G1 X137.562 Y162.366 E58.15489
G1 X135.879 Y162.024 E58.29104
G1 X134.207 Y161.654 E58.42681
G1 X132.538 Y161.254 E58.56285
G1 X130.877 Y160.825 E58.69890
G1 X129.153 Y160.347 E58.84067
G1 X127.509 Y159.860 E58.97664
G1 X125.873 Y159.343 E59.11264
G1 X124.248 Y158.798 E59.24854
G1 X122.630 Y158.225 E59.38458
G1 X121.024 Y157.624 E59.52058
G1 X119.428 Y156.994 E59.65658
G1 X117.844 Y156.337 E59.79250
G1 X116.271 Y155.653 E59.92849
G1 X114.711 Y154.941 E60.06443
G1 X113.163 Y154.202 E60.20043
G1 X111.629 Y153.436 E60.33641
G1 X110.107 Y152.644 E60.47240
G1 X108.601 Y151.825 E60.60836
G1 X107.108 Y150.980 E60.74433
G1 X105.631 Y150.109 E60.88027
G1 X104.169 Y149.212 E61.01625
G1 X102.785 Y148.330 E61.14634
G1 X101.354 Y147.384 E61.28234
G1 X99.940 Y146.413 E61.41828
G1 X98.544 Y145.418 E61.55427
G1 X97.165 Y144.399 E61.69016
G1 X95.745 Y143.309 E61.83210
G1 X94.403 Y142.241 E61.96808
G1 X93.080 Y141.149 E62.10403
G1 X91.833 Y140.084 E62.23406
G1 X80.608 Y130.222 E63.41864
G1 X79.589 Y129.190 E63.53359
G1 X69.954 Y118.211 E64.69157
G1 X68.852 Y116.921 E64.82617
G1 X67.760 Y115.598 E64.96214
G1 X66.646 Y114.197 E65.10403
G1 X65.602 Y112.836 E65.24001
G1 X64.583 Y111.457 E65.37595
G1 X63.630 Y110.121 E65.50602
G1 X62.658 Y108.708 E65.64201
G1 X61.670 Y107.216 E65.78389
G1 X60.749 Y105.769 E65.91986
G1 X59.854 Y104.306 E66.05582
G1 X58.984 Y102.828 E66.19181
G1 X58.140 Y101.335 E66.32777
G1 X57.322 Y99.827 E66.46376
G1 X56.531 Y98.306 E66.59971
G1 X55.766 Y96.770 E66.73569
G1 X55.028 Y95.222 E66.87166
G1 X54.317 Y93.661 E67.00764
G1 X53.634 Y92.088 E67.14361
G1 X52.978 Y90.503 E67.27958
G1 X52.350 Y88.907 E67.41554
G1 X51.750 Y87.300 E67.55153
G1 X51.178 Y85.683 E67.68751
G1 X50.635 Y84.057 E67.82346
G1 X50.120 Y82.421 E67.95944
G1 X49.633 Y80.776 E68.09542
G1 X49.175 Y79.123 E68.23138
G1 X48.765 Y77.535 E68.36144
G1 X48.363 Y75.867 E68.49745
G1 X47.992 Y74.193 E68.63338
G1 X47.649 Y72.512 E68.76937
G1 X47.336 Y70.826 E68.90535
G1 X47.052 Y69.134 E69.04132
G1 X46.787 Y67.364 E69.18323
G1 X46.564 Y65.664 E69.31920
G1 X46.371 Y63.959 E69.45516
G1 X46.207 Y62.252 E69.59113
G1 X46.073 Y60.542 E69.72710
G1 X45.969 Y58.830 E69.86309
G1 X45.895 Y57.117 E69.99904
G1 X45.850 Y55.402 E70.13502
G1 X45.836 Y53.687 E70.27101
G1 X45.850 Y52.046 E70.40107
G1 X45.895 Y50.332 E70.53703
G1 X45.969 Y48.618 E70.67302
G1 X47.351 Y28.299 E72.28759
G1 X47.495 Y27.164 E72.37832
G1 X47.613 Y26.557 E72.42731
G1 X47.839 Y25.670 E72.49989
G1 X48.128 Y24.801 E72.57248
G1 X48.577 Y23.738 E72.66394
G1 X49.168 Y23.973 F4500.000
G1 F1920
G1 X49.449 Y23.422 E72.71292
G1 X49.890 Y22.671 E72.78199
G1 X50.383 Y21.952 E72.85111
G1 X50.924 Y21.269 E72.92016
G1 X51.691 Y20.447 E73.00934
G1 X52.334 Y19.859 E73.07842
G1 X53.017 Y19.317 E73.14749
G1 X53.523 Y18.963 E73.19649
G1 X54.266 Y18.507 E73.26557
G1 X55.038 Y18.103 E73.33466
G1 X55.827 Y17.759 E73.40290
G1 X56.900 Y17.388 E73.49289
G1 X57.497 Y17.228 E73.54188
G1 X58.351 Y17.053 E73.61097
G1 X59.214 Y16.938 E73.68005
G1 X60.073 Y16.885 E73.74829
G1 X61.208 Y16.904 E73.83828
G1 X62.076 Y16.988 E73.90737
G1 X62.686 Y17.085 E73.95635
G1 X63.537 Y17.272 E74.02543
G1 X64.373 Y17.519 E74.09451
G1 X65.423 Y17.922 E74.18367
G1 X66.209 Y18.298 E74.25276
G1 X66.749 Y18.598 E74.30174
G1 X67.485 Y19.065 E74.37082
G1 X68.186 Y19.582 E74.43990
G1 X69.035 Y20.320 E74.52908
G1 X189.853 Y141.151 E88.07543
G1 X190.418 Y141.814 E88.14447
G1 X190.790 Y142.307 E88.19347
G1 X191.272 Y143.034 E88.26257
G1 X191.817 Y144.017 E88.35169
G1 X192.078 Y144.578 E88.40077
G1 X192.398 Y145.386 E88.46968
G1 X192.662 Y146.219 E88.53897
G1 X192.915 Y147.313 E88.62793
G1 X193.043 Y148.177 E88.69719
G1 X193.096 Y148.792 E88.74618
G1 X193.120 Y149.664 E88.81528
G1 X193.062 Y150.782 E88.90409
G1 X192.946 Y151.652 E88.97362
G1 X192.772 Y152.503 E89.04247
G1 X192.612 Y153.099 E89.09144
G1 X192.245 Y154.166 E89.18086
G1 X192.002 Y154.735 E89.22994
G1 X191.617 Y155.512 E89.29868
G1 X191.036 Y156.478 E89.38804
G1 X190.528 Y157.188 E89.45726
G1 X189.976 Y157.855 E89.52587
G1 X189.554 Y158.308 E89.57498
G1 X188.918 Y158.913 E89.64453
G1 X188.049 Y159.617 E89.73319
G1 X187.327 Y160.112 E89.80264
G1 X186.577 Y160.551 E89.87153
G1 X185.799 Y160.938 E89.94038
G1 X184.991 Y161.272 E90.00972
G1 X184.164 Y161.547 E90.07877
G1 X183.565 Y161.707 E90.12793
G1 X182.716 Y161.881 E90.19664
G1 X181.657 Y162.015 E90.28130
G1 X163.082 Y163.291 E91.75736
G1 X161.355 Y163.396 E91.89455
G1 X159.650 Y163.470 E92.02978
G1 X157.948 Y163.514 E92.16482
G1 X156.244 Y163.528 E92.29987
G1 X154.540 Y163.513 E92.43499
G1 X152.837 Y163.468 E92.57003
G1 X151.134 Y163.393 E92.70516
G1 X149.433 Y163.288 E92.84028
G1 X147.736 Y163.154 E92.97527
G1 X145.978 Y162.983 E93.11527
G1 X144.345 Y162.797 E93.24554
G1 X142.718 Y162.582 E93.37564
G1 X141.034 Y162.331 E93.51066
G1 X139.354 Y162.051 E93.64566
G1 X137.678 Y161.741 E93.78081
G1 X136.006 Y161.401 E93.91606
G1 X134.344 Y161.034 E94.05097
G1 X132.687 Y160.636 E94.18613
G1 X131.036 Y160.210 E94.32129
G1 X129.334 Y159.738 E94.46132
G1 X127.700 Y159.253 E94.59640
G1 X126.075 Y158.740 E94.73152
G1 X124.460 Y158.199 E94.86656
G1 X122.853 Y157.630 E95.00169
G1 X121.257 Y157.032 E95.13681
G1 X119.671 Y156.407 E95.27193
G1 X118.098 Y155.755 E95.40699
G1 X116.535 Y155.075 E95.54209
G1 X114.985 Y154.368 E95.67716
G1 X113.447 Y153.633 E95.81227
G1 X111.922 Y152.873 E95.94737
G1 X110.411 Y152.085 E96.08249
G1 X108.913 Y151.271 E96.21756
G1 X107.431 Y150.432 E96.35266
G1 X105.963 Y149.567 E96.48772
G1 X104.564 Y148.710 E96.61777
G1 X103.126 Y147.794 E96.75291
G1 X101.705 Y146.854 E96.88803
G1 X100.300 Y145.890 E97.02309
G1 X98.913 Y144.900 E97.15820
G1 X97.543 Y143.888 E97.29322
G1 X96.140 Y142.811 E97.43339
G1 X94.807 Y141.750 E97.56849
G1 X93.493 Y140.666 E97.70356
G1 X92.246 Y139.601 E97.83360
G1 X81.057 Y129.772 E99.01422
G1 X80.067 Y128.771 E99.12589
G1 X70.432 Y117.792 E100.28387
G1 X69.335 Y116.508 E100.41779
G1 X68.250 Y115.193 E100.55288
G1 X67.150 Y113.810 E100.69301
G1 X66.113 Y112.458 E100.82811
G1 X65.100 Y111.088 E100.96318
G1 X64.147 Y109.752 E101.09324
G1 X63.182 Y108.348 E101.22835
G1 X62.206 Y106.874 E101.36847
G1 X61.291 Y105.437 E101.50356
G1 X60.401 Y103.984 E101.63865
G1 X59.537 Y102.515 E101.77376
G1 X58.698 Y101.032 E101.90884
G1 X57.886 Y99.534 E102.04394
G1 X57.099 Y98.022 E102.17902
G1 X56.339 Y96.497 E102.31412
G1 X55.606 Y94.959 E102.44921
G1 X54.900 Y93.408 E102.58431
G1 X54.221 Y91.845 E102.71940
G1 X53.570 Y90.270 E102.85449
G1 X52.946 Y88.685 E102.98957
G1 X52.349 Y87.088 E103.12468
G1 X51.781 Y85.482 E103.25978
G1 X51.241 Y83.866 E103.39486
G1 X50.729 Y82.240 E103.52995
G1 X50.245 Y80.606 E103.66506
G1 X49.791 Y78.964 E103.80013
G1 X49.380 Y77.376 E103.93019
G1 X48.982 Y75.719 E104.06532
G1 X48.612 Y74.055 E104.20038
G1 X48.272 Y72.386 E104.33549
G1 X47.961 Y70.710 E104.47058
G1 X47.679 Y69.029 E104.60567
G1 X47.417 Y67.281 E104.74582
G1 X47.196 Y65.592 E104.88092
G1 X47.003 Y63.899 E105.01600
G1 X46.841 Y62.202 E105.15109
G1 X46.707 Y60.504 E105.28618
G1 X46.604 Y58.802 E105.42129
G1 X46.530 Y57.100 E105.55637
G1 X46.486 Y55.397 E105.69146
G1 X46.472 Y53.693 E105.82657
G1 X46.486 Y52.052 E105.95664
G1 X46.530 Y50.349 E106.09171
G1 X46.604 Y48.646 E106.22682
G1 X47.985 Y28.343 E107.84014
G1 X48.119 Y27.285 E107.92465
G1 X48.237 Y26.679 E107.97364
G1 X48.453 Y25.835 E108.04271
G1 X48.729 Y25.008 E108.11178
G1 X49.143 Y24.027 E108.19621
G1 E107.59621 F900.00000
G92 E0
G1 X176.222 Y143.712 F4500.000
G1 E0.65000 F900.00000
G1 F1920
G1 X176.641 Y143.419 E0.69052
G1 X177.080 Y143.155 E0.73111
G1 X177.536 Y142.923 E0.77172
G1 X178.007 Y142.723 E0.81229
G1 X178.492 Y142.556 E0.85290
G1 X178.987 Y142.423 E0.89355
G1 X179.490 Y142.326 E0.93419
G1 X180.008 Y142.263 E0.97552
G1 X180.508 Y142.236 E1.01525
G1 X181.021 Y142.245 E1.05592
G1 X181.531 Y142.290 E1.09650
G1 X182.036 Y142.370 E1.13704
G1 X182.535 Y142.485 E1.17766
G1 X183.025 Y142.635 E1.21823
G1 X183.503 Y142.818 E1.25886
G1 X183.968 Y143.035 E1.29949
G1 X184.415 Y143.283 E1.34005
G1 X184.844 Y143.562 E1.38061
G1 X185.253 Y143.870 E1.42122
G1 X185.640 Y144.206 E1.46180
G1 X186.002 Y144.568 E1.50246
G1 X186.338 Y144.955 E1.54304
