; generated by Slic3r 1.3.1-dev on 2019-11-15 at 15:40:14

; Print Config Notes: 
; DMF_3D_0.3mmThin222HC25%
; 
; external perimeters extrusion width = 0.60mm (4.82mm^3/s)
; perimeters extrusion width = 0.54mm (5.71mm^3/s)
; infill extrusion width = 0.70mm (7.63mm^3/s)
; solid infill extrusion width = 0.51mm (5.35mm^3/s)
; top infill extrusion width = 0.51mm (5.35mm^3/s)

M190 S90 ; set bed temperature and wait for it to be reached
M104 S250 ; set temperature
G28 ; home all axes
; Filament gcode

M109 S250 ; set temperature and wait for it to be reached
G21 ; set units to millimeters
G90 ; use absolute coordinates
M82 ; use absolute distances for extrusion
G92 E0
G1 Z0.300 F4500.000
G1 E-0.60000 F900.00000
G92 E0
G1 X82.971 Y82.608 F4500.000
G1 E0.65000 F900.00000
G1 F1920
G1 X83.373 Y82.220 E0.69427
G1 X84.055 Y81.632 E0.76567
G1 X84.777 Y81.093 E0.83709
G1 X85.534 Y80.606 E0.90850
G1 X86.632 Y80.022 E1.00703
G1 X87.459 Y79.667 E1.07844
G1 X88.310 Y79.370 E1.14985
G1 X88.847 Y79.216 E1.19412
G1 X89.725 Y79.017 E1.26554
G1 X90.615 Y78.880 E1.33694
G1 X91.781 Y78.794 E1.42957
G1 X117.512 Y78.402 E3.46970
G1 X118.487 Y78.413 E3.54701
G1 X119.044 Y78.452 E3.59131
G1 X119.938 Y78.566 E3.66271
G1 X121.153 Y78.824 E3.76125
G1 X121.690 Y78.978 E3.80552
G1 X122.541 Y79.275 E3.87693
G1 X123.676 Y79.780 E3.97546
G1 X124.169 Y80.042 E4.01974
G1 X124.939 Y80.510 E4.09115
G1 X125.945 Y81.240 E4.18966
G1 X126.373 Y81.599 E4.23396
G1 X127.029 Y82.216 E4.30536
G1 X127.640 Y82.878 E4.37679
G1 X128.204 Y83.580 E4.44819
G1 X128.718 Y84.320 E4.51960
G1 X129.339 Y85.396 E4.61814
G1 X129.723 Y86.211 E4.68954
G1 X130.050 Y87.051 E4.76096
G1 X130.222 Y87.582 E4.80523
G1 X130.452 Y88.453 E4.87663
G1 X130.620 Y89.338 E4.94805
G1 X130.749 Y90.541 E5.04399
G1 X131.756 Y114.750 E6.96491
G1 X131.772 Y115.303 E7.00876
G1 X131.769 Y121.474 E7.49800
G1 X131.697 Y122.512 E7.58050
G1 X131.517 Y123.530 E7.66241
G1 X131.338 Y124.198 E7.71721
G1 X131.114 Y124.851 E7.77200
G1 X130.843 Y125.488 E7.82682
G1 X130.530 Y126.104 E7.88166
G1 X130.174 Y126.697 E7.93647
G1 X129.777 Y127.263 E7.99126
G1 X129.342 Y127.800 E8.04603
G1 X128.871 Y128.306 E8.10091
G1 X128.098 Y129.002 E8.18327
G1 X127.545 Y129.418 E8.23819
G1 X126.670 Y129.965 E8.32003
G1 X126.053 Y130.280 E8.37492
G1 X125.089 Y130.669 E8.45732
G1 X124.428 Y130.871 E8.51216
G1 X123.753 Y131.027 E8.56705
G1 X122.732 Y131.170 E8.64877
G1 X122.115 Y131.206 E8.69781
G1 X96.384 Y131.598 E10.73794
G1 X87.960 Y131.599 E11.40576
G1 X87.269 Y131.562 E11.46064
G1 X86.247 Y131.419 E11.54241
G1 X85.573 Y131.263 E11.59731
G1 X84.911 Y131.061 E11.65216
G1 X84.266 Y130.814 E11.70689
G1 X83.639 Y130.521 E11.76176
G1 X82.739 Y130.002 E11.84417
G1 X82.172 Y129.605 E11.89897
G1 X81.634 Y129.169 E11.95390
G1 X81.129 Y128.698 E12.00861
G1 X80.657 Y128.192 E12.06349
G1 X80.223 Y127.655 E12.11826
G1 X79.826 Y127.089 E12.17305
G1 X79.470 Y126.496 E12.22790
G1 X79.156 Y125.879 E12.28279
G1 X78.886 Y125.243 E12.33752
G1 X78.662 Y124.590 E12.39231
G1 X78.483 Y123.922 E12.44713
G1 X78.303 Y122.904 E12.52907
G1 X78.231 Y121.865 E12.61159
G1 X78.228 Y115.695 E13.10077
G1 X78.244 Y115.142 E13.14461
G1 X79.251 Y90.933 E15.06553
G1 X79.380 Y89.730 E15.16148
G1 X79.548 Y88.845 E15.23289
G1 X79.683 Y88.303 E15.27716
G1 X79.946 Y87.456 E15.34746
G1 X80.277 Y86.603 E15.41998
G1 X80.661 Y85.788 E15.49140
G1 X81.101 Y85.002 E15.56281
G1 X81.594 Y84.249 E15.63420
G1 X82.140 Y83.532 E15.70564
G1 X82.930 Y82.651 E15.79941
G1 X83.413 Y83.065 F4500.000
G1 F1920
G1 X83.814 Y82.677 E15.84368
G1 X84.464 Y82.119 E15.91156
G1 X85.150 Y81.607 E15.97946
G1 X86.129 Y80.996 E16.07097
G1 X86.890 Y80.603 E16.13886
G1 X87.677 Y80.264 E16.20676
G1 X88.485 Y79.981 E16.27465
G1 X89.022 Y79.827 E16.31892
G1 X89.857 Y79.639 E16.38682
G1 X90.704 Y79.509 E16.45471
G1 X91.790 Y79.429 E16.54107
G1 X117.521 Y79.037 E18.58120
G1 X118.442 Y79.047 E18.65423
G1 X119.000 Y79.086 E18.69852
G1 X119.849 Y79.195 E18.76641
G1 X120.978 Y79.435 E18.85792
G1 X121.515 Y79.589 E18.90219
G1 X122.323 Y79.872 E18.97008
G1 X123.378 Y80.341 E19.06158
G1 X123.871 Y80.604 E19.10586
G1 X124.602 Y81.049 E19.17375
G1 X125.536 Y81.727 E19.26524
G1 X125.964 Y82.086 E19.30953
G1 X126.587 Y82.673 E19.37742
G1 X127.168 Y83.303 E19.44533
G1 X127.703 Y83.971 E19.51321
G1 X128.349 Y84.928 E19.60472
G1 X128.768 Y85.675 E19.67262
G1 X129.134 Y86.449 E19.74051
G1 X129.343 Y86.967 E19.78480
G1 X129.613 Y87.765 E19.85157
G1 X129.835 Y88.606 E19.92056
G1 X129.994 Y89.448 E19.98846
G1 X130.114 Y90.567 E20.07771
G1 X131.121 Y114.777 E21.99863
G1 X131.137 Y115.303 E22.04038
G1 X131.134 Y121.452 E22.52787
G1 X131.066 Y122.437 E22.60611
G1 X130.962 Y123.085 E22.65817
G1 X130.734 Y124.001 E22.73301
G1 X130.524 Y124.613 E22.78429
G1 X130.272 Y125.209 E22.83559
G1 X129.979 Y125.786 E22.88691
G1 X129.647 Y126.341 E22.93820
G1 X129.276 Y126.872 E22.98948
G1 X128.870 Y127.375 E23.04074
G1 X128.429 Y127.849 E23.09209
G1 X127.690 Y128.515 E23.17095
G1 X127.172 Y128.904 E23.22234
G1 X126.371 Y129.404 E23.29716
G1 X125.794 Y129.699 E23.34852
G1 X124.872 Y130.072 E23.42741
G1 X124.252 Y130.260 E23.47873
G1 X123.621 Y130.405 E23.53009
G1 X122.688 Y130.536 E23.60481
G1 X122.105 Y130.571 E23.65108
G1 X96.374 Y130.963 E25.69121
G1 X87.960 Y130.963 E26.35826
G1 X87.313 Y130.928 E26.40962
G1 X86.379 Y130.797 E26.48438
G1 X85.748 Y130.652 E26.53575
G1 X85.128 Y130.464 E26.58708
G1 X84.525 Y130.233 E26.63830
G1 X83.937 Y129.960 E26.68965
G1 X83.075 Y129.463 E26.76855
G1 X82.546 Y129.091 E26.81984
G1 X82.043 Y128.682 E26.87123
G1 X81.571 Y128.241 E26.92244
G1 X81.130 Y127.767 E26.97380
G1 X80.724 Y127.264 E27.02505
G1 X80.353 Y126.733 E27.07633
G1 X80.021 Y126.178 E27.12766
G1 X79.727 Y125.600 E27.17902
G1 X79.374 Y124.725 E27.25384
G1 X79.184 Y124.107 E27.30514
G1 X79.037 Y123.476 E27.35644
G1 X78.900 Y122.499 E27.43468
G1 X78.866 Y121.843 E27.48673
G1 X78.863 Y115.695 E27.97416
G1 X78.879 Y115.169 E28.01590
G1 X79.886 Y90.959 E29.93682
G1 X79.965 Y90.135 E30.00246
G1 X80.103 Y89.290 E30.07037
G1 X80.382 Y88.170 E30.16186
G1 X80.657 Y87.359 E30.22976
G1 X80.987 Y86.569 E30.29765
G1 X81.372 Y85.804 E30.36555
G1 X81.651 Y85.320 E30.40982
G1 X82.121 Y84.604 E30.47770
G1 X82.641 Y83.923 E30.54562
G1 X83.371 Y83.108 E30.63236
G1 X83.854 Y83.523 F4500.000
G1 F1920
G1 X84.256 Y83.135 E30.67663
G1 X84.872 Y82.606 E30.74100
G1 X85.524 Y82.121 E30.80538
G1 X86.428 Y81.557 E30.88986
G1 X87.149 Y81.183 E30.95424
G1 X87.894 Y80.861 E31.01861
G1 X88.419 Y80.670 E31.06288
G1 X89.197 Y80.438 E31.12726
G1 X89.990 Y80.260 E31.19164
G1 X90.792 Y80.139 E31.25602
G1 X91.800 Y80.065 E31.33611
G1 X117.531 Y79.673 E33.37624
G1 X118.398 Y79.681 E33.44499
G1 X118.955 Y79.720 E33.48928
G1 X119.761 Y79.824 E33.55366
G1 X120.803 Y80.046 E33.63814
G1 X121.340 Y80.200 E33.68240
G1 X122.106 Y80.469 E33.74678
G1 X123.079 Y80.903 E33.83125
G1 X123.572 Y81.165 E33.87553
G1 X124.266 Y81.588 E33.93990
G1 X125.127 Y82.214 E34.02437
G1 X125.555 Y82.573 E34.06865
G1 X126.146 Y83.131 E34.13303
G1 X126.696 Y83.728 E34.19742
G1 X127.352 Y84.568 E34.28189
G1 X127.664 Y85.031 E34.32616
G1 X128.071 Y85.717 E34.38942
G1 X128.441 Y86.455 E34.45491
G1 X128.754 Y87.205 E34.51930
G1 X129.083 Y88.218 E34.60376
G1 X129.218 Y88.760 E34.64803
G1 X129.368 Y89.558 E34.71241
G1 X129.478 Y90.594 E34.79497
G1 X130.499 Y115.176 E36.74550
G1 X130.501 Y121.303 E37.23121
G1 X130.487 Y121.779 E37.26894
G1 X130.432 Y122.379 E37.31675
G1 X130.284 Y123.222 E37.38461
G1 X130.021 Y124.137 E37.46005
G1 X129.701 Y124.930 E37.52789
G1 X129.429 Y125.468 E37.57569
G1 X128.924 Y126.275 E37.65113
G1 X128.398 Y126.949 E37.71894
G1 X127.988 Y127.392 E37.76676
G1 X127.281 Y128.028 E37.84212
G1 X126.798 Y128.390 E37.88998
G1 X126.073 Y128.843 E37.95778
G1 X125.536 Y129.118 E38.00561
G1 X124.654 Y129.475 E38.08099
G1 X124.077 Y129.649 E38.12879
G1 X123.489 Y129.783 E38.17663
G1 X122.643 Y129.902 E38.24435
G1 X122.095 Y129.935 E38.28785
G1 X96.364 Y130.327 E40.32798
G1 X87.960 Y130.328 E40.99426
G1 X87.358 Y130.294 E41.04209
G1 X86.511 Y130.175 E41.10985
G1 X85.923 Y130.041 E41.15769
G1 X85.346 Y129.867 E41.20550
G1 X84.783 Y129.652 E41.25321
G1 X84.236 Y129.399 E41.30104
G1 X83.412 Y128.924 E41.37643
G1 X82.920 Y128.577 E41.42420
G1 X82.451 Y128.195 E41.47206
G1 X82.013 Y127.784 E41.51977
G1 X81.602 Y127.341 E41.56760
G1 X81.225 Y126.872 E41.61534
G1 X80.880 Y126.378 E41.66310
G1 X80.571 Y125.860 E41.71091
G1 X80.299 Y125.322 E41.75874
G1 X79.978 Y124.529 E41.82655
G1 X79.801 Y123.953 E41.87433
G1 X79.663 Y123.366 E41.92211
G1 X79.532 Y122.433 E41.99684
G1 X79.501 Y121.821 E42.04536
G1 X79.499 Y115.695 E42.53104
G1 X79.514 Y115.195 E42.57069
G1 X80.522 Y90.986 E44.49161
G1 X80.597 Y90.202 E44.55407
G1 X80.729 Y89.400 E44.61846
G1 X80.917 Y88.610 E44.68282
G1 X81.159 Y87.835 E44.74721
G1 X81.559 Y86.847 E44.83168
G1 X81.922 Y86.121 E44.89606
G1 X82.202 Y85.638 E44.94033
G1 X82.648 Y84.960 E45.00470
G1 X83.141 Y84.314 E45.06910
G1 X83.813 Y83.566 E45.14881
G1 E44.54881 F900.00000
G92 E0
G1 X116.285 Y122.700 F4500.000
G1 E0.65000 F900.00000
G1 F720
G1 X115.841 Y123.279 E0.70783
G1 X115.263 Y123.723 E0.76565
G1 X114.589 Y124.002 E0.82349
G1 X113.865 Y124.097 E0.88132
G1 X113.142 Y124.002 E0.93915
G1 X112.468 Y123.723 E0.99699
G1 X111.886 Y123.276 E1.05516
G1 X111.438 Y122.681 E1.11424
G1 X111.166 Y122.026 E1.17043
G1 X111.071 Y121.303 E1.22826
G1 X111.166 Y120.580 E1.28609
G1 X111.445 Y119.906 E1.34392
G1 X111.890 Y119.327 E1.40175
G1 X112.468 Y118.883 E1.45958
G1 X113.142 Y118.604 E1.51741
G1 X113.845 Y118.511 E1.57361
G1 X114.585 Y118.602 E1.63269
G1 X115.263 Y118.883 E1.69087
G1 X115.841 Y119.327 E1.74869
G1 X116.285 Y119.906 E1.80652
G1 X116.565 Y120.580 E1.86436
G1 X116.660 Y121.303 E1.92219
G1 X116.565 Y122.026 E1.98001
G1 X116.308 Y122.645 E2.03309
G1 X115.730 Y122.380 F4500.000
G1 F720
G1 X115.388 Y122.826 E2.07765
G1 X114.942 Y123.168 E2.12221
G1 X114.423 Y123.383 E2.16678
G1 X113.865 Y123.456 E2.21134
G1 X113.308 Y123.383 E2.25590
G1 X112.789 Y123.168 E2.30047
G1 X112.342 Y122.825 E2.34515
G1 X111.994 Y122.363 E2.39096
G1 X111.786 Y121.860 E2.43411
G1 X111.712 Y121.303 E2.47867
G1 X111.786 Y120.746 E2.52323
G1 X112.001 Y120.226 E2.56780
G1 X112.343 Y119.781 E2.61236
G1 X112.789 Y119.438 E2.65692
G1 X113.308 Y119.223 E2.70148
G1 X113.848 Y119.152 E2.74463
G1 X114.421 Y119.223 E2.79044
G1 X114.942 Y119.438 E2.83513
G1 X115.388 Y119.781 E2.87969
G1 X115.730 Y120.226 E2.92425
G1 X115.945 Y120.746 E2.96882
G1 X116.019 Y121.303 E3.01338
G1 X115.945 Y121.860 E3.05794
G1 X115.753 Y122.324 E3.09775
G1 X115.730 Y122.380 F4500.000
G1 E2.49775 F900.00000
G92 E0
G1 X114.589 Y118.002 F4500.000
G1 E0.65000 F900.00000
G1 F720
G1 X113.865 Y118.097 E0.70783
G1 X113.142 Y118.002 E0.76566
G1 X112.468 Y117.723 E0.82350
G1 X111.886 Y117.276 E0.88167
G1 X111.438 Y116.681 E0.94075
G1 X111.166 Y116.026 E0.99695
G1 X111.071 Y115.303 E1.05477
G1 X111.166 Y114.580 E1.11260
G1 X111.445 Y113.906 E1.17044
G1 X111.890 Y113.327 E1.22826
G1 X112.468 Y112.883 E1.28609
G1 X113.142 Y112.604 E1.34392
G1 X113.845 Y112.511 E1.40012
G1 X114.585 Y112.602 E1.45920
G1 X115.263 Y112.883 E1.51738
G1 X115.841 Y113.327 E1.57521
G1 X116.285 Y113.906 E1.63303
G1 X116.565 Y114.580 E1.69087
G1 X116.660 Y115.303 E1.74870
G1 X116.565 Y116.026 E1.80652
G1 X116.285 Y116.700 E1.86436
G1 X115.841 Y117.279 E1.92219
G1 X115.263 Y117.723 E1.98001
G1 X114.644 Y117.979 E2.03309
G1 X114.423 Y117.383 F4500.000
G1 F720
G1 X113.865 Y117.456 E2.07765
G1 X113.308 Y117.383 E2.12222
G1 X112.789 Y117.168 E2.16678
G1 X112.342 Y116.825 E2.21146
G1 X111.994 Y116.363 E2.25728
G1 X111.786 Y115.860 E2.30043
G1 X111.712 Y115.303 E2.34499
G1 X111.786 Y114.746 E2.38955
G1 X112.001 Y114.226 E2.43411
G1 X112.343 Y113.781 E2.47867
G1 X112.789 Y113.438 E2.52323
G1 X113.308 Y113.223 E2.56780
G1 X113.848 Y113.152 E2.61094
G1 X114.421 Y113.223 E2.65676
G1 X114.942 Y113.438 E2.70145
G1 X115.388 Y113.781 E2.74601
G1 X115.730 Y114.226 E2.79057
G1 X115.945 Y114.746 E2.83513
G1 X116.019 Y115.303 E2.87969
G1 X115.945 Y115.860 E2.92425
G1 X115.730 Y116.380 E2.96882
G1 X115.388 Y116.826 E3.01338
G1 X114.942 Y117.168 E3.05794
G1 X114.478 Y117.360 E3.09775
G1 X114.423 Y117.383 F4500.000
G1 E2.49775 F900.00000
G92 E0
G1 X119.166 Y116.026 F4500.000
G1 E0.65000 F900.00000
G1 F720
G1 X119.071 Y115.303 E0.70783
G1 X119.166 Y114.580 E0.76566
G1 X119.445 Y113.906 E0.82349
G1 X119.890 Y113.327 E0.88132
G1 X120.468 Y112.883 E0.93914
G1 X121.142 Y112.604 E0.99698
G1 X121.845 Y112.511 E1.05317
G1 X122.585 Y112.602 E1.11225
G1 X123.263 Y112.883 E1.17044
G1 X123.841 Y113.327 E1.22826
G1 X124.285 Y113.906 E1.28609
G1 X124.565 Y114.580 E1.34392
G1 X124.660 Y115.303 E1.40175
G1 X124.565 Y116.026 E1.45958
G1 X124.285 Y116.700 E1.51741
G1 X123.841 Y117.279 E1.57524
G1 X123.263 Y117.723 E1.63307
G1 X122.589 Y118.002 E1.69090
G1 X121.865 Y118.097 E1.74873
G1 X121.142 Y118.002 E1.80657
G1 X120.468 Y117.723 E1.86440
G1 X119.890 Y117.279 E1.92223
G1 X119.445 Y116.700 E1.98005
G1 X119.189 Y116.082 E2.03313
G1 X119.786 Y115.860 F4500.000
G1 F720
G1 X119.712 Y115.303 E2.07769
G1 X119.786 Y114.746 E2.12225
G1 X120.001 Y114.226 E2.16682
G1 X120.343 Y113.781 E2.21138
G1 X120.789 Y113.438 E2.25594
G1 X121.308 Y113.223 E2.30050
G1 X121.848 Y113.152 E2.34365
G1 X122.421 Y113.223 E2.38946
G1 X122.942 Y113.438 E2.43415
G1 X123.388 Y113.781 E2.47871
G1 X123.730 Y114.226 E2.52327
G1 X123.945 Y114.746 E2.56784
G1 X124.019 Y115.303 E2.61240
G1 X123.945 Y115.860 E2.65696
G1 X123.730 Y116.380 E2.70152
G1 X123.388 Y116.826 E2.74608
G1 X122.942 Y117.168 E2.79064
G1 X122.423 Y117.383 E2.83521
G1 X121.865 Y117.456 E2.87977
G1 X121.308 Y117.383 E2.92434
G1 X120.789 Y117.168 E2.96890
G1 X120.343 Y116.826 E3.01346
G1 X120.001 Y116.380 E3.05802
G1 X119.809 Y115.916 E3.09783
G1 X119.786 Y115.860 F4500.000
G1 X120.955 Y118.682 F4500.000
G1 F720
G1 X121.142 Y118.604 E3.11393
G1 X121.845 Y118.511 E3.17012
G1 X122.585 Y118.602 E3.22920
G1 X123.263 Y118.883 E3.28738
G1 X123.841 Y119.327 E3.34521
G1 X124.285 Y119.906 E3.40304
G1 X124.565 Y120.580 E3.46087
G1 X124.660 Y121.303 E3.51870
G1 X124.565 Y122.026 E3.57653
G1 X124.285 Y122.700 E3.63436
G1 X123.841 Y123.279 E3.69219
G1 X123.263 Y123.723 E3.75001
G1 X122.589 Y124.002 E3.80785
G1 X121.865 Y124.097 E3.86568
G1 X121.142 Y124.002 E3.92351
G1 X120.468 Y123.723 E3.98135
G1 X119.890 Y123.279 E4.03917
G1 X119.445 Y122.700 E4.09700
G1 X119.166 Y122.026 E4.15484
G1 X119.071 Y121.303 E4.21266
G1 X119.166 Y120.580 E4.27049
G1 X119.445 Y119.906 E4.32833
G1 X119.890 Y119.327 E4.38615
G1 X120.468 Y118.883 E4.44398
G1 X120.899 Y118.705 E4.48096
G1 X121.198 Y119.269 F4500.000
G1 F720
G1 X121.308 Y119.223 E4.49042
G1 X121.848 Y119.152 E4.53357
G1 X122.421 Y119.223 E4.57938
G1 X122.942 Y119.438 E4.62407
G1 X123.388 Y119.781 E4.66863
G1 X123.730 Y120.226 E4.71319
G1 X123.945 Y120.746 E4.75775
G1 X124.019 Y121.303 E4.80231
G1 X123.945 Y121.860 E4.84687
G1 X123.730 Y122.380 E4.89144
G1 X123.388 Y122.826 E4.93600
G1 X122.942 Y123.168 E4.98056
G1 X122.423 Y123.383 E5.02512
G1 X121.865 Y123.456 E5.06969
G1 X121.308 Y123.383 E5.11425
G1 X120.789 Y123.168 E5.15882
G1 X120.343 Y122.826 E5.20338
G1 X120.001 Y122.380 E5.24794
G1 X119.786 Y121.860 E5.29250
G1 X119.712 Y121.303 E5.33706
G1 X119.786 Y120.746 E5.38162
G1 X120.001 Y120.226 E5.42619
G1 X120.343 Y119.781 E5.47075
G1 X120.789 Y119.438 E5.51531
G1 X121.143 Y119.292 E5.54566
G1 X121.208 Y119.150 F4500.000
G1 E4.94566 F900.00000
G92 E0
G1 X118.324 Y95.439 F4500.000
G1 E0.65000 F900.00000
G1 F720
G1 X117.994 Y95.463 E0.67621
G1 X117.448 Y95.444 E0.71959
G1 X116.842 Y95.337 E0.76834
G1 X116.306 Y95.163 E0.81302
G1 X115.799 Y94.916 E0.85770
G1 X115.524 Y94.744 E0.88345
G1 X115.093 Y94.407 E0.92676
G1 X114.860 Y94.182 E0.95252
G1 X114.509 Y93.763 E0.99583
G1 X114.327 Y93.493 E1.02164
G1 X114.060 Y92.990 E1.06676
G1 X113.870 Y92.467 E1.11095
G1 X113.741 Y91.859 E1.16021
G1 X113.702 Y91.303 E1.20438
G1 X113.742 Y90.741 E1.24904
G1 X113.870 Y90.139 E1.29779
G1 X114.057 Y89.625 E1.34117
G1 X114.202 Y89.328 E1.36738
G1 X114.498 Y88.856 E1.41155
