; generated by Slic3r 1.3.1-dev on 2019-11-10 at 08:41:20

; Print Config Notes: 
; DMF_3D_0.3mmThin222HC25%
; 
; external perimeters extrusion width = 0.60mm (4.82mm^3/s)
; perimeters extrusion width = 0.54mm (5.71mm^3/s)
; infill extrusion width = 0.70mm (7.63mm^3/s)
; solid infill extrusion width = 0.51mm (5.35mm^3/s)
; top infill extrusion width = 0.51mm (5.35mm^3/s)

M190 S90 ; set bed temperature and wait for it to be reached
M104 S250 ; set temperature
G28 ; home all axes
; Filament gcode

M109 S250 ; set temperature and wait for it to be reached
G21 ; set units to millimeters
G90 ; use absolute coordinates
M82 ; use absolute distances for extrusion
G92 E0
G1 Z0.300 F4500.000
G1 E-0.60000 F900.00000
G92 E0
G1 X98.100 Y75.556 F4500.000
G1 E0.65000 F900.00000
G1 F1920
G1 X99.556 Y74.226 E0.80627
G1 X100.554 Y73.773 E0.89316
G1 X123.484 Y66.323 E2.80457
G1 X125.443 Y66.103 E2.96084
G1 X126.516 Y66.323 E3.04769
G1 X149.446 Y73.773 E4.95908
G1 X151.160 Y74.746 E5.11535
G1 X151.900 Y75.556 E5.20225
G1 X166.071 Y95.061 E7.11363
G1 X166.886 Y96.856 E7.26990
G1 X167.008 Y97.945 E7.35680
G1 X167.008 Y122.055 E9.26818
G1 X166.612 Y123.986 E9.42445
G1 X166.071 Y124.939 E9.51134
G1 X151.900 Y144.444 E11.42272
G1 X150.444 Y145.774 E11.57899
G1 X149.446 Y146.227 E11.66589
G1 X126.516 Y153.677 E13.57727
G1 X124.557 Y153.897 E13.73354
G1 X123.484 Y153.677 E13.82043
G1 X100.554 Y146.227 E15.73181
G1 X98.840 Y145.254 E15.88808
G1 X98.100 Y144.444 E15.97498
G1 X83.929 Y124.939 E17.88636
G1 X83.114 Y123.144 E18.04263
G1 X82.992 Y122.055 E18.12953
G1 X82.992 Y97.945 E20.04090
G1 X83.388 Y96.014 E20.19717
G1 X83.929 Y95.061 E20.28406
G1 X98.065 Y75.604 E22.19070
G1 X98.615 Y75.929 F4500.000
G1 F1920
G1 X100.750 Y74.378 E22.39997
G1 X123.680 Y66.927 E24.31137
G1 X126.320 Y66.927 E24.52060
G1 X149.250 Y74.378 E26.43200
G1 X151.385 Y75.929 E26.64128
G1 X165.557 Y95.435 E28.55266
G1 X166.372 Y97.945 E28.76193
G1 X166.372 Y122.055 E30.67331
G1 X165.557 Y124.565 E30.88258
G1 X151.385 Y144.071 E32.79396
G1 X149.250 Y145.622 E33.00324
G1 X148.203 Y145.962 E33.09048
G1 X126.320 Y153.073 E34.91462
G1 X123.680 Y153.073 E35.12389
G1 X100.750 Y145.622 E37.03527
G1 X98.615 Y144.071 E37.24454
G1 X84.443 Y124.565 E39.15593
G1 X83.628 Y122.055 E39.36520
G1 X83.628 Y97.945 E41.27658
G1 X84.443 Y95.435 E41.48585
G1 X98.579 Y75.978 E43.39248
G1 X99.129 Y76.303 F4500.000
G1 F1920
G1 X100.947 Y74.982 E43.57061
G1 X123.877 Y67.532 E45.48200
G1 X126.123 Y67.532 E45.66010
G1 X149.053 Y74.982 E47.57150
G1 X150.871 Y76.303 E47.74963
G1 X165.042 Y95.808 E49.66101
G1 X165.737 Y97.945 E49.83914
G1 X165.737 Y122.055 E51.75052
G1 X165.042 Y124.192 E51.92865
G1 X150.871 Y143.697 E53.84003
G1 X149.053 Y145.018 E54.01816
G1 X148.007 Y145.358 E54.10540
G1 X126.123 Y152.468 E55.92954
G1 X123.877 Y152.468 E56.10767
G1 X100.947 Y145.018 E58.01905
G1 X99.129 Y143.697 E58.19718
G1 X84.958 Y124.192 E60.10856
G1 X84.263 Y122.055 E60.28669
G1 X84.263 Y97.945 E62.19807
G1 X84.957 Y95.808 E62.37620
G1 X99.094 Y76.351 E64.28283
G1 E63.68283 F900.00000
G92 E0
G1 X135.264 Y135.074 F4500.000
G1 E0.65000 F900.00000
G1 F720
G1 X135.061 Y135.646 E0.69810
G1 X134.718 Y136.146 E0.74620
G1 X134.256 Y136.540 E0.79431
G1 X133.708 Y136.802 E0.84242
G1 X133.112 Y136.912 E0.89053
G1 X132.507 Y136.865 E0.93863
G1 X131.935 Y136.662 E0.98673
G1 X131.435 Y136.318 E1.03484
G1 X131.041 Y135.857 E1.08295
G1 X130.779 Y135.309 E1.13105
G1 X130.669 Y134.713 E1.17916
G1 X130.716 Y134.108 E1.22726
G1 X130.919 Y133.536 E1.27537
G1 X131.263 Y133.036 E1.32348
G1 X131.724 Y132.642 E1.37159
G1 X132.272 Y132.380 E1.41969
G1 X132.857 Y132.272 E1.46686
G1 X133.470 Y132.316 E1.51563
G1 X134.045 Y132.520 E1.56398
G1 X134.545 Y132.864 E1.61209
G1 X134.940 Y133.325 E1.66019
G1 X135.201 Y133.873 E1.70829
G1 X135.311 Y134.469 E1.75641
G1 X135.268 Y135.014 E1.79975
G1 X134.637 Y134.941 F4500.000
G1 F720
G1 X134.490 Y135.355 E1.83459
G1 X134.241 Y135.717 E1.86942
G1 X133.907 Y136.003 E1.90426
G1 X133.510 Y136.192 E1.93910
G1 X133.078 Y136.272 E1.97394
G1 X132.640 Y136.237 E2.00878
G1 X132.226 Y136.091 E2.04361
G1 X131.864 Y135.842 E2.07845
G1 X131.578 Y135.508 E2.11329
G1 X131.389 Y135.111 E2.14812
G1 X131.309 Y134.679 E2.18297
G1 X131.344 Y134.241 E2.21780
G1 X131.490 Y133.827 E2.25264
G1 X131.739 Y133.465 E2.28748
G1 X132.073 Y133.179 E2.32232
G1 X132.470 Y132.990 E2.35715
G1 X132.892 Y132.912 E2.39121
G1 X133.339 Y132.944 E2.42672
G1 X133.754 Y133.091 E2.46164
G1 X134.116 Y133.340 E2.49648
G1 X134.402 Y133.674 E2.53132
G1 X134.591 Y134.071 E2.56615
G1 X134.671 Y134.503 E2.60099
G1 X134.641 Y134.881 E2.63107
G1 X134.637 Y134.941 F4500.000
G1 E2.03107 F900.00000
G92 E0
G1 X119.331 Y134.713 F4500.000
G1 E0.65000 F900.00000
G1 F720
G1 X119.221 Y135.309 E0.69811
G1 X118.959 Y135.857 E0.74621
G1 X118.565 Y136.318 E0.79432
G1 X118.065 Y136.662 E0.84243
G1 X117.493 Y136.865 E0.89053
G1 X116.888 Y136.912 E0.93863
G1 X116.292 Y136.802 E0.98674
G1 X115.744 Y136.540 E1.03485
G1 X115.282 Y136.146 E1.08296
G1 X114.939 Y135.646 E1.13106
G1 X114.736 Y135.074 E1.17916
G1 X114.688 Y134.466 E1.22752
G1 X114.804 Y133.862 E1.27629
G1 X115.060 Y133.325 E1.32345
G1 X115.455 Y132.864 E1.37156
G1 X115.955 Y132.520 E1.41967
G1 X116.527 Y132.317 E1.46777
G1 X117.120 Y132.271 E1.51493
G1 X117.725 Y132.379 E1.56371
G1 X118.276 Y132.642 E1.61206
G1 X118.740 Y133.038 E1.66042
G1 X119.085 Y133.547 E1.70919
G1 X119.284 Y134.108 E1.75636
G1 X119.326 Y134.653 E1.79971
G1 X118.691 Y134.679 F4500.000
G1 F720
G1 X118.611 Y135.111 E1.83455
G1 X118.422 Y135.508 E1.86938
G1 X118.136 Y135.842 E1.90422
G1 X117.774 Y136.091 E1.93906
G1 X117.360 Y136.238 E1.97390
G1 X116.922 Y136.272 E2.00873
G1 X116.490 Y136.192 E2.04357
G1 X116.093 Y136.003 E2.07841
G1 X115.759 Y135.717 E2.11325
G1 X115.510 Y135.355 E2.14809
G1 X115.363 Y134.941 E2.18292
G1 X115.329 Y134.502 E2.21785
G1 X115.413 Y134.062 E2.25335
G1 X115.598 Y133.674 E2.28741
G1 X115.884 Y133.340 E2.32225
G1 X116.246 Y133.091 E2.35709
G1 X116.660 Y132.945 E2.39192
G1 X117.088 Y132.911 E2.42598
G1 X117.529 Y132.990 E2.46149
G1 X117.927 Y133.179 E2.49641
G1 X118.262 Y133.465 E2.53134
G1 X118.513 Y133.836 E2.56684
G1 X118.656 Y134.241 E2.60090
G1 X118.686 Y134.619 E2.63098
G1 X118.691 Y134.679 F4500.000
G1 E2.03098 F900.00000
G92 E0
G1 X105.888 Y126.661 F4500.000
G1 E0.65000 F900.00000
G1 F720
G1 X105.448 Y127.079 E0.69811
G1 X104.915 Y127.368 E0.74621
G1 X104.325 Y127.510 E0.79432
G1 X103.718 Y127.494 E0.84242
G1 X103.136 Y127.322 E0.89053
G1 X102.619 Y127.004 E0.93864
G1 X102.201 Y126.564 E0.98674
G1 X101.912 Y126.031 E1.03485
G1 X101.770 Y125.441 E1.08296
G1 X101.786 Y124.834 E1.13107
G1 X101.958 Y124.253 E1.17917
G1 X102.275 Y123.735 E1.22726
G1 X102.715 Y123.318 E1.27538
G1 X103.249 Y123.028 E1.32349
G1 X103.827 Y122.889 E1.37065
G1 X104.442 Y122.901 E1.41943
G1 X105.027 Y123.075 E1.46778
G1 X105.544 Y123.392 E1.51587
G1 X105.962 Y123.832 E1.56399
G1 X106.252 Y124.365 E1.61209
G1 X106.393 Y124.955 E1.66020
G1 X106.377 Y125.562 E1.70832
G1 X106.205 Y126.143 E1.75641
G1 X105.919 Y126.610 E1.79976
G1 X105.390 Y126.257 F4500.000
G1 F720
G1 X105.071 Y126.560 E1.83460
G1 X104.685 Y126.770 E1.86943
G1 X104.258 Y126.872 E1.90427
G1 X103.818 Y126.861 E1.93910
G1 X103.397 Y126.736 E1.97394
G1 X103.022 Y126.506 E2.00878
G1 X102.720 Y126.188 E2.04362
G1 X102.510 Y125.801 E2.07846
G1 X102.408 Y125.374 E2.11330
G1 X102.419 Y124.935 E2.14814
G1 X102.544 Y124.513 E2.18297
G1 X102.773 Y124.139 E2.21780
G1 X103.092 Y123.836 E2.25265
G1 X103.478 Y123.627 E2.28749
G1 X103.896 Y123.526 E2.32155
G1 X104.344 Y123.535 E2.35705
G1 X104.766 Y123.660 E2.39198
G1 X105.141 Y123.890 E2.42681
G1 X105.443 Y124.209 E2.46165
G1 X105.653 Y124.595 E2.49649
G1 X105.756 Y125.022 E2.53133
G1 X105.744 Y125.461 E2.56617
G1 X105.619 Y125.883 E2.60100
G1 X105.421 Y126.206 E2.63108
G1 X105.390 Y126.257 F4500.000
G1 E2.03108 F900.00000
G92 E0
G1 X99.745 Y112.245 F4500.000
G1 E0.65000 F900.00000
G1 F720
G1 X99.143 Y112.324 E0.69810
G1 X98.542 Y112.245 E0.74621
G1 X97.981 Y112.013 E0.79431
G1 X97.500 Y111.644 E0.84242
G1 X97.130 Y111.162 E0.89053
G1 X96.898 Y110.602 E0.93864
G1 X96.819 Y109.997 E0.98699
G1 X96.903 Y109.387 E1.03576
G1 X97.130 Y108.838 E1.08293
G1 X97.500 Y108.356 E1.13104
G1 X97.981 Y107.987 E1.17915
G1 X98.542 Y107.755 E1.22724
G1 X99.132 Y107.677 E1.27441
G1 X99.742 Y107.754 E1.32318
G1 X100.306 Y107.987 E1.37154
G1 X100.787 Y108.356 E1.41965
G1 X101.157 Y108.838 E1.46775
G1 X101.389 Y109.398 E1.51586
G1 X101.468 Y110.000 E1.56396
G1 X101.389 Y110.602 E1.61206
G1 X101.157 Y111.162 E1.66017
G1 X100.787 Y111.644 E1.70828
G1 X100.306 Y112.013 E1.75638
G1 X99.801 Y112.222 E1.79974
G1 X99.579 Y111.626 F4500.000
G1 F720
G1 X99.143 Y111.683 E1.83457
G1 X98.708 Y111.626 E1.86941
G1 X98.302 Y111.458 E1.90424
G1 X97.953 Y111.190 E1.93909
G1 X97.686 Y110.842 E1.97392
G1 X97.518 Y110.436 E2.00876
G1 X97.460 Y109.999 E2.04369
G1 X97.521 Y109.555 E2.07919
G1 X97.686 Y109.158 E2.11325
G1 X97.953 Y108.810 E2.14809
G1 X98.302 Y108.542 E2.18293
G1 X98.708 Y108.374 E2.21776
G1 X99.134 Y108.318 E2.25182
G1 X99.578 Y108.374 E2.28733
G1 X99.985 Y108.542 E2.32226
G1 X100.334 Y108.810 E2.35710
G1 X100.601 Y109.158 E2.39193
G1 X100.769 Y109.564 E2.42677
G1 X100.827 Y110.000 E2.46161
G1 X100.769 Y110.436 E2.49644
G1 X100.601 Y110.842 E2.53128
G1 X100.334 Y111.190 E2.56612
G1 X99.985 Y111.458 E2.60095
G1 X99.635 Y111.603 E2.63104
G1 X99.579 Y111.626 F4500.000
G1 E2.03104 F900.00000
G92 E0
G1 X103.249 Y96.972 F4500.000
G1 E0.65000 F900.00000
G1 F720
G1 X102.715 Y96.682 E0.69812
G1 X102.275 Y96.265 E0.74623
G1 X101.958 Y95.747 E0.79432
G1 X101.786 Y95.166 E0.84243
G1 X101.770 Y94.559 E0.89054
G1 X101.912 Y93.969 E0.93865
G1 X102.201 Y93.436 E0.98675
G1 X102.619 Y92.996 E1.03486
G1 X103.136 Y92.678 E1.08296
G1 X103.718 Y92.506 E1.13107
G1 X104.313 Y92.491 E1.17823
G1 X104.912 Y92.630 E1.22701
G1 X105.448 Y92.921 E1.27536
G1 X105.888 Y93.339 E1.32347
G1 X106.205 Y93.857 E1.37158
G1 X106.377 Y94.438 E1.41966
G1 X106.393 Y95.045 E1.46779
G1 X106.252 Y95.635 E1.51589
G1 X105.962 Y96.168 E1.56400
G1 X105.544 Y96.608 E1.61212
G1 X105.027 Y96.925 E1.66020
G1 X104.445 Y97.098 E1.70831
G1 X103.839 Y97.114 E1.75642
G1 X103.307 Y96.986 E1.79976
G1 X103.478 Y96.373 F4500.000
G1 F720
G1 X103.092 Y96.164 E1.83460
G1 X102.773 Y95.861 E1.86944
G1 X102.544 Y95.487 E1.90427
G1 X102.419 Y95.065 E1.93911
G1 X102.408 Y94.626 E1.97395
G1 X102.510 Y94.199 E2.00879
G1 X102.720 Y93.812 E2.04363
G1 X103.022 Y93.494 E2.07846
G1 X103.397 Y93.264 E2.11330
G1 X103.818 Y93.139 E2.14814
G1 X104.248 Y93.128 E2.18220
G1 X104.684 Y93.230 E2.21770
G1 X105.071 Y93.440 E2.25263
G1 X105.390 Y93.743 E2.28747
G1 X105.619 Y94.117 E2.32231
G1 X105.744 Y94.539 E2.35713
G1 X105.756 Y94.978 E2.39198
G1 X105.653 Y95.405 E2.42682
G1 X105.443 Y95.791 E2.46166
G1 X105.141 Y96.110 E2.49650
G1 X104.766 Y96.340 E2.53133
G1 X104.345 Y96.465 E2.56616
G1 X103.906 Y96.476 E2.60101
G1 X103.537 Y96.387 E2.63108
G1 X103.478 Y96.373 F4500.000
G1 E2.03108 F900.00000
G92 E0
G1 X115.060 Y86.675 F4500.000
G1 E0.65000 F900.00000
G1 F720
G1 X114.799 Y86.127 E0.69810
G1 X114.689 Y85.531 E0.74621
G1 X114.736 Y84.926 E0.79432
G1 X114.939 Y84.354 E0.84242
G1 X115.282 Y83.854 E0.89052
G1 X115.744 Y83.460 E0.93863
G1 X116.292 Y83.198 E0.98674
G1 X116.877 Y83.090 E1.03391
G1 X117.490 Y83.134 E1.08268
G1 X118.065 Y83.338 E1.13103
G1 X118.565 Y83.682 E1.17914
G1 X118.959 Y84.143 E1.22724
G1 X119.221 Y84.691 E1.27534
G1 X119.331 Y85.287 E1.32345
G1 X119.284 Y85.892 E1.37156
G1 X119.081 Y86.464 E1.41967
G1 X118.737 Y86.964 E1.46778
G1 X118.276 Y87.358 E1.51588
G1 X117.728 Y87.620 E1.56398
G1 X117.131 Y87.730 E1.61209
G1 X116.527 Y87.683 E1.66020
G1 X115.955 Y87.480 E1.70830
G1 X115.455 Y87.136 E1.75641
G1 X115.099 Y86.721 E1.79975
G1 X115.598 Y86.326 F4500.000
G1 F720
G1 X115.409 Y85.929 E1.83459
G1 X115.329 Y85.497 E1.86943
G1 X115.363 Y85.059 E1.90427
G1 X115.510 Y84.645 E1.93910
G1 X115.759 Y84.283 E1.97393
G1 X116.093 Y83.997 E2.00878
G1 X116.490 Y83.808 E2.04361
G1 X116.912 Y83.730 E2.07768
G1 X117.359 Y83.762 E2.11318
G1 X117.774 Y83.909 E2.14810
G1 X118.136 Y84.158 E2.18294
G1 X118.422 Y84.492 E2.21778
G1 X118.611 Y84.889 E2.25261
G1 X118.691 Y85.321 E2.28745
G1 X118.656 Y85.759 E2.32229
G1 X118.510 Y86.173 E2.35713
G1 X118.261 Y86.535 E2.39197
G1 X117.927 Y86.821 E2.42681
G1 X117.530 Y87.010 E2.46164
G1 X117.098 Y87.090 E2.49648
G1 X116.660 Y87.055 E2.53132
G1 X116.246 Y86.909 E2.56615
G1 X115.884 Y86.660 E2.60099
G1 X115.637 Y86.371 E2.63107
G1 X115.598 Y86.326 F4500.000
G1 E2.03107 F900.00000
G92 E0
G1 X130.669 Y85.284 F4500.000
G1 E0.65000 F900.00000
G1 F720
G1 X130.785 Y84.680 E0.69878
G1 X131.041 Y84.143 E0.74594
G1 X131.435 Y83.682 E0.79404
G1 X131.935 Y83.338 E0.84215
G1 X132.507 Y83.135 E0.89025
G1 X133.100 Y83.089 E0.93742
G1 X133.706 Y83.197 E0.98619
G1 X134.256 Y83.460 E1.03455
G1 X134.718 Y83.854 E1.08266
G1 X135.061 Y84.354 E1.13076
G1 X135.264 Y84.926 E1.17886
G1 X135.312 Y85.534 E1.22722
G1 X135.196 Y86.138 E1.27600
G1 X134.939 Y86.675 E1.32316
G1 X134.545 Y87.136 E1.37126
G1 X134.045 Y87.480 E1.41937
G1 X133.473 Y87.683 E1.46747
G1 X132.868 Y87.730 E1.51558
G1 X132.272 Y87.620 E1.56369
G1 X131.724 Y87.358 E1.61179
G1 X131.260 Y86.962 E1.66014
G1 X130.915 Y86.453 E1.70892
G1 X130.716 Y85.892 E1.75609
G1 X130.673 Y85.344 E1.79969
G1 X131.309 Y85.320 F4500.000
G1 F720
G1 X131.393 Y84.880 E1.83519
G1 X131.578 Y84.492 E1.86925
G1 X131.864 Y84.158 E1.90409
G1 X132.226 Y83.909 E1.93893
G1 X132.640 Y83.763 E1.97376
G1 X133.068 Y83.729 E2.00782
G1 X133.509 Y83.808 E2.04333
G1 X133.907 Y83.997 E2.07825
G1 X134.241 Y84.283 E2.11310
G1 X134.490 Y84.645 E2.14793
G1 X134.637 Y85.059 E2.18276
G1 X134.671 Y85.498 E2.21769
G1 X134.587 Y85.938 E2.25320
G1 X134.402 Y86.326 E2.28725
G1 X134.116 Y86.660 E2.32209
G1 X133.754 Y86.909 E2.35693
G1 X133.340 Y87.055 E2.39177
G1 X132.902 Y87.090 E2.42660
G1 X132.470 Y87.010 E2.46144
G1 X132.073 Y86.821 E2.49628
G1 X131.738 Y86.535 E2.53120
G1 X131.487 Y86.164 E2.56671
G1 X131.344 Y85.759 E2.60077
G1 X131.314 Y85.380 E2.63094
G1 X131.309 Y85.320 F4500.000
G1 E2.03094 F900.00000
G92 E0
G1 X144.112 Y93.339 F4500.000
G1 E0.65000 F900.00000
G1 F720
G1 X144.552 Y92.921 E0.69811
G1 X145.085 Y92.632 E0.74621
G1 X145.664 Y92.493 E0.79338
G1 X146.279 Y92.505 E0.84215
G1 X146.864 Y92.678 E0.89051
G1 X147.384 Y92.997 E0.93887
G1 X147.805 Y93.446 E0.98764
G1 X148.088 Y93.969 E1.03480
G1 X148.230 Y94.559 E1.08291
G1 X148.214 Y95.166 E1.13102
G1 X148.042 Y95.747 E1.17912
G1 X147.725 Y96.265 E1.22722
G1 X147.285 Y96.682 E1.27533
G1 X146.751 Y96.972 E1.32345
G1 X146.161 Y97.114 E1.37154
G1 X145.555 Y97.098 E1.41965
G1 X144.973 Y96.925 E1.46776
G1 X144.453 Y96.607 E1.51610
G1 X144.032 Y96.158 E1.56488
G1 X143.748 Y95.635 E1.61205
G1 X143.607 Y95.045 E1.66015
G1 X143.623 Y94.438 E1.70828
G1 X143.795 Y93.857 E1.75637
G1 X144.081 Y93.390 E1.79971
G1 X144.610 Y93.743 F4500.000
G1 F720
G1 X144.929 Y93.440 E1.83455
G1 X145.315 Y93.230 E1.86939
G1 X145.733 Y93.130 E1.90345
G1 X146.181 Y93.139 E1.93895
G1 X146.603 Y93.264 E1.97388
G1 X146.979 Y93.494 E2.00880
G1 X147.285 Y93.821 E2.04431
G1 X147.490 Y94.199 E2.07837
G1 X147.592 Y94.626 E2.11321
G1 X147.581 Y95.065 E2.14804
G1 X147.456 Y95.487 E2.18288
G1 X147.227 Y95.861 E2.21771
G1 X146.908 Y96.164 E2.25256
G1 X146.522 Y96.373 E2.28740
G1 X146.094 Y96.476 E2.32223
G1 X145.655 Y96.465 E2.35707
G1 X145.234 Y96.340 E2.39191
G1 X144.858 Y96.110 E2.42683
G1 X144.552 Y95.783 E2.46233
G1 X144.347 Y95.405 E2.49640
G1 X144.244 Y94.978 E2.53123
G1 X144.256 Y94.539 E2.56608
G1 X144.381 Y94.117 E2.60091
G1 X144.579 Y93.794 E2.63099
G1 X144.610 Y93.743 F4500.000
G1 E2.03099 F900.00000
G92 E0
G1 X150.255 Y107.755 F4500.000
G1 E0.65000 F900.00000
G1 F720
G1 X150.845 Y107.677 E0.69716
G1 X151.455 Y107.754 E0.74594
G1 X152.019 Y107.987 E0.79428
G1 X152.500 Y108.356 E0.84239
G1 X152.870 Y108.838 E0.89050
G1 X153.102 Y109.398 E0.93861
G1 X153.181 Y110.000 E0.98671
G1 X153.102 Y110.602 E1.03482
G1 X152.870 Y111.162 E1.08293
G1 X152.500 Y111.644 E1.13104
