; generated by Slic3r 1.3.1-dev on 2019-11-09 at 09:07:47

; Print Config Notes: 
; DMF_3D_0.3mmThin222HC25%
; 
; external perimeters extrusion width = 0.60mm (4.82mm^3/s)
; perimeters extrusion width = 0.54mm (5.71mm^3/s)
; infill extrusion width = 0.70mm (7.63mm^3/s)
; solid infill extrusion width = 0.51mm (5.35mm^3/s)
; top infill extrusion width = 0.51mm (5.35mm^3/s)

M190 S90 ; set bed temperature and wait for it to be reached
M104 S250 ; set temperature
G28 ; home all axes
; Filament gcode

M109 S250 ; set temperature and wait for it to be reached
G21 ; set units to millimeters
G90 ; use absolute coordinates
M82 ; use absolute distances for extrusion
G92 E0
G1 Z0.300 F4500.000
G1 E-0.60000 F900.00000
G92 E0
G1 X91.740 Y87.811 F4500.000
G1 E0.65000 F900.00000
G1 F1920
G1 X109.956 Y72.526 E2.53522
G1 X111.690 Y71.588 E2.69149
G1 X113.110 Y71.378 E2.80531
G1 X136.890 Y71.378 E4.69052
G1 X138.821 Y71.774 E4.84679
G1 X140.044 Y72.526 E4.96061
G1 X158.260 Y87.811 E6.84583
G1 X159.485 Y89.355 E7.00210
G1 X159.939 Y90.718 E7.11593
G1 X164.068 Y114.137 E9.00116
G1 X164.013 Y116.107 E9.15743
G1 X163.485 Y117.442 E9.27124
G1 X151.595 Y138.036 E11.15646
G1 X150.287 Y139.510 E11.31273
G1 X149.024 Y140.193 E11.42656
G1 X126.678 Y148.326 E13.31177
G1 X124.728 Y148.615 E13.46804
G1 X123.322 Y148.326 E13.58186
G1 X100.976 Y140.193 E15.46707
G1 X99.297 Y139.161 E15.62334
G1 X98.405 Y138.036 E15.73717
G1 X86.515 Y117.442 E17.62239
G1 X85.892 Y115.572 E17.77866
G1 X85.932 Y114.136 E17.89248
G1 X90.061 Y90.718 E19.77770
G1 X90.787 Y88.885 E19.93397
G1 X91.700 Y87.856 E20.04304
G1 X92.148 Y88.298 F4500.000
G1 F1920
G1 X110.365 Y73.013 E21.92826
G1 X111.994 Y72.162 E22.07395
G1 X113.110 Y72.013 E22.16324
G1 X136.890 Y72.013 E24.04846
G1 X138.685 Y72.409 E24.19414
G1 X139.635 Y73.013 E24.28344
G1 X157.852 Y88.298 E26.16866
G1 X158.972 Y89.754 E26.31434
G1 X159.313 Y90.828 E26.40365
G1 X163.442 Y114.247 E28.28888
G1 X163.364 Y116.083 E28.43456
G1 X162.935 Y117.124 E28.52385
G1 X151.045 Y137.718 E30.40907
G1 X149.805 Y139.075 E30.55475
G1 X148.807 Y139.596 E30.64406
G1 X126.461 Y147.729 E32.52927
G1 X124.639 Y147.971 E32.67496
G1 X123.539 Y147.729 E32.76426
G1 X101.193 Y139.596 E34.64947
G1 X99.642 Y138.611 E34.79516
G1 X98.955 Y137.718 E34.88446
G1 X87.065 Y117.124 E36.76968
G1 X86.510 Y115.372 E36.91536
G1 X86.558 Y114.247 E37.00466
G1 X90.687 Y90.828 E38.88988
G1 X91.388 Y89.129 E39.03557
G1 X92.108 Y88.342 E39.12012
G1 X92.557 Y88.785 F4500.000
G1 F1920
G1 X110.773 Y73.499 E41.00534
G1 X113.110 Y72.649 E41.20249
G1 X136.890 Y72.649 E43.08770
G1 X139.227 Y73.499 E43.28485
G1 X157.443 Y88.785 E45.17007
G1 X158.687 Y90.939 E45.36723
G1 X162.816 Y114.357 E47.25245
G1 X162.384 Y116.806 E47.44960
G1 X150.494 Y137.400 E49.33482
G1 X148.589 Y138.999 E49.53197
G1 X126.243 Y147.132 E51.41719
G1 X123.757 Y147.132 E51.61434
G1 X101.411 Y138.999 E53.49955
G1 X99.506 Y137.400 E53.69671
G1 X87.616 Y116.806 E55.58193
G1 X87.184 Y114.357 E55.77908
G1 X91.313 Y90.939 E57.66430
G1 X92.527 Y88.837 E57.85670
G1 E57.25670 F900.00000
G92 E0
G1 X134.088 Y130.523 F4500.000
G1 E0.65000 F900.00000
G1 F720
G1 X133.641 Y130.933 E0.69810
G1 X133.102 Y131.213 E0.74621
G1 X132.510 Y131.344 E0.79432
G1 X131.904 Y131.318 E0.84242
G1 X131.325 Y131.136 E0.89053
G1 X130.813 Y130.810 E0.93863
G1 X130.403 Y130.362 E0.98674
G1 X130.123 Y129.824 E1.03484
G1 X129.991 Y129.228 E1.08325
G1 X130.023 Y128.612 E1.13215
G1 X130.201 Y128.047 E1.17913
G1 X130.527 Y127.535 E1.22724
G1 X130.974 Y127.125 E1.27534
G1 X131.512 Y126.845 E1.32344
G1 X132.091 Y126.716 E1.37043
G1 X132.708 Y126.739 E1.41934
G1 X133.290 Y126.922 E1.46774
G1 X133.802 Y127.248 E1.51585
G1 X134.212 Y127.696 E1.56396
G1 X134.492 Y128.234 E1.61205
G1 X134.624 Y128.830 E1.66046
G1 X134.592 Y129.446 E1.70937
G1 X134.414 Y130.011 E1.75635
G1 X134.120 Y130.472 E1.79970
G1 X133.597 Y130.111 F4500.000
G1 F720
G1 X133.273 Y130.408 E1.83453
G1 X132.883 Y130.611 E1.86937
G1 X132.454 Y130.706 E1.90421
G1 X132.015 Y130.687 E1.93905
G1 X131.596 Y130.554 E1.97389
G1 X131.225 Y130.318 E2.00872
G1 X130.929 Y129.994 E2.04356
G1 X130.726 Y129.605 E2.07839
G1 X130.630 Y129.174 E2.11334
G1 X130.653 Y128.725 E2.14898
G1 X130.782 Y128.318 E2.18288
G1 X131.018 Y127.947 E2.21772
G1 X131.342 Y127.650 E2.25255
G1 X131.732 Y127.447 E2.28739
G1 X132.149 Y127.355 E2.32130
G1 X132.599 Y127.371 E2.35694
G1 X133.019 Y127.503 E2.39188
G1 X133.390 Y127.739 E2.42672
G1 X133.686 Y128.063 E2.46156
G1 X133.889 Y128.453 E2.49639
G1 X133.985 Y128.883 E2.53133
G1 X133.962 Y129.332 E2.56697
G1 X133.833 Y129.740 E2.60088
G1 X133.629 Y130.060 E2.63096
G1 X133.597 Y130.111 F4500.000
G1 E2.03096 F900.00000
G92 E0
G1 X120.008 Y129.231 F4500.000
G1 E0.65000 F900.00000
G1 F720
G1 X119.877 Y129.824 E0.69811
G1 X119.597 Y130.362 E0.74621
G1 X119.187 Y130.810 E0.79433
G1 X118.675 Y131.136 E0.84242
G1 X118.096 Y131.318 E0.89053
G1 X117.490 Y131.344 E0.93863
G1 X116.898 Y131.213 E0.98674
G1 X116.359 Y130.933 E1.03485
G1 X115.912 Y130.523 E1.08295
G1 X115.586 Y130.011 E1.13106
G1 X115.403 Y129.433 E1.17917
G1 X115.377 Y128.826 E1.22728
G1 X115.508 Y128.234 E1.27538
G1 X115.788 Y127.696 E1.32348
G1 X116.198 Y127.248 E1.37158
G1 X116.710 Y126.922 E1.41970
G1 X117.289 Y126.740 E1.46780
G1 X117.881 Y126.714 E1.51478
G1 X118.484 Y126.843 E1.56369
G1 X119.026 Y127.125 E1.61209
G1 X119.473 Y127.535 E1.66020
G1 X119.799 Y128.047 E1.70830
G1 X119.982 Y128.625 E1.75641
G1 X120.005 Y129.172 E1.79975
G1 X119.369 Y129.176 F4500.000
G1 F720
G1 X119.274 Y129.605 E1.83459
G1 X119.071 Y129.994 E1.86943
G1 X118.775 Y130.318 E1.90427
G1 X118.404 Y130.554 E1.93910
G1 X117.985 Y130.687 E1.97394
G1 X117.546 Y130.706 E2.00878
G1 X117.117 Y130.611 E2.04361
G1 X116.727 Y130.408 E2.07846
G1 X116.403 Y130.111 E2.11329
G1 X116.167 Y129.740 E2.14813
G1 X116.035 Y129.321 E2.18297
G1 X116.016 Y128.882 E2.21781
G1 X116.111 Y128.453 E2.25264
G1 X116.314 Y128.063 E2.28748
G1 X116.610 Y127.739 E2.32231
G1 X116.981 Y127.503 E2.35716
G1 X117.400 Y127.371 E2.39199
G1 X117.827 Y127.352 E2.42590
G1 X118.267 Y127.447 E2.46154
G1 X118.658 Y127.650 E2.49648
G1 X118.982 Y127.947 E2.53132
G1 X119.218 Y128.318 E2.56615
G1 X119.350 Y128.737 E2.60099
G1 X119.367 Y129.116 E2.63107
G1 X119.369 Y129.176 F4500.000
G1 E2.03107 F900.00000
G92 E0
G1 X108.488 Y120.826 F4500.000
G1 E0.65000 F900.00000
G1 F720
G1 X108.140 Y121.278 E0.69522
G1 X107.659 Y121.648 E0.74332
G1 X107.098 Y121.880 E0.79143
G1 X106.497 Y121.959 E0.83953
G1 X105.895 Y121.880 E0.88763
G1 X105.348 Y121.653 E0.93462
G1 X104.855 Y121.281 E0.98352
G1 X104.484 Y120.797 E1.03192
G1 X104.252 Y120.236 E1.08003
G1 X104.172 Y119.635 E1.12814
G1 X104.252 Y119.033 E1.17625
G1 X104.484 Y118.472 E1.22435
G1 X104.853 Y117.991 E1.27245
G1 X105.335 Y117.622 E1.32056
G1 X105.895 Y117.389 E1.36867
G1 X106.483 Y117.312 E1.41565
G1 X107.095 Y117.388 E1.46455
G1 X107.659 Y117.622 E1.51296
G1 X108.143 Y117.993 E1.56136
G1 X108.515 Y118.485 E1.61026
G1 X108.742 Y119.033 E1.65723
G1 X108.821 Y119.635 E1.70534
G1 X108.742 Y120.236 E1.75347
G1 X108.519 Y120.775 E1.79969
G1 X107.955 Y120.476 F4500.000
G1 F720
G1 X107.687 Y120.825 E1.83453
G1 X107.338 Y121.092 E1.86936
G1 X106.932 Y121.261 E1.90420
G1 X106.497 Y121.318 E1.93903
G1 X106.061 Y121.261 E1.97387
G1 X105.666 Y121.097 E2.00778
G1 X105.307 Y120.826 E2.04341
G1 X105.039 Y120.476 E2.07836
G1 X104.871 Y120.070 E2.11319
G1 X104.813 Y119.635 E2.14804
G1 X104.871 Y119.199 E2.18287
G1 X105.039 Y118.793 E2.21771
G1 X105.306 Y118.444 E2.25254
G1 X105.655 Y118.177 E2.28738
G1 X106.061 Y118.009 E2.32222
G1 X106.485 Y117.953 E2.35613
G1 X106.931 Y118.008 E2.39176
G1 X107.338 Y118.177 E2.42670
G1 X107.688 Y118.445 E2.46165
G1 X107.959 Y118.804 E2.49728
G1 X108.123 Y119.199 E2.53118
G1 X108.180 Y119.635 E2.56602
G1 X108.123 Y120.070 E2.60087
G1 X107.977 Y120.421 E2.63095
G1 X107.955 Y120.476 F4500.000
G1 E2.03095 F900.00000
G92 E0
G1 X104.754 Y107.426 F4500.000
G1 E0.65000 F900.00000
G1 F720
G1 X104.161 Y107.557 E0.69811
G1 X103.555 Y107.531 E0.74621
G1 X102.977 Y107.348 E0.79432
G1 X102.465 Y107.022 E0.84243
G1 X102.055 Y106.575 E0.89052
G1 X101.775 Y106.037 E0.93864
G1 X101.643 Y105.444 E0.98674
G1 X101.670 Y104.838 E1.03484
G1 X101.852 Y104.259 E1.08295
G1 X102.178 Y103.747 E1.13106
G1 X102.626 Y103.338 E1.17917
G1 X103.164 Y103.057 E1.22727
G1 X103.743 Y102.929 E1.27425
G1 X104.359 Y102.951 E1.32315
G1 X104.941 Y103.135 E1.37156
G1 X105.453 Y103.461 E1.41966
G1 X105.863 Y103.908 E1.46777
G1 X106.143 Y104.447 E1.51588
G1 X106.274 Y105.039 E1.56398
G1 X106.248 Y105.645 E1.61208
G1 X106.066 Y106.224 E1.66019
G1 X105.739 Y106.736 E1.70830
G1 X105.292 Y107.146 E1.75641
G1 X104.807 Y107.398 E1.79975
G1 X104.535 Y106.823 F4500.000
G1 F720
G1 X104.106 Y106.919 E1.83459
G1 X103.667 Y106.899 E1.86943
G1 X103.248 Y106.767 E1.90426
G1 X102.877 Y106.531 E1.93910
G1 X102.580 Y106.207 E1.97394
G1 X102.377 Y105.817 E2.00878
G1 X102.282 Y105.388 E2.04361
G1 X102.301 Y104.949 E2.07845
G1 X102.433 Y104.530 E2.11329
G1 X102.669 Y104.160 E2.14813
G1 X102.993 Y103.863 E2.18297
G1 X103.383 Y103.660 E2.21780
G1 X103.801 Y103.567 E2.25171
G1 X104.250 Y103.583 E2.28734
G1 X104.670 Y103.716 E2.32229
G1 X105.041 Y103.952 E2.35712
G1 X105.338 Y104.276 E2.39196
G1 X105.541 Y104.666 E2.42680
G1 X105.636 Y105.095 E2.46164
G1 X105.617 Y105.534 E2.49647
G1 X105.485 Y105.953 E2.53131
G1 X105.248 Y106.324 E2.56615
G1 X104.924 Y106.621 E2.60099
G1 X104.588 Y106.796 E2.63107
G1 X104.535 Y106.823 F4500.000
G1 E2.03107 F900.00000
G92 E0
G1 X110.471 Y94.769 F4500.000
G1 E0.65000 F900.00000
G1 F720
G1 X109.933 Y94.489 E0.69810
G1 X109.483 Y94.076 E0.74650
G1 X109.155 Y93.553 E0.79541
G1 X108.977 Y92.988 E0.84240
G1 X108.951 Y92.382 E0.89049
G1 X109.082 Y91.790 E0.93860
G1 X109.362 Y91.251 E0.98671
G1 X109.772 Y90.804 E1.03481
G1 X110.284 Y90.478 E1.08290
G1 X110.863 Y90.296 E1.13102
G1 X111.455 Y90.270 E1.17800
G1 X112.058 Y90.399 E1.22690
G1 X112.600 Y90.681 E1.27529
G1 X113.047 Y91.090 E1.32341
G1 X113.373 Y91.602 E1.37152
G1 X113.556 Y92.181 E1.41963
G1 X113.582 Y92.787 E1.46773
G1 X113.451 Y93.380 E1.51583
G1 X113.170 Y93.918 E1.56395
G1 X112.760 Y94.365 E1.61205
G1 X112.249 Y94.691 E1.66016
G1 X111.670 Y94.874 E1.70826
G1 X111.064 Y94.900 E1.75636
G1 X110.530 Y94.782 E1.79972
G1 X110.691 Y94.166 F4500.000
G1 F720
G1 X110.301 Y93.964 E1.83456
G1 X109.976 Y93.666 E1.86950
G1 X109.737 Y93.285 E1.90514
G1 X109.609 Y92.877 E1.93905
G1 X109.590 Y92.438 E1.97388
G1 X109.685 Y92.009 E2.00872
G1 X109.888 Y91.619 E2.04356
G1 X110.184 Y91.295 E2.07839
G1 X110.555 Y91.059 E2.11322
G1 X110.974 Y90.927 E2.14807
G1 X111.401 Y90.908 E2.18197
G1 X111.841 Y91.002 E2.21761
G1 X112.232 Y91.206 E2.25254
G1 X112.556 Y91.503 E2.28739
G1 X112.792 Y91.873 E2.32223
G1 X112.924 Y92.292 E2.35707
G1 X112.943 Y92.731 E2.39190
G1 X112.848 Y93.160 E2.42673
G1 X112.645 Y93.550 E2.46158
G1 X112.348 Y93.874 E2.49641
G1 X111.978 Y94.110 E2.53125
G1 X111.559 Y94.242 E2.56609
G1 X111.120 Y94.262 E2.60092
G1 X110.749 Y94.179 E2.63101
G1 X110.691 Y94.166 F4500.000
G1 E2.03101 F900.00000
G92 E0
G1 X122.987 Y88.748 F4500.000
G1 E0.65000 F900.00000
G1 F720
G1 X122.755 Y88.188 E0.69811
G1 X122.675 Y87.582 E0.74651
G1 X122.760 Y86.971 E0.79542
G1 X122.987 Y86.424 E0.84239
G1 X123.356 Y85.942 E0.89050
G1 X123.838 Y85.573 E0.93861
G1 X124.398 Y85.341 E0.98672
G1 X124.986 Y85.263 E1.03370
G1 X125.598 Y85.339 E1.08260
G1 X126.162 Y85.573 E1.13100
G1 X126.644 Y85.942 E1.17911
G1 X127.013 Y86.424 E1.22722
G1 X127.245 Y86.984 E1.27532
G1 X127.324 Y87.586 E1.32343
G1 X127.245 Y88.188 E1.37153
G1 X127.013 Y88.748 E1.41964
G1 X126.644 Y89.230 E1.46775
G1 X126.162 Y89.599 E1.51585
G1 X125.602 Y89.831 E1.56396
G1 X125.000 Y89.910 E1.61206
G1 X124.398 Y89.831 E1.66017
G1 X123.838 Y89.599 E1.70827
G1 X123.356 Y89.230 E1.75638
G1 X123.024 Y88.796 E1.79973
G1 X123.542 Y88.428 F4500.000
G1 F720
G1 X123.374 Y88.022 E1.83457
G1 X123.317 Y87.585 E1.86951
G1 X123.379 Y87.140 E1.90515
G1 X123.542 Y86.744 E1.93905
G1 X123.810 Y86.396 E1.97389
G1 X124.158 Y86.128 E2.00873
G1 X124.564 Y85.960 E2.04357
G1 X124.988 Y85.904 E2.07747
G1 X125.434 Y85.960 E2.11311
G1 X125.842 Y86.128 E2.14805
G1 X126.190 Y86.396 E2.18289
G1 X126.458 Y86.744 E2.21773
G1 X126.626 Y87.150 E2.25257
G1 X126.683 Y87.586 E2.28740
G1 X126.626 Y88.022 E2.32224
G1 X126.458 Y88.428 E2.35708
G1 X126.190 Y88.776 E2.39192
G1 X125.842 Y89.044 E2.42676
G1 X125.436 Y89.212 E2.46159
G1 X125.000 Y89.269 E2.49643
G1 X124.564 Y89.212 E2.53127
G1 X124.158 Y89.044 E2.56611
G1 X123.810 Y88.776 E2.60094
G1 X123.579 Y88.475 E2.63102
G1 X123.542 Y88.428 F4500.000
G1 E2.03102 F900.00000
G92 E0
G1 X136.444 Y92.181 F4500.000
G1 E0.65000 F900.00000
G1 F720
G1 X136.627 Y91.602 E0.69811
G1 X136.953 Y91.090 E0.74623
G1 X137.400 Y90.681 E0.79434
G1 X137.939 Y90.400 E0.84243
G1 X138.517 Y90.272 E0.88940
G1 X139.134 Y90.294 E0.93832
G1 X139.716 Y90.478 E0.98673
G1 X140.228 Y90.804 E1.03483
G1 X140.638 Y91.251 E1.08292
G1 X140.918 Y91.790 E1.13104
G1 X141.049 Y92.382 E1.17915
G1 X141.023 Y92.988 E1.22724
G1 X140.840 Y93.567 E1.27535
G1 X140.514 Y94.079 E1.32346
G1 X140.067 Y94.489 E1.37156
G1 X139.529 Y94.769 E1.41966
G1 X138.936 Y94.900 E1.46778
G1 X138.330 Y94.874 E1.51588
G1 X137.751 Y94.691 E1.56398
G1 X137.239 Y94.365 E1.61209
G1 X136.830 Y93.918 E1.66019
G1 X136.549 Y93.380 E1.70831
G1 X136.418 Y92.787 E1.75641
G1 X136.442 Y92.241 E1.79975
G1 X137.076 Y92.292 F4500.000
G1 F720
G1 X137.208 Y91.873 E1.83459
G1 X137.444 Y91.503 E1.86943
G1 X137.768 Y91.206 E1.90427
G1 X138.158 Y91.003 E1.93910
G1 X138.575 Y90.910 E1.97301
G1 X139.025 Y90.926 E2.00864
G1 X139.445 Y91.059 E2.04359
G1 X139.816 Y91.295 E2.07843
G1 X140.112 Y91.619 E2.11326
G1 X140.315 Y92.009 E2.14810
G1 X140.410 Y92.438 E2.18294
G1 X140.391 Y92.877 E2.21777
G1 X140.259 Y93.296 E2.25261
G1 X140.023 Y93.667 E2.28745
G1 X139.699 Y93.964 E2.32229
G1 X139.309 Y94.166 E2.35712
G1 X138.880 Y94.262 E2.39197
G1 X138.441 Y94.242 E2.42680
G1 X138.022 Y94.110 E2.46163
G1 X137.652 Y93.874 E2.49647
G1 X137.355 Y93.550 E2.53131
G1 X137.152 Y93.160 E2.56615
G1 X137.057 Y92.731 E2.60098
G1 X137.073 Y92.352 E2.63107
G1 X137.076 Y92.292 F4500.000
G1 E2.03107 F900.00000
G92 E0
G1 X144.547 Y103.461 F4500.000
G1 E0.65000 F900.00000
G1 F720
G1 X145.059 Y103.135 E0.69811
G1 X145.637 Y102.953 E0.74621
G1 X146.229 Y102.927 E0.79319
G1 X146.833 Y103.056 E0.84210
G1 X147.374 Y103.338 E0.89050
G1 X147.822 Y103.747 E0.93860
G1 X148.148 Y104.259 E0.98672
G1 X148.330 Y104.838 E1.03483
G1 X148.357 Y105.444 E1.08292
G1 X148.225 Y106.037 E1.13103
G1 X147.945 Y106.575 E1.17914
G1 X147.535 Y107.022 E1.22724
G1 X147.023 Y107.348 E1.27535
G1 X146.458 Y107.526 E1.32233
G1 X145.842 Y107.558 E1.37123
G1 X145.246 Y107.426 E1.41964
G1 X144.708 Y107.146 E1.46774
G1 X144.261 Y106.736 E1.51584
G1 X143.934 Y106.224 E1.56396
G1 X143.752 Y105.645 E1.61207
G1 X143.726 Y105.039 E1.66016
G1 X143.857 Y104.447 E1.70827
G1 X144.137 Y103.908 E1.75638
G1 X144.506 Y103.505 E1.79972
G1 X144.959 Y103.952 F4500.000
G1 F720
G1 X145.330 Y103.716 E1.83456
G1 X145.749 Y103.584 E1.86940
G1 X146.176 Y103.565 E1.90330
G1 X146.616 Y103.659 E1.93894
G1 X147.007 Y103.863 E1.97388
G1 X147.331 Y104.160 E2.00872
G1 X147.567 Y104.530 E2.04356
G1 X147.699 Y104.949 E2.07840
G1 X147.718 Y105.388 E2.11323
G1 X147.623 Y105.817 E2.14807
G1 X147.420 Y106.207 E2.18291
G1 X147.123 Y106.531 E2.21775
G1 X146.752 Y106.767 E2.25259
G1 X146.345 Y106.896 E2.28649
G1 X145.896 Y106.919 E2.32212
G1 X145.465 Y106.823 E2.35707
G1 X145.076 Y106.621 E2.39190
G1 X144.752 Y106.324 E2.42674
G1 X144.515 Y105.953 E2.46158
G1 X144.383 Y105.534 E2.49642
G1 X144.364 Y105.095 E2.53126
G1 X144.459 Y104.666 E2.56609
G1 X144.662 Y104.276 E2.60093
G1 X144.919 Y103.996 E2.63101
G1 X144.959 Y103.952 F4500.000
G1 E2.03101 F900.00000
G92 E0
G1 X143.489 Y117.312 F4500.000
G1 E0.65000 F900.00000
G1 F720
G1 X144.101 Y117.388 E0.69890
G1 X144.665 Y117.622 E0.74731
G1 X145.147 Y117.991 E0.79542
G1 X145.516 Y118.472 E0.84352
G1 X145.748 Y119.033 E0.89163
G1 X145.828 Y119.635 E0.93973
G1 X145.748 Y120.236 E0.98784
