; generated by Slic3r 1.3.1-dev on 2019-10-22 at 16:48:44

; Print Config Notes: 
; DMF_3D_0.3mmThin222HC25%
; 
; external perimeters extrusion width = 0.60mm (4.82mm^3/s)
; perimeters extrusion width = 0.54mm (5.71mm^3/s)
; infill extrusion width = 0.70mm (7.63mm^3/s)
; solid infill extrusion width = 0.51mm (5.35mm^3/s)
; top infill extrusion width = 0.51mm (5.35mm^3/s)

M190 S90 ; set bed temperature and wait for it to be reached
M104 S250 ; set temperature
G28 ; home all axes
; Filament gcode

M109 S250 ; set temperature and wait for it to be reached
G21 ; set units to millimeters
G90 ; use absolute coordinates
M82 ; use absolute distances for extrusion
G92 E0
G1 Z0.300 F4500.000
G1 E-0.60000 F900.00000
G92 E0
G1 X35.704 Y24.555 F4500.000
G1 E0.65000 F900.00000
G1 F1920
G1 X36.064 Y24.040 E0.69981
G1 X36.666 Y23.279 E0.77674
G1 X37.319 Y22.561 E0.85369
G1 X38.020 Y21.890 E0.93063
G1 X38.767 Y21.270 E1.00758
G1 X39.555 Y20.704 E1.08454
G1 X40.381 Y20.194 E1.16147
G1 X41.240 Y19.742 E1.23840
G1 X42.129 Y19.352 E1.31535
G1 X43.042 Y19.025 E1.39228
G1 X43.977 Y18.762 E1.46924
G1 X44.927 Y18.565 E1.54619
G1 X45.889 Y18.435 E1.62316
G1 X46.859 Y18.372 E1.70016
G1 X47.828 Y18.378 E1.77700
G1 X48.796 Y18.450 E1.85395
G1 X50.092 Y18.655 E1.95796
G1 X51.035 Y18.885 E2.03496
G1 X51.960 Y19.181 E2.11190
G1 X52.861 Y19.539 E2.18879
G1 X53.431 Y19.805 E2.23865
G1 X65.852 Y26.672 E3.36383
G1 X66.381 Y27.001 E3.41322
G1 X66.883 Y27.365 E3.46239
G1 X67.360 Y27.764 E3.51167
G1 X67.651 Y28.035 E3.54325
G1 X207.118 Y167.501 E19.17958
G1 X207.632 Y168.063 E19.24001
G1 X208.211 Y168.831 E19.31622
G1 X208.676 Y169.606 E19.38793
G1 X215.046 Y181.501 E20.45762
G1 X215.561 Y182.616 E20.55500
G1 X215.895 Y183.518 E20.63127
G1 X216.163 Y184.435 E20.70701
G1 X216.368 Y185.374 E20.78315
G1 X216.465 Y185.988 E20.83245
G1 X216.561 Y186.945 E20.90873
G1 X216.583 Y188.248 E21.01202
G1 X216.522 Y189.199 E21.08761
G1 X216.392 Y190.158 E21.16433
G1 X216.198 Y191.095 E21.24014
G1 X216.037 Y191.694 E21.28932
G1 X215.613 Y192.926 E21.39267
G1 X215.228 Y193.802 E21.46846
G1 X214.783 Y194.649 E21.54431
G1 X214.276 Y195.471 E21.62093
G1 X213.920 Y195.978 E21.67003
G1 X213.324 Y196.732 E21.74620
G1 X212.682 Y197.438 E21.82186
G1 X211.985 Y198.105 E21.89834
G1 X211.251 Y198.714 E21.97397
G1 X210.179 Y199.465 E22.07776
G1 X209.352 Y199.948 E22.15362
G1 X208.495 Y200.371 E22.22942
G1 X207.602 Y200.737 E22.30590
G1 X207.018 Y200.938 E22.35488
G1 X206.095 Y201.198 E22.43092
G1 X205.157 Y201.392 E22.50687
G1 X203.865 Y201.551 E22.61008
G1 X202.907 Y201.589 E22.68605
G1 X201.945 Y201.561 E22.76233
G1 X200.988 Y201.465 E22.83862
G1 X200.377 Y201.369 E22.88761
G1 X199.440 Y201.164 E22.96368
G1 X198.521 Y200.896 E23.03958
G1 X197.616 Y200.561 E23.11607
G1 X196.501 Y200.046 E23.21345
G1 X184.362 Y193.541 E24.30525
G1 X183.832 Y193.211 E24.35478
G1 X183.328 Y192.846 E24.40409
G1 X182.853 Y192.449 E24.45319
G1 X182.561 Y192.177 E24.48487
G1 X43.095 Y52.712 E40.12118
G1 X42.764 Y52.360 E40.15944
G1 X42.197 Y51.660 E40.23084
G1 X41.672 Y50.852 E40.30724
G1 X34.960 Y38.735 E41.40540
G1 X34.540 Y37.862 E41.48223
G1 X34.181 Y36.960 E41.55917
G1 X33.797 Y35.705 E41.66322
G1 X33.656 Y35.092 E41.71305
G1 X33.492 Y34.136 E41.78999
G1 X33.378 Y32.829 E41.89402
G1 X33.367 Y32.200 E41.94387
G1 X33.405 Y31.230 E42.02080
G1 X33.565 Y29.927 E42.12489
G1 X33.685 Y29.310 E42.17469
G1 X33.925 Y28.370 E42.25162
G1 X34.352 Y27.129 E42.35570
G1 X34.598 Y26.550 E42.40550
G1 X35.028 Y25.680 E42.48244
G1 X35.671 Y24.605 E42.58177
G1 X36.224 Y24.920 F4500.000
G1 F1920
G1 X36.764 Y24.167 E42.65519
G1 X37.355 Y23.454 E42.72862
G1 X37.784 Y22.994 E42.77842
G1 X38.454 Y22.355 E42.85184
G1 X39.167 Y21.764 E42.92528
G1 X39.920 Y21.224 E42.99873
G1 X40.708 Y20.738 E43.07214
G1 X41.529 Y20.309 E43.14556
G1 X42.377 Y19.937 E43.21899
G1 X43.249 Y19.626 E43.29241
G1 X44.141 Y19.376 E43.36584
G1 X45.049 Y19.189 E43.43928
G1 X45.967 Y19.066 E43.51273
G1 X46.892 Y19.007 E43.58620
G1 X47.817 Y19.013 E43.65954
G1 X48.740 Y19.083 E43.73297
G1 X49.949 Y19.275 E43.82997
G1 X50.849 Y19.493 E43.90344
G1 X51.732 Y19.774 E43.97686
G1 X52.319 Y19.999 E44.02668
G1 X53.427 Y20.516 E44.12361
G1 X65.544 Y27.228 E45.22176
G1 X66.035 Y27.534 E45.26762
G1 X66.501 Y27.873 E45.31328
G1 X67.210 Y28.492 E45.38794
G1 X206.668 Y167.950 E61.02341
G1 X207.152 Y168.480 E61.08031
G1 X207.678 Y169.177 E61.14952
G1 X208.120 Y169.914 E61.21767
G1 X214.486 Y181.801 E62.28665
G1 X214.968 Y182.844 E62.37776
G1 X215.287 Y183.704 E62.45050
G1 X215.544 Y184.579 E62.52276
G1 X215.740 Y185.474 E62.59539
G1 X215.838 Y186.087 E62.64465
G1 X215.928 Y187.000 E62.71739
G1 X215.949 Y188.214 E62.81364
G1 X215.891 Y189.123 E62.88578
G1 X215.768 Y190.037 E62.95891
G1 X215.584 Y190.930 E63.03124
G1 X215.423 Y191.529 E63.08039
G1 X215.028 Y192.678 E63.17670
G1 X214.661 Y193.513 E63.24901
G1 X214.238 Y194.322 E63.32139
G1 X213.755 Y195.106 E63.39442
G1 X213.400 Y195.613 E63.44350
G1 X212.831 Y196.332 E63.51615
G1 X212.217 Y197.005 E63.58835
G1 X211.551 Y197.639 E63.66127
G1 X210.851 Y198.221 E63.73344
G1 X209.852 Y198.920 E63.83013
G1 X209.064 Y199.381 E63.90251
G1 X208.246 Y199.786 E63.97484
G1 X207.396 Y200.136 E64.04775
G1 X206.811 Y200.337 E64.09673
G1 X205.930 Y200.584 E64.16927
G1 X205.035 Y200.769 E64.24172
G1 X203.831 Y200.916 E64.33790
G1 X202.918 Y200.954 E64.41037
G1 X202.000 Y200.928 E64.48312
G1 X201.087 Y200.838 E64.55586
G1 X200.477 Y200.741 E64.60485
G1 X199.583 Y200.545 E64.67741
G1 X198.706 Y200.288 E64.74982
G1 X197.844 Y199.968 E64.82275
G1 X196.801 Y199.486 E64.91386
G1 X184.670 Y192.985 E66.00495
G1 X184.178 Y192.678 E66.05093
G1 X183.710 Y192.339 E66.09672
G1 X183.002 Y191.719 E66.17131
G1 X43.544 Y52.262 E81.80676
G1 X43.243 Y51.943 E81.84150
G1 X42.705 Y51.278 E81.90938
G1 X42.228 Y50.544 E81.97875
G1 X35.516 Y38.427 E83.07690
G1 X35.116 Y37.593 E83.15023
G1 X34.774 Y36.732 E83.22365
G1 X34.416 Y35.562 E83.32067
G1 X34.275 Y34.949 E83.37050
G1 X34.120 Y34.036 E83.44393
G1 X34.013 Y32.817 E83.54093
G1 X34.002 Y32.189 E83.59077
G1 X34.040 Y31.263 E83.66419
G1 X34.189 Y30.048 E83.76125
G1 X34.309 Y29.432 E83.81105
G1 X34.539 Y28.535 E83.88447
G1 X34.937 Y27.377 E83.98151
G1 X35.183 Y26.799 E84.03131
G1 X35.594 Y25.969 E84.10474
G1 X36.192 Y24.970 E84.19704
G1 X36.745 Y25.284 F4500.000
G1 F1920
G1 X37.258 Y24.567 E84.26694
G1 X37.820 Y23.887 E84.33686
G1 X38.428 Y23.248 E84.40676
G1 X39.079 Y22.653 E84.47668
G1 X39.770 Y22.105 E84.54658
G1 X40.497 Y21.607 E84.61650
G1 X41.257 Y21.160 E84.68641
G1 X42.047 Y20.768 E84.75632
G1 X42.862 Y20.432 E84.82623
G1 X43.699 Y20.153 E84.89614
G1 X44.553 Y19.933 E84.96605
G1 X45.170 Y19.813 E85.01586
G1 X46.044 Y19.697 E85.08579
G1 X46.925 Y19.642 E85.15574
G1 X47.806 Y19.649 E85.22559
G1 X48.685 Y19.717 E85.29550
G1 X49.806 Y19.894 E85.38547
G1 X50.664 Y20.101 E85.45542
G1 X51.504 Y20.367 E85.52533
G1 X52.091 Y20.593 E85.57514
G1 X53.119 Y21.072 E85.66506
G1 X65.236 Y27.784 E86.76320
G1 X65.688 Y28.067 E86.80552
G1 X66.118 Y28.380 E86.84769
G1 X66.768 Y28.950 E86.91618
G1 X206.219 Y168.400 E102.55078
G1 X206.672 Y168.897 E102.60415
G1 X207.145 Y169.523 E102.66636
G1 X207.564 Y170.222 E102.73094
G1 X213.925 Y182.101 E103.79922
G1 X214.375 Y183.072 E103.88405
G1 X214.679 Y183.890 E103.95326
G1 X214.925 Y184.723 E104.02206
G1 X215.113 Y185.574 E104.09117
G1 X215.210 Y186.187 E104.14038
G1 X215.295 Y187.056 E104.20959
G1 X215.314 Y188.181 E104.29879
G1 X215.260 Y189.046 E104.36749
G1 X215.144 Y189.915 E104.43702
G1 X214.970 Y190.766 E104.50587
G1 X214.809 Y191.364 E104.55500
G1 X214.443 Y192.429 E104.64427
G1 X214.095 Y193.225 E104.71310
G1 X213.693 Y193.995 E104.78199
G1 X213.235 Y194.742 E104.85145
G1 X212.879 Y195.248 E104.90051
G1 X212.337 Y195.931 E104.96964
G1 X211.752 Y196.571 E105.03838
G1 X211.118 Y197.174 E105.10774
G1 X210.450 Y197.727 E105.17646
G1 X209.525 Y198.375 E105.26604
G1 X208.775 Y198.815 E105.33494
G1 X207.997 Y199.201 E105.40379
G1 X207.189 Y199.535 E105.47314
G1 X206.605 Y199.736 E105.52212
G1 X205.766 Y199.970 E105.59115
G1 X204.914 Y200.145 E105.66010
G1 X203.798 Y200.281 E105.74927
G1 X202.928 Y200.318 E105.81824
G1 X202.056 Y200.295 E105.88744
G1 X201.187 Y200.210 E105.95665
G1 X200.577 Y200.113 E106.00563
G1 X199.726 Y199.926 E106.07469
G1 X198.892 Y199.680 E106.14360
G1 X198.072 Y199.375 E106.21297
G1 X197.101 Y198.925 E106.29780
G1 X184.978 Y192.429 E107.38819
G1 X184.524 Y192.145 E107.43062
G1 X184.093 Y191.831 E107.47290
G1 X183.444 Y191.262 E107.54132
G1 X43.723 Y51.526 E123.20711
G1 X43.212 Y50.895 E123.27148
G1 X42.784 Y50.236 E123.33382
G1 X36.072 Y38.119 E124.43196
G1 X35.692 Y37.324 E124.50179
G1 X35.367 Y36.504 E124.57169
G1 X35.036 Y35.419 E124.66169
G1 X34.894 Y34.806 E124.71151
G1 X34.748 Y33.937 E124.78142
G1 X34.649 Y32.806 E124.87140
G1 X34.638 Y32.178 E124.92124
G1 X34.675 Y31.297 E124.99114
G1 X34.813 Y30.170 E125.08116
G1 X34.933 Y29.553 E125.13096
G1 X35.153 Y28.699 E125.20087
G1 X35.522 Y27.625 E125.29088
G1 X35.768 Y27.047 E125.34069
G1 X36.160 Y26.257 E125.41060
G1 X36.712 Y25.335 E125.49586
G1 E124.89586 F900.00000
G92 E0
G1 X178.685 Y175.706 F4500.000
G1 E0.65000 F900.00000
G1 F720
G1 X179.131 Y175.363 E0.69461
G1 X179.659 Y175.147 E0.73978
G1 X180.207 Y175.075 E0.78367
G1 X180.765 Y175.148 E0.82824
G1 X181.284 Y175.363 E0.87278
G1 X181.730 Y175.706 E0.91736
G1 X182.067 Y176.145 E0.96125
G1 X182.287 Y176.670 E1.00639
G1 X182.361 Y177.228 E1.05102
G1 X182.287 Y177.785 E1.09558
G1 X182.072 Y178.305 E1.14016
G1 X181.730 Y178.751 E1.18471
G1 X181.284 Y179.093 E1.22926
G1 X180.765 Y179.308 E1.27384
G1 X180.207 Y179.381 E1.31840
G1 X179.650 Y179.308 E1.36297
G1 X179.131 Y179.093 E1.40751
G1 X178.685 Y178.751 E1.45208
G1 X178.348 Y178.312 E1.49598
G1 X178.128 Y177.786 E1.54112
G1 X178.054 Y177.228 E1.58575
G1 X178.128 Y176.671 E1.63031
G1 X178.343 Y176.151 E1.67489
G1 X178.648 Y175.753 E1.71468
G1 X178.685 Y175.706 F4500.000
G1 E1.11468 F900.00000
G92 E0
G1 X190.585 Y166.573 F4500.000
G1 E0.65000 F900.00000
G1 F720
G1 X190.369 Y166.291 E0.67824
G1 X190.149 Y165.765 E0.72339
G1 X190.075 Y165.207 E0.76802
G1 X190.148 Y164.650 E0.81257
G1 X190.363 Y164.131 E0.85715
G1 X190.706 Y163.685 E0.90170
G1 X191.152 Y163.342 E0.94631
G1 X191.679 Y163.126 E0.99149
G1 X192.228 Y163.054 E1.03537
G1 X192.786 Y163.128 E1.07994
G1 X193.305 Y163.343 E1.12449
G1 X193.751 Y163.685 E1.16906
G1 X194.088 Y164.124 E1.21295
G1 X194.308 Y164.649 E1.25810
G1 X194.381 Y165.207 E1.30273
G1 X194.308 Y165.765 E1.34728
G1 X194.093 Y166.284 E1.39186
G1 X193.751 Y166.730 E1.43641
G1 X193.305 Y167.072 E1.48096
G1 X192.785 Y167.287 E1.52554
G1 X192.228 Y167.361 E1.57010
G1 X191.671 Y167.287 E1.61467
G1 X191.152 Y167.072 E1.65921
G1 X190.706 Y166.730 E1.70378
G1 X190.622 Y166.621 E1.71468
G1 X190.236 Y166.643 F4500.000
G1 E1.11468 F900.00000
G92 E0
G1 X172.537 Y145.517 F4500.000
G1 E0.65000 F900.00000
G1 F720
G1 X172.092 Y145.859 E0.69455
G1 X171.572 Y146.074 E0.73913
G1 X171.015 Y146.147 E0.78369
G1 X170.458 Y146.074 E0.82826
G1 X169.938 Y145.859 E0.87280
G1 X169.492 Y145.517 E0.91737
G1 X169.150 Y145.071 E0.96194
G1 X168.935 Y144.551 E1.00655
G1 X168.863 Y143.986 E1.05172
G1 X168.935 Y143.437 E1.09560
G1 X169.150 Y142.917 E1.14017
G1 X169.493 Y142.472 E1.18473
G1 X169.939 Y142.129 E1.22934
G1 X170.466 Y141.913 E1.27451
G1 X171.015 Y141.841 E1.31839
G1 X171.572 Y141.914 E1.36296
G1 X172.092 Y142.129 E1.40751
G1 X172.538 Y142.472 E1.45208
G1 X172.875 Y142.911 E1.49598
G1 X173.095 Y143.436 E1.54112
G1 X173.168 Y143.994 E1.58575
G1 X173.095 Y144.551 E1.63031
G1 X172.880 Y145.071 E1.67488
G1 X172.574 Y145.469 E1.71468
G1 X172.537 Y145.517 F4500.000
G1 E1.11468 F900.00000
G92 E0
G1 X160.636 Y154.649 F4500.000
G1 E0.65000 F900.00000
G1 F720
G1 X160.859 Y154.938 E0.67897
G1 X161.074 Y155.458 E0.72352
G1 X161.147 Y156.015 E0.76809
G1 X161.074 Y156.572 E0.81265
G1 X160.859 Y157.092 E0.85722
G1 X160.517 Y157.537 E0.90178
G1 X160.071 Y157.880 E0.94633
G1 X159.551 Y158.095 E0.99091
G1 X158.994 Y158.168 E1.03546
G1 X158.437 Y158.095 E1.08003
G1 X157.918 Y157.880 E1.12458
G1 X157.472 Y157.538 E1.16915
G1 X157.129 Y157.092 E1.21372
G1 X156.914 Y156.572 E1.25827
G1 X156.841 Y156.015 E1.30284
G1 X156.914 Y155.458 E1.34740
G1 X157.129 Y154.938 E1.39197
G1 X157.472 Y154.493 E1.43653
G1 X157.918 Y154.150 E1.48114
G1 X158.445 Y153.934 E1.52631
G1 X158.994 Y153.862 E1.57019
G1 X159.552 Y153.935 E1.61477
G1 X160.071 Y154.150 E1.65931
G1 X160.517 Y154.492 E1.70388
G1 X160.600 Y154.601 E1.71472
G1 X160.995 Y154.577 F4500.000
G1 E1.11472 F900.00000
G92 E0
G1 X139.303 Y136.324 F4500.000
G1 E0.65000 F900.00000
G1 F720
G1 X138.858 Y136.667 E0.69455
G1 X138.338 Y136.882 E0.73913
G1 X137.781 Y136.955 E0.78369
G1 X137.224 Y136.882 E0.82826
G1 X136.704 Y136.667 E0.87280
G1 X136.258 Y136.324 E0.91738
G1 X135.916 Y135.878 E0.96195
G1 X135.701 Y135.358 E1.00655
G1 X135.629 Y134.793 E1.05172
G1 X135.701 Y134.245 E1.09560
G1 X135.916 Y133.725 E1.14018
G1 X136.259 Y133.279 E1.18473
G1 X136.705 Y132.936 E1.22934
G1 X137.232 Y132.721 E1.27451
G1 X137.781 Y132.648 E1.31839
G1 X138.338 Y132.722 E1.36297
G1 X138.857 Y132.937 E1.40751
G1 X139.304 Y133.279 E1.45208
G1 X139.646 Y133.725 E1.49665
G1 X139.861 Y134.244 E1.54120
G1 X139.934 Y134.802 E1.58577
G1 X139.861 Y135.359 E1.63033
G1 X139.646 Y135.879 E1.67491
G1 X139.340 Y136.277 E1.71470
G1 X139.303 Y136.324 F4500.000
G1 E1.11470 F900.00000
G92 E0
G1 X148.436 Y124.424 F4500.000
G1 E0.65000 F900.00000
G1 F720
G1 X148.279 Y124.304 E0.66564
G1 X147.937 Y123.857 E0.71021
G1 X147.722 Y123.338 E0.75475
G1 X147.648 Y122.781 E0.79933
G1 X147.722 Y122.224 E0.84388
G1 X147.937 Y121.704 E0.88846
G1 X148.279 Y121.259 E0.93301
G1 X148.726 Y120.916 E0.97763
G1 X149.253 Y120.700 E1.02280
G1 X149.802 Y120.628 E1.06668
G1 X150.359 Y120.701 E1.11125
G1 X150.878 Y120.916 E1.15580
G1 X151.324 Y121.258 E1.20037
G1 X151.667 Y121.704 E1.24494
G1 X151.882 Y122.224 E1.28949
G1 X151.955 Y122.781 E1.33406
G1 X151.882 Y123.338 E1.37861
G1 X151.667 Y123.858 E1.42319
G1 X151.324 Y124.303 E1.46774
G1 X150.879 Y124.646 E1.51230
G1 X150.359 Y124.861 E1.55687
G1 X149.802 Y124.934 E1.60143
G1 X149.244 Y124.861 E1.64600
G1 X148.725 Y124.646 E1.69055
G1 X148.483 Y124.460 E1.71472
G1 X148.258 Y124.509 F4500.000
G1 E1.11472 F900.00000
G92 E0
G1 X130.111 Y103.090 F4500.000
G1 E0.65000 F900.00000
G1 F720
G1 X129.665 Y103.433 E0.69455
G1 X129.146 Y103.648 E0.73913
G1 X128.589 Y103.721 E0.78368
G1 X128.031 Y103.648 E0.82826
G1 X127.512 Y103.433 E0.87280
G1 X127.066 Y103.090 E0.91737
G1 X126.724 Y102.644 E0.96195
G1 X126.509 Y102.125 E1.00649
G1 X126.435 Y101.568 E1.05106
G1 X126.509 Y101.010 E1.09562
G1 X126.724 Y100.491 E1.14020
G1 X127.066 Y100.045 E1.18475
G1 X127.512 Y99.702 E1.22936
G1 X128.040 Y99.487 E1.27453
G1 X128.589 Y99.414 E1.31842
G1 X129.146 Y99.488 E1.36299
G1 X129.665 Y99.703 E1.40754
G1 X130.111 Y100.045 E1.45211
G1 X130.453 Y100.491 E1.49668
G1 X130.668 Y101.010 E1.54123
G1 X130.742 Y101.568 E1.58580
G1 X130.668 Y102.125 E1.63035
G1 X130.453 Y102.645 E1.67493
G1 X130.148 Y103.043 E1.71472
G1 X130.111 Y103.090 F4500.000
G1 E1.11472 F900.00000
G92 E0
G1 X118.210 Y112.222 F4500.000
G1 E0.65000 F900.00000
G1 F720
G1 X118.433 Y112.512 E0.67896
G1 X118.648 Y113.031 E0.72350
G1 X118.721 Y113.589 E0.76808
G1 X118.648 Y114.146 E0.81263
G1 X118.433 Y114.665 E0.85721
G1 X118.090 Y115.111 E0.90176
G1 X117.645 Y115.453 E0.94632
G1 X117.125 Y115.668 E0.99089
G1 X116.568 Y115.742 E1.03545
G1 X116.010 Y115.668 E1.08002
G1 X115.491 Y115.453 E1.12457
G1 X115.045 Y115.111 E1.16914
G1 X114.703 Y114.665 E1.21371
G1 X114.488 Y114.146 E1.25826
G1 X114.414 Y113.589 E1.30283
G1 X114.488 Y113.031 E1.34738
G1 X114.703 Y112.512 E1.39196
G1 X115.045 Y112.066 E1.43651
G1 X115.492 Y111.723 E1.48113
G1 X116.019 Y111.508 E1.52630
G1 X116.568 Y111.435 E1.57018
G1 X117.125 Y111.509 E1.61475
G1 X117.644 Y111.724 E1.65930
G1 X118.090 Y112.066 E1.70387
G1 X118.174 Y112.175 E1.71472
G1 X118.568 Y112.151 F4500.000
G1 E1.11472 F900.00000
G92 E0
G1 X96.877 Y93.898 F4500.000
G1 E0.65000 F900.00000
G1 F720
