; generated by Slic3r 1.3.1-dev on 2019-10-22 at 15:58:45

; Print Config Notes: 
; DMF_3D_0.3mmThin222HC25%
; 
; external perimeters extrusion width = 0.60mm (4.82mm^3/s)
; perimeters extrusion width = 0.54mm (5.71mm^3/s)
; infill extrusion width = 0.70mm (7.63mm^3/s)
; solid infill extrusion width = 0.51mm (5.35mm^3/s)
; top infill extrusion width = 0.51mm (5.35mm^3/s)

M190 S90 ; set bed temperature and wait for it to be reached
M104 S250 ; set temperature
G28 ; home all axes
; Filament gcode

M109 S250 ; set temperature and wait for it to be reached
G21 ; set units to millimeters
G90 ; use absolute coordinates
M82 ; use absolute distances for extrusion
G92 E0
G1 Z0.300 F4500.000
G1 E-0.60000 F900.00000
G92 E0
G1 X35.704 Y24.555 F4500.000
G1 E0.65000 F900.00000
G1 F1920
G1 X36.064 Y24.040 E0.69981
G1 X36.666 Y23.279 E0.77674
G1 X37.319 Y22.561 E0.85369
G1 X38.020 Y21.890 E0.93063
G1 X38.767 Y21.270 E1.00758
G1 X39.555 Y20.704 E1.08454
G1 X40.381 Y20.194 E1.16147
G1 X41.240 Y19.742 E1.23840
G1 X42.129 Y19.352 E1.31535
G1 X43.042 Y19.025 E1.39228
G1 X43.977 Y18.762 E1.46924
G1 X44.927 Y18.565 E1.54619
G1 X45.889 Y18.435 E1.62316
G1 X46.859 Y18.372 E1.70016
G1 X47.828 Y18.378 E1.77700
G1 X48.796 Y18.450 E1.85395
G1 X50.092 Y18.655 E1.95796
G1 X51.035 Y18.885 E2.03496
G1 X51.960 Y19.181 E2.11190
G1 X52.861 Y19.539 E2.18879
G1 X53.431 Y19.805 E2.23865
G1 X65.852 Y26.672 E3.36383
G1 X66.381 Y27.001 E3.41322
G1 X66.883 Y27.365 E3.46239
G1 X67.360 Y27.764 E3.51167
G1 X67.651 Y28.035 E3.54325
G1 X207.118 Y167.501 E19.17958
G1 X207.632 Y168.063 E19.24001
G1 X208.211 Y168.831 E19.31622
G1 X208.676 Y169.606 E19.38793
G1 X215.046 Y181.501 E20.45762
G1 X215.561 Y182.616 E20.55500
G1 X215.895 Y183.518 E20.63127
G1 X216.163 Y184.435 E20.70701
G1 X216.368 Y185.374 E20.78315
G1 X216.465 Y185.988 E20.83245
G1 X216.561 Y186.945 E20.90873
G1 X216.583 Y188.248 E21.01202
G1 X216.522 Y189.199 E21.08761
G1 X216.392 Y190.158 E21.16433
G1 X216.198 Y191.095 E21.24014
G1 X216.037 Y191.694 E21.28932
G1 X215.613 Y192.926 E21.39267
G1 X215.228 Y193.802 E21.46846
G1 X214.783 Y194.649 E21.54431
G1 X214.276 Y195.471 E21.62093
G1 X213.920 Y195.978 E21.67003
G1 X213.324 Y196.732 E21.74620
G1 X212.682 Y197.438 E21.82186
G1 X211.985 Y198.105 E21.89834
G1 X211.251 Y198.714 E21.97397
G1 X210.179 Y199.465 E22.07776
G1 X209.352 Y199.948 E22.15362
G1 X208.495 Y200.371 E22.22942
G1 X207.602 Y200.737 E22.30590
G1 X207.018 Y200.938 E22.35488
G1 X206.095 Y201.198 E22.43092
G1 X205.157 Y201.392 E22.50687
G1 X203.865 Y201.551 E22.61008
G1 X202.907 Y201.589 E22.68605
G1 X201.945 Y201.561 E22.76233
G1 X200.988 Y201.465 E22.83862
G1 X200.377 Y201.369 E22.88761
G1 X199.440 Y201.164 E22.96368
G1 X198.521 Y200.896 E23.03958
G1 X197.616 Y200.561 E23.11607
G1 X196.501 Y200.046 E23.21345
G1 X184.362 Y193.541 E24.30525
G1 X183.832 Y193.211 E24.35478
G1 X183.328 Y192.846 E24.40409
G1 X182.853 Y192.449 E24.45319
G1 X182.561 Y192.177 E24.48487
G1 X43.095 Y52.712 E40.12118
G1 X42.764 Y52.360 E40.15944
G1 X42.197 Y51.660 E40.23084
G1 X41.672 Y50.852 E40.30724
G1 X34.960 Y38.735 E41.40540
G1 X34.540 Y37.862 E41.48223
G1 X34.181 Y36.960 E41.55917
G1 X33.797 Y35.705 E41.66322
G1 X33.656 Y35.092 E41.71305
G1 X33.492 Y34.136 E41.78999
G1 X33.378 Y32.829 E41.89402
G1 X33.367 Y32.200 E41.94387
G1 X33.405 Y31.230 E42.02080
G1 X33.565 Y29.927 E42.12489
G1 X33.685 Y29.310 E42.17469
G1 X33.925 Y28.370 E42.25162
G1 X34.352 Y27.129 E42.35570
G1 X34.598 Y26.550 E42.40550
G1 X35.028 Y25.680 E42.48244
G1 X35.671 Y24.605 E42.58177
G1 X36.224 Y24.920 F4500.000
G1 F1920
G1 X36.764 Y24.167 E42.65519
G1 X37.355 Y23.454 E42.72862
G1 X37.784 Y22.994 E42.77842
G1 X38.454 Y22.355 E42.85184
G1 X39.167 Y21.764 E42.92528
G1 X39.920 Y21.224 E42.99873
G1 X40.708 Y20.738 E43.07214
G1 X41.529 Y20.309 E43.14556
G1 X42.377 Y19.937 E43.21899
G1 X43.249 Y19.626 E43.29241
G1 X44.141 Y19.376 E43.36584
G1 X45.049 Y19.189 E43.43928
G1 X45.967 Y19.066 E43.51273
G1 X46.892 Y19.007 E43.58620
G1 X47.817 Y19.013 E43.65954
G1 X48.740 Y19.083 E43.73297
G1 X49.949 Y19.275 E43.82997
G1 X50.849 Y19.493 E43.90344
G1 X51.732 Y19.774 E43.97686
G1 X52.319 Y19.999 E44.02668
G1 X53.427 Y20.516 E44.12361
G1 X65.544 Y27.228 E45.22176
G1 X66.035 Y27.534 E45.26762
G1 X66.501 Y27.873 E45.31328
G1 X67.210 Y28.492 E45.38794
G1 X206.668 Y167.950 E61.02341
G1 X207.152 Y168.480 E61.08031
G1 X207.678 Y169.177 E61.14952
G1 X208.120 Y169.914 E61.21767
G1 X214.486 Y181.801 E62.28665
G1 X214.968 Y182.844 E62.37776
G1 X215.287 Y183.704 E62.45050
G1 X215.544 Y184.579 E62.52276
G1 X215.740 Y185.474 E62.59539
G1 X215.838 Y186.087 E62.64465
G1 X215.928 Y187.000 E62.71739
G1 X215.949 Y188.214 E62.81364
G1 X215.891 Y189.123 E62.88578
G1 X215.768 Y190.037 E62.95891
G1 X215.584 Y190.930 E63.03124
G1 X215.423 Y191.529 E63.08039
G1 X215.028 Y192.678 E63.17670
G1 X214.661 Y193.513 E63.24901
G1 X214.238 Y194.322 E63.32139
G1 X213.755 Y195.106 E63.39442
G1 X213.400 Y195.613 E63.44350
G1 X212.831 Y196.332 E63.51615
G1 X212.217 Y197.005 E63.58835
G1 X211.551 Y197.639 E63.66127
G1 X210.851 Y198.221 E63.73344
G1 X209.852 Y198.920 E63.83013
G1 X209.064 Y199.381 E63.90251
G1 X208.246 Y199.786 E63.97484
G1 X207.396 Y200.136 E64.04775
G1 X206.811 Y200.337 E64.09673
G1 X205.930 Y200.584 E64.16927
G1 X205.035 Y200.769 E64.24172
G1 X203.831 Y200.916 E64.33790
G1 X202.918 Y200.954 E64.41037
G1 X202.000 Y200.928 E64.48312
G1 X201.087 Y200.838 E64.55586
G1 X200.477 Y200.741 E64.60485
G1 X199.583 Y200.545 E64.67741
G1 X198.706 Y200.288 E64.74982
G1 X197.844 Y199.968 E64.82275
G1 X196.801 Y199.486 E64.91386
G1 X184.670 Y192.985 E66.00495
G1 X184.178 Y192.678 E66.05093
G1 X183.710 Y192.339 E66.09672
G1 X183.002 Y191.719 E66.17131
G1 X43.544 Y52.262 E81.80676
G1 X43.243 Y51.943 E81.84150
G1 X42.705 Y51.278 E81.90938
G1 X42.228 Y50.544 E81.97875
G1 X35.516 Y38.427 E83.07690
G1 X35.116 Y37.593 E83.15023
G1 X34.774 Y36.732 E83.22365
G1 X34.416 Y35.562 E83.32067
G1 X34.275 Y34.949 E83.37050
G1 X34.120 Y34.036 E83.44393
G1 X34.013 Y32.817 E83.54093
G1 X34.002 Y32.189 E83.59077
G1 X34.040 Y31.263 E83.66419
G1 X34.189 Y30.048 E83.76125
G1 X34.309 Y29.432 E83.81105
G1 X34.539 Y28.535 E83.88447
G1 X34.937 Y27.377 E83.98151
G1 X35.183 Y26.799 E84.03131
G1 X35.594 Y25.969 E84.10474
G1 X36.192 Y24.970 E84.19704
G1 X36.745 Y25.284 F4500.000
G1 F1920
G1 X37.258 Y24.567 E84.26694
G1 X37.820 Y23.887 E84.33686
G1 X38.428 Y23.248 E84.40676
G1 X39.079 Y22.653 E84.47668
G1 X39.770 Y22.105 E84.54658
G1 X40.497 Y21.607 E84.61650
G1 X41.257 Y21.160 E84.68641
G1 X42.047 Y20.768 E84.75632
G1 X42.862 Y20.432 E84.82623
G1 X43.699 Y20.153 E84.89614
G1 X44.553 Y19.933 E84.96605
G1 X45.170 Y19.813 E85.01586
G1 X46.044 Y19.697 E85.08579
G1 X46.925 Y19.642 E85.15574
G1 X47.806 Y19.649 E85.22559
G1 X48.685 Y19.717 E85.29550
G1 X49.806 Y19.894 E85.38547
G1 X50.664 Y20.101 E85.45542
G1 X51.504 Y20.367 E85.52533
G1 X52.091 Y20.593 E85.57514
G1 X53.119 Y21.072 E85.66506
G1 X65.236 Y27.784 E86.76320
G1 X65.688 Y28.067 E86.80552
G1 X66.118 Y28.380 E86.84769
G1 X66.768 Y28.950 E86.91618
G1 X206.219 Y168.400 E102.55078
G1 X206.672 Y168.897 E102.60415
G1 X207.145 Y169.523 E102.66636
G1 X207.564 Y170.222 E102.73094
G1 X213.925 Y182.101 E103.79922
G1 X214.375 Y183.072 E103.88405
G1 X214.679 Y183.890 E103.95326
G1 X214.925 Y184.723 E104.02206
G1 X215.113 Y185.574 E104.09117
G1 X215.210 Y186.187 E104.14038
G1 X215.295 Y187.056 E104.20959
G1 X215.314 Y188.181 E104.29879
G1 X215.260 Y189.046 E104.36749
G1 X215.144 Y189.915 E104.43702
G1 X214.970 Y190.766 E104.50587
G1 X214.809 Y191.364 E104.55500
G1 X214.443 Y192.429 E104.64427
G1 X214.095 Y193.225 E104.71310
G1 X213.693 Y193.995 E104.78199
G1 X213.235 Y194.742 E104.85145
G1 X212.879 Y195.248 E104.90051
G1 X212.337 Y195.931 E104.96964
G1 X211.752 Y196.571 E105.03838
G1 X211.118 Y197.174 E105.10774
G1 X210.450 Y197.727 E105.17646
G1 X209.525 Y198.375 E105.26604
G1 X208.775 Y198.815 E105.33494
G1 X207.997 Y199.201 E105.40379
G1 X207.189 Y199.535 E105.47314
G1 X206.605 Y199.736 E105.52212
G1 X205.766 Y199.970 E105.59115
G1 X204.914 Y200.145 E105.66010
G1 X203.798 Y200.281 E105.74927
G1 X202.928 Y200.318 E105.81824
G1 X202.056 Y200.295 E105.88744
G1 X201.187 Y200.210 E105.95665
G1 X200.577 Y200.113 E106.00563
G1 X199.726 Y199.926 E106.07469
G1 X198.892 Y199.680 E106.14360
G1 X198.072 Y199.375 E106.21297
G1 X197.101 Y198.925 E106.29780
G1 X184.978 Y192.429 E107.38819
G1 X184.524 Y192.145 E107.43062
G1 X184.093 Y191.831 E107.47290
G1 X183.444 Y191.262 E107.54132
G1 X43.723 Y51.526 E123.20711
G1 X43.212 Y50.895 E123.27148
G1 X42.784 Y50.236 E123.33382
G1 X36.072 Y38.119 E124.43196
G1 X35.692 Y37.324 E124.50179
G1 X35.367 Y36.504 E124.57169
G1 X35.036 Y35.419 E124.66169
G1 X34.894 Y34.806 E124.71151
G1 X34.748 Y33.937 E124.78142
G1 X34.649 Y32.806 E124.87140
G1 X34.638 Y32.178 E124.92124
G1 X34.675 Y31.297 E124.99114
G1 X34.813 Y30.170 E125.08116
G1 X34.933 Y29.553 E125.13096
G1 X35.153 Y28.699 E125.20087
G1 X35.522 Y27.625 E125.29088
G1 X35.768 Y27.047 E125.34069
G1 X36.160 Y26.257 E125.41060
G1 X36.712 Y25.335 E125.49586
G1 E124.89586 F900.00000
G92 E0
G1 X198.022 Y182.298 F4500.000
G1 E0.65000 F900.00000
G1 F1920
G1 X198.421 Y181.976 E0.69064
G1 X198.839 Y181.682 E0.73116
G1 X199.278 Y181.418 E0.77175
G1 X199.734 Y181.186 E0.81237
G1 X200.205 Y180.986 E0.85293
G1 X200.690 Y180.819 E0.89355
G1 X201.185 Y180.687 E0.93419
G1 X201.688 Y180.589 E0.97481
G1 X202.201 Y180.526 E1.01580
G1 X202.706 Y180.500 E1.05589
G1 X203.219 Y180.509 E1.09656
G1 X203.729 Y180.554 E1.13714
G1 X204.234 Y180.633 E1.17769
G1 X204.733 Y180.749 E1.21830
G1 X205.223 Y180.898 E1.25887
G1 X205.701 Y181.082 E1.29950
G1 X206.166 Y181.298 E1.34013
G1 X206.613 Y181.546 E1.38070
G1 X207.042 Y181.825 E1.42125
G1 X207.451 Y182.133 E1.46187
G1 X207.838 Y182.469 E1.50245
G1 X208.200 Y182.832 E1.54310
G1 X208.536 Y183.218 E1.58368
G1 X208.845 Y183.627 E1.62430
G1 X209.123 Y184.056 E1.66485
G1 X209.371 Y184.504 E1.70542
G1 X209.588 Y184.968 E1.74605
G1 X209.772 Y185.447 E1.78668
G1 X209.921 Y185.936 E1.82725
G1 X210.036 Y186.435 E1.86787
G1 X210.116 Y186.940 E1.90841
G1 X210.161 Y187.451 E1.94902
G1 X210.170 Y187.969 E1.99013
G1 X210.143 Y188.474 E2.03022
G1 X210.081 Y188.982 E2.07077
G1 X209.983 Y189.484 E2.11136
G1 X209.851 Y189.980 E2.15200
G1 X209.684 Y190.464 E2.19262
G1 X209.484 Y190.935 E2.23318
G1 X209.251 Y191.392 E2.27380
G1 X208.987 Y191.830 E2.31439
G1 X208.694 Y192.249 E2.35491
G1 X208.372 Y192.648 E2.39555
G1 X208.022 Y193.022 E2.43616
G1 X207.648 Y193.372 E2.47677
G1 X207.249 Y193.694 E2.51742
G1 X206.830 Y193.987 E2.55794
G1 X206.392 Y194.251 E2.59853
G1 X205.935 Y194.484 E2.63914
G1 X205.464 Y194.684 E2.67971
G1 X204.980 Y194.851 E2.72032
G1 X204.484 Y194.983 E2.76097
G1 X203.982 Y195.081 E2.80155
G1 X203.474 Y195.143 E2.84210
G1 X202.963 Y195.170 E2.88267
G1 X202.450 Y195.161 E2.92334
G1 X201.940 Y195.116 E2.96392
G1 X201.435 Y195.036 E3.00446
G1 X200.936 Y194.921 E3.04508
G1 X200.447 Y194.772 E3.08565
G1 X199.968 Y194.588 E3.12628
G1 X199.504 Y194.371 E3.16691
G1 X199.062 Y194.126 E3.20700
G1 X198.628 Y193.845 E3.24799
G1 X198.218 Y193.536 E3.28864
G1 X197.832 Y193.200 E3.32922
G1 X197.469 Y192.838 E3.36988
G1 X197.133 Y192.451 E3.41046
G1 X196.825 Y192.042 E3.45107
G1 X196.546 Y191.613 E3.49163
G1 X196.298 Y191.166 E3.53220
G1 X196.082 Y190.701 E3.57282
G1 X195.898 Y190.223 E3.61346
G1 X195.749 Y189.733 E3.65403
G1 X195.633 Y189.234 E3.69464
G1 X195.554 Y188.729 E3.73518
G1 X195.509 Y188.225 E3.77529
G1 X195.499 Y187.706 E3.81643
G1 X195.528 Y187.189 E3.85747
G1 X195.589 Y186.688 E3.89755
G1 X195.687 Y186.185 E3.93813
G1 X195.819 Y185.690 E3.97878
G1 X195.986 Y185.205 E4.01940
G1 X196.186 Y184.734 E4.05996
G1 X196.418 Y184.278 E4.10057
G1 X196.682 Y183.839 E4.14117
G1 X196.976 Y183.421 E4.18168
G1 X197.298 Y183.022 E4.22233
G1 X197.647 Y182.647 E4.26294
G1 X197.978 Y182.338 E4.29880
G1 X198.439 Y182.778 F4500.000
G1 F1440
G1 X198.803 Y182.484 E4.33589
G1 X199.186 Y182.216 E4.37294
G1 X199.586 Y181.975 E4.41001
G1 X200.003 Y181.762 E4.44710
G1 X200.434 Y181.580 E4.48416
G1 X200.876 Y181.427 E4.52124
G1 X201.328 Y181.306 E4.55834
G1 X201.787 Y181.217 E4.59543
G1 X202.257 Y181.160 E4.63293
G1 X202.718 Y181.135 E4.66953
G1 X203.186 Y181.144 E4.70663
G1 X203.652 Y181.185 E4.74372
G1 X204.113 Y181.258 E4.78076
G1 X204.569 Y181.363 E4.81784
G1 X205.016 Y181.499 E4.85490
G1 X205.453 Y181.667 E4.89199
G1 X205.877 Y181.865 E4.92910
G1 X206.286 Y182.092 E4.96616
G1 X206.678 Y182.346 E5.00320
G1 X207.051 Y182.628 E5.04028
G1 X207.404 Y182.934 E5.07735
G1 X207.735 Y183.266 E5.11449
G1 X208.042 Y183.618 E5.15155
G1 X208.324 Y183.992 E5.18864
G1 X208.578 Y184.384 E5.22567
G1 X208.805 Y184.793 E5.26273
G1 X209.003 Y185.217 E5.29985
G1 X209.170 Y185.654 E5.33694
G1 X209.307 Y186.101 E5.37399
G1 X209.412 Y186.557 E5.41108
G1 X209.485 Y187.018 E5.44811
G1 X209.526 Y187.484 E5.48521
G1 X209.534 Y187.958 E5.52276
G1 X209.509 Y188.419 E5.55935
G1 X209.452 Y188.883 E5.59642
G1 X209.363 Y189.342 E5.63349
G1 X209.242 Y189.794 E5.67060
G1 X209.090 Y190.236 E5.70767
G1 X208.907 Y190.666 E5.74474
G1 X208.695 Y191.083 E5.78182
G1 X208.454 Y191.484 E5.81889
G1 X208.186 Y191.867 E5.85594
G1 X207.892 Y192.231 E5.89304
G1 X207.573 Y192.573 E5.93012
G1 X207.231 Y192.892 E5.96720
G1 X206.867 Y193.186 E6.00430
G1 X206.484 Y193.454 E6.04135
G1 X206.083 Y193.695 E6.07842
G1 X205.666 Y193.907 E6.11550
G1 X205.236 Y194.090 E6.15256
G1 X204.794 Y194.242 E6.18964
G1 X204.342 Y194.363 E6.22675
G1 X203.883 Y194.452 E6.26382
G1 X203.419 Y194.509 E6.30088
G1 X202.952 Y194.534 E6.33793
G1 X202.484 Y194.526 E6.37504
G1 X202.018 Y194.485 E6.41213
G1 X201.557 Y194.412 E6.44916
G1 X201.101 Y194.307 E6.48625
G1 X200.654 Y194.170 E6.52330
G1 X200.217 Y194.003 E6.56039
G1 X199.793 Y193.805 E6.59751
G1 X199.389 Y193.581 E6.63412
G1 X198.992 Y193.324 E6.67159
G1 X198.618 Y193.042 E6.70869
G1 X198.266 Y192.735 E6.74575
G1 X197.934 Y192.404 E6.78289
G1 X197.628 Y192.051 E6.81995
G1 X197.346 Y191.678 E6.85704
G1 X197.092 Y191.286 E6.89408
G1 X196.865 Y190.877 E6.93114
G1 X196.667 Y190.453 E6.96825
G1 X196.499 Y190.016 E7.00534
G1 X196.363 Y189.569 E7.04240
G1 X196.258 Y189.113 E7.07948
G1 X196.185 Y188.652 E7.11652
G1 X196.144 Y188.191 E7.15316
G1 X196.135 Y187.718 E7.19071
G1 X196.161 Y187.245 E7.22821
G1 X196.217 Y186.787 E7.26482
G1 X196.306 Y186.328 E7.30190
G1 X196.427 Y185.876 E7.33900
G1 X196.580 Y185.434 E7.37608
G1 X196.762 Y185.003 E7.41314
G1 X196.975 Y184.586 E7.45023
G1 X197.216 Y184.186 E7.48730
G1 X197.484 Y183.803 E7.52435
G1 X197.778 Y183.439 E7.56144
G1 X198.097 Y183.097 E7.59852
G1 X198.395 Y182.819 E7.63085
G1 X198.439 Y182.778 F4500.000
G1 E7.03085 F900.00000
G92 E0
G1 X192.830 Y167.452 F4500.000
G1 E0.65000 F900.00000
G1 F720
G1 X192.228 Y167.532 E0.69811
G1 X191.626 Y167.452 E0.74629
G1 X191.066 Y167.220 E0.79437
G1 X190.585 Y166.851 E0.84245
G1 X190.215 Y166.370 E0.89052
G1 X189.983 Y165.810 E0.93860
G1 X189.903 Y165.207 E0.98678
G1 X189.983 Y164.606 E1.03489
G1 X190.215 Y164.045 E1.08300
G1 X190.585 Y163.564 E1.13108
G1 X191.068 Y163.193 E1.17940
G1 X191.638 Y162.961 E1.22817
G1 X192.228 Y162.883 E1.27535
G1 X192.830 Y162.962 E1.32353
G1 X193.391 Y163.195 E1.37161
G1 X193.872 Y163.564 E1.41969
G1 X194.241 Y164.045 E1.46777
G1 X194.473 Y164.605 E1.51584
G1 X194.553 Y165.208 E1.56402
G1 X194.473 Y165.809 E1.61213
G1 X194.241 Y166.370 E1.66024
G1 X193.872 Y166.851 E1.70832
G1 X193.391 Y167.220 E1.75639
G1 X192.885 Y167.429 E1.79974
G1 X192.664 Y166.833 F4500.000
G1 F720
G1 X192.228 Y166.891 E1.83457
G1 X191.792 Y166.833 E1.86945
G1 X191.386 Y166.665 E1.90429
G1 X191.038 Y166.398 E1.93910
G1 X190.771 Y166.049 E1.97391
G1 X190.602 Y165.643 E2.00875
G1 X190.545 Y165.207 E2.04363
G1 X190.602 Y164.772 E2.07846
G1 X190.770 Y164.366 E2.11330
G1 X191.038 Y164.017 E2.14812
G1 X191.387 Y163.749 E2.18304
G1 X191.802 Y163.580 E2.21854
G1 X192.228 Y163.524 E2.25259
G1 X192.664 Y163.582 E2.28748
G1 X193.070 Y163.750 E2.32231
G1 X193.418 Y164.017 E2.35712
G1 X193.686 Y164.365 E2.39194
G1 X193.854 Y164.771 E2.42677
