; generated by Slic3r 1.3.1-dev on 2019-10-20 at 11:13:41

; Print Config Notes: 
; DMF_3D_0.3mmThin222HC25%
; 
; external perimeters extrusion width = 0.60mm (4.82mm^3/s)
; perimeters extrusion width = 0.54mm (5.71mm^3/s)
; infill extrusion width = 0.70mm (7.63mm^3/s)
; solid infill extrusion width = 0.51mm (5.35mm^3/s)
; top infill extrusion width = 0.51mm (5.35mm^3/s)

M190 S90 ; set bed temperature and wait for it to be reached
M104 S250 ; set temperature
G28 ; home all axes
; Filament gcode

M109 S250 ; set temperature and wait for it to be reached
G21 ; set units to millimeters
G90 ; use absolute coordinates
M82 ; use absolute distances for extrusion
G92 E0
G1 Z0.300 F4500.000
G1 E-0.60000 F900.00000
G92 E0
G1 X55.800 Y73.796 F4500.000
G1 E0.65000 F900.00000
G1 F1920
G1 X67.275 Y65.350 E1.77957
G1 X67.896 Y64.930 E1.83901
G1 X68.685 Y64.495 E1.91045
G1 X69.573 Y64.121 E1.98687
G1 X70.164 Y63.932 E2.03607
G1 X70.768 Y63.784 E2.08535
G1 X71.659 Y63.645 E2.15681
G1 X72.523 Y63.596 E2.22542
G1 X137.477 Y63.596 E7.37488
G1 X138.342 Y63.645 E7.44351
G1 X139.232 Y63.784 E7.51494
G1 X140.162 Y64.030 E7.59120
G1 X141.005 Y64.352 E7.66278
G1 X141.865 Y64.787 E7.73915
G1 X142.391 Y65.116 E7.78837
G1 X142.725 Y65.350 E7.82072
G1 X154.446 Y73.989 E8.97500
G1 X156.348 Y75.586 E9.17194
G1 X166.127 Y84.043 E10.19687
G1 X166.793 Y84.740 E10.27332
G1 X167.339 Y85.447 E10.34412
G1 X167.682 Y85.978 E10.39423
G1 X168.129 Y86.828 E10.47035
G1 X168.368 Y87.403 E10.51974
G1 X168.641 Y88.259 E10.59096
G1 X168.780 Y88.867 E10.64044
G1 X168.909 Y89.821 E10.71671
G1 X169.487 Y104.829 E11.90740
G1 X169.402 Y107.601 E12.12729
G1 X168.909 Y120.182 E13.12547
G1 X168.780 Y121.133 E13.20149
G1 X168.641 Y121.741 E13.25097
G1 X168.462 Y122.334 E13.30008
G1 X168.241 Y122.916 E13.34946
G1 X167.850 Y123.728 E13.42091
G1 X167.344 Y124.548 E13.49725
G1 X166.793 Y125.259 E13.56860
G1 X166.128 Y125.955 E13.64491
G1 X156.348 Y134.414 E14.66999
G1 X154.446 Y136.011 E14.86692
G1 X142.392 Y144.884 E16.05355
G1 X141.565 Y145.378 E16.12990
G1 X141.005 Y145.648 E16.17915
G1 X140.427 Y145.879 E16.22852
G1 X139.566 Y146.140 E16.29986
G1 X138.619 Y146.322 E16.37630
G1 X138.003 Y146.384 E16.42539
G1 X137.477 Y146.404 E16.46708
G1 X72.523 Y146.404 E21.61653
G1 X71.659 Y146.355 E21.68515
G1 X70.768 Y146.216 E21.75659
G1 X69.837 Y145.969 E21.83294
G1 X68.995 Y145.648 E21.90445
G1 X68.137 Y145.214 E21.98062
G1 X67.378 Y144.724 E22.05223
G1 X55.800 Y136.204 E23.19192
G1 X53.652 Y134.414 E23.41358
G1 X44.174 Y126.228 E24.40644
G1 X43.629 Y125.718 E24.46561
G1 X43.207 Y125.260 E24.51497
G1 X42.656 Y124.547 E24.58635
G1 X42.319 Y124.024 E24.63570
G1 X41.871 Y123.172 E24.71201
G1 X41.632 Y122.597 E24.76141
G1 X41.359 Y121.741 E24.83263
G1 X41.220 Y121.132 E24.88212
G1 X41.125 Y120.520 E24.93125
G1 X41.066 Y119.771 E24.99078
G1 X40.598 Y107.601 E25.95632
G1 X40.513 Y104.829 E26.17621
G1 X41.073 Y90.099 E27.34477
G1 X41.125 Y89.480 E27.39408
G1 X41.220 Y88.868 E27.44319
G1 X41.434 Y87.990 E27.51480
G1 X41.759 Y87.084 E27.59113
G1 X42.020 Y86.519 E27.64043
G1 X42.319 Y85.976 E27.68960
G1 X42.656 Y85.453 E27.73895
G1 X43.029 Y84.955 E27.78821
G1 X43.629 Y84.282 E27.85972
G1 X44.174 Y83.772 E27.91886
G1 X53.652 Y75.586 E28.91172
G1 X55.753 Y73.833 E29.12862
G1 X56.176 Y74.308 F4500.000
G1 F1920
G1 X67.651 Y65.862 E30.25819
G1 X68.222 Y65.476 E30.31280
G1 X68.972 Y65.062 E30.38071
G1 X69.779 Y64.722 E30.45010
G1 X70.327 Y64.546 E30.49579
G1 X70.888 Y64.408 E30.54156
G1 X71.735 Y64.276 E30.60949
G1 X72.523 Y64.232 E30.67209
G1 X137.477 Y64.232 E35.82154
G1 X138.266 Y64.276 E35.88415
G1 X139.112 Y64.408 E35.95206
G1 X139.956 Y64.632 E36.02131
G1 X140.758 Y64.937 E36.08935
G1 X141.539 Y65.333 E36.15869
G1 X142.028 Y65.637 E36.20440
G1 X142.349 Y65.862 E36.23543
G1 X154.037 Y74.476 E37.38651
G1 X155.933 Y76.067 E37.58272
G1 X165.699 Y84.514 E38.60637
G1 X166.304 Y85.147 E38.67578
G1 X166.823 Y85.818 E38.74307
G1 X167.141 Y86.312 E38.78962
G1 X167.547 Y87.084 E38.85876
G1 X167.770 Y87.617 E38.90461
G1 X168.030 Y88.431 E38.97234
G1 X168.157 Y88.996 E39.01828
G1 X168.275 Y89.862 E39.08753
G1 X168.852 Y104.851 E40.27671
G1 X168.767 Y107.577 E40.49291
G1 X168.274 Y120.141 E41.48972
G1 X168.157 Y121.004 E41.55876
G1 X168.030 Y121.569 E41.60470
G1 X167.864 Y122.120 E41.65031
G1 X167.659 Y122.661 E41.69617
G1 X167.287 Y123.433 E41.76409
G1 X166.827 Y124.176 E41.83341
G1 X166.304 Y124.853 E41.90125
G1 X165.700 Y125.485 E41.97054
G1 X155.933 Y133.933 E42.99431
G1 X154.037 Y135.524 E43.19052
G1 X142.028 Y144.363 E44.37263
G1 X141.278 Y144.811 E44.44195
G1 X140.501 Y145.171 E44.50980
G1 X139.675 Y145.454 E44.57905
G1 X139.112 Y145.592 E44.62498
G1 X138.266 Y145.724 E44.69288
G1 X137.477 Y145.768 E44.75549
G1 X72.523 Y145.768 E49.90494
G1 X71.734 Y145.724 E49.96754
G1 X70.888 Y145.592 E50.03546
G1 X70.043 Y145.368 E50.10479
G1 X69.241 Y145.063 E50.17276
G1 X68.463 Y144.669 E50.24193
G1 X67.971 Y144.362 E50.28788
G1 X67.651 Y144.138 E50.31883
G1 X56.176 Y135.692 E51.44840
G1 X54.067 Y133.933 E51.66613
G1 X44.589 Y125.747 E52.65899
G1 X44.088 Y125.278 E52.71337
G1 X43.696 Y124.854 E52.75920
G1 X43.177 Y124.182 E52.82651
G1 X42.860 Y123.690 E52.87289
G1 X42.453 Y122.916 E52.94218
G1 X42.230 Y122.383 E52.98805
G1 X41.970 Y121.569 E53.05577
G1 X41.843 Y121.003 E53.10172
G1 X41.755 Y120.435 E53.14735
G1 X41.701 Y119.747 E53.20204
G1 X41.233 Y107.577 E54.16757
G1 X41.148 Y104.851 E54.38377
G1 X41.707 Y90.141 E55.55082
G1 X41.755 Y89.565 E55.59661
G1 X41.843 Y88.996 E55.64222
G1 X42.046 Y88.162 E55.71029
G1 X42.341 Y87.339 E55.77960
G1 X42.583 Y86.815 E55.82538
G1 X42.860 Y86.310 E55.87104
G1 X43.172 Y85.824 E55.91687
G1 X43.518 Y85.361 E55.96261
G1 X44.088 Y84.721 E56.03059
G1 X44.589 Y84.253 E56.08494
G1 X54.067 Y76.067 E57.07780
G1 X56.129 Y74.345 E57.29078
G1 X56.553 Y74.820 F4500.000
G1 F1920
G1 X68.334 Y66.159 E58.44998
G1 X69.010 Y65.755 E58.51238
G1 X69.488 Y65.523 E58.55453
G1 X69.984 Y65.324 E58.59688
G1 X70.490 Y65.160 E58.63907
G1 X71.008 Y65.032 E58.68132
G1 X71.810 Y64.907 E58.74573
G1 X72.523 Y64.867 E58.80230
G1 X137.477 Y64.867 E63.95175
G1 X138.190 Y64.907 E64.00834
G1 X138.992 Y65.032 E64.07273
G1 X139.751 Y65.233 E64.13496
G1 X140.511 Y65.523 E64.19946
G1 X141.213 Y65.878 E64.26178
G1 X141.972 Y66.374 E64.33366
G1 X153.628 Y74.963 E65.48154
G1 X155.517 Y76.548 E65.67703
G1 X165.271 Y84.984 E66.69939
G1 X165.815 Y85.553 E66.76177
G1 X166.307 Y86.189 E66.82554
G1 X166.600 Y86.645 E66.86854
G1 X166.965 Y87.339 E66.93068
G1 X167.171 Y87.832 E66.97301
G1 X167.418 Y88.603 E67.03724
G1 X167.535 Y89.125 E67.07963
G1 X167.640 Y89.903 E67.14187
G1 X168.217 Y104.873 E68.32955
G1 X168.132 Y107.552 E68.54205
G1 X167.641 Y120.090 E69.53676
G1 X167.578 Y120.626 E69.57957
G1 X167.478 Y121.149 E69.62176
G1 X167.342 Y121.667 E69.66422
G1 X167.077 Y122.405 E69.72639
G1 X166.725 Y123.137 E69.79079
G1 X166.311 Y123.805 E69.85309
G1 X165.815 Y124.447 E69.91742
G1 X165.272 Y125.015 E69.97969
G1 X155.517 Y133.452 E71.00216
G1 X153.628 Y135.037 E71.19765
G1 X141.665 Y143.841 E72.37523
G1 X140.990 Y144.244 E72.43753
G1 X140.254 Y144.585 E72.50187
G1 X139.511 Y144.839 E72.56410
G1 X138.992 Y144.968 E72.60649
G1 X138.190 Y145.093 E72.67087
G1 X137.477 Y145.133 E72.72746
G1 X72.523 Y145.133 E77.87691
G1 X71.810 Y145.093 E77.93349
G1 X71.008 Y144.968 E77.99788
G1 X70.248 Y144.766 E78.06018
G1 X69.488 Y144.477 E78.12463
G1 X68.789 Y144.123 E78.18680
G1 X68.028 Y143.626 E78.25881
G1 X56.553 Y135.180 E79.38838
G1 X54.483 Y133.452 E79.60219
G1 X45.005 Y125.265 E80.59505
G1 X44.547 Y124.839 E80.64463
G1 X44.185 Y124.447 E80.68693
G1 X43.693 Y123.811 E80.75073
G1 X43.401 Y123.356 E80.79358
G1 X43.035 Y122.661 E80.85586
G1 X42.829 Y122.168 E80.89819
G1 X42.582 Y121.397 E80.96242
G1 X42.465 Y120.875 E81.00482
G1 X42.385 Y120.349 E81.04695
G1 X42.337 Y119.722 E81.09680
G1 X41.868 Y107.552 E82.06233
G1 X41.783 Y104.873 E82.27484
G1 X42.342 Y90.182 E83.44037
G1 X42.385 Y89.650 E83.48264
G1 X42.465 Y89.125 E83.52476
G1 X42.658 Y88.335 E83.58928
G1 X42.829 Y87.832 E83.63139
G1 X43.035 Y87.339 E83.67372
G1 X43.275 Y86.863 E83.71598
G1 X43.547 Y86.406 E83.75815
G1 X44.007 Y85.767 E83.82053
G1 X44.354 Y85.363 E83.86283
G1 X44.728 Y84.984 E83.90499
G1 X54.483 Y76.548 E84.92740
G1 X56.506 Y74.857 E85.13646
G1 E84.53646 F900.00000
G92 E0
G1 X134.625 Y138.135 F4500.000
G1 E0.65000 F900.00000
G1 F720
G1 X134.555 Y137.391 E0.70928
G1 X134.680 Y136.653 E0.76856
G1 X134.992 Y135.974 E0.82784
G1 X135.469 Y135.398 E0.88712
G1 X136.079 Y134.965 E0.94641
G1 X136.780 Y134.705 E1.00568
G1 X137.489 Y134.639 E1.06215
G1 X138.260 Y134.760 E1.12398
G1 X138.941 Y135.072 E1.18344
G1 X139.517 Y135.549 E1.24273
G1 X139.950 Y136.159 E1.30201
G1 X140.210 Y136.860 E1.36129
G1 X140.280 Y137.605 E1.42057
G1 X140.155 Y138.342 E1.47984
G1 X139.843 Y139.022 E1.53913
G1 X139.366 Y139.597 E1.59841
G1 X138.756 Y140.030 E1.65769
G1 X138.055 Y140.290 E1.71697
G1 X137.310 Y140.360 E1.77625
G1 X136.573 Y140.235 E1.83553
G1 X135.893 Y139.923 E1.89481
G1 X135.316 Y139.444 E1.95427
G1 X134.872 Y138.803 E2.01611
G1 X134.646 Y138.191 E2.06782
G1 X134.625 Y138.135 F4500.000
G1 E1.46782 F900.00000
G92 E0
G1 X157.666 Y121.076 F4500.000
G1 E0.65000 F900.00000
G1 F720
G1 X157.329 Y120.409 E0.70928
G1 X157.176 Y119.677 E0.76856
G1 X157.218 Y118.930 E0.82784
G1 X157.452 Y118.220 E0.88713
G1 X157.861 Y117.594 E0.94641
G1 X158.419 Y117.096 E1.00569
G1 X159.086 Y116.759 E1.06497
G1 X159.783 Y116.614 E1.12143
G1 X160.563 Y116.648 E1.18327
G1 X161.275 Y116.882 E1.24272
G1 X161.901 Y117.292 E1.30200
G1 X162.399 Y117.849 E1.36129
G1 X162.736 Y118.517 E1.42057
G1 X162.889 Y119.249 E1.47985
G1 X162.847 Y119.995 E1.53914
G1 X162.613 Y120.706 E1.59841
G1 X162.203 Y121.331 E1.65769
G1 X161.646 Y121.829 E1.71698
G1 X160.978 Y122.167 E1.77625
G1 X160.246 Y122.319 E1.83554
G1 X159.500 Y122.277 E1.89482
G1 X158.789 Y122.044 E1.95410
G1 X158.164 Y121.634 E2.01339
G1 X157.706 Y121.121 E2.06791
G1 X157.666 Y121.076 F4500.000
G1 E1.46791 F900.00000
G92 E0
G1 X159.818 Y93.394 F4500.000
G1 E0.65000 F900.00000
G1 F720
G1 X159.086 Y93.241 E0.70928
G1 X158.419 Y92.904 E0.76856
G1 X157.859 Y92.404 E0.82802
G1 X157.440 Y91.746 E0.88986
G1 X157.218 Y91.070 E0.94632
G1 X157.176 Y90.323 E1.00560
G1 X157.329 Y89.591 E1.06489
G1 X157.666 Y88.924 E1.12417
G1 X158.164 Y88.366 E1.18344
G1 X158.789 Y87.956 E1.24273
G1 X159.500 Y87.723 E1.30201
G1 X160.211 Y87.683 E1.35847
G1 X160.976 Y87.832 E1.42031
G1 X161.646 Y88.171 E1.47977
G1 X162.205 Y88.670 E1.53923
G1 X162.624 Y89.328 E1.60107
G1 X162.847 Y90.005 E1.65753
G1 X162.889 Y90.754 E1.71699
G1 X162.720 Y91.515 E1.77883
G1 X162.399 Y92.151 E1.83529
G1 X161.901 Y92.708 E1.89457
G1 X161.275 Y93.118 E1.95385
G1 X160.565 Y93.352 E2.01313
G1 X159.878 Y93.390 E2.06765
G1 X159.818 Y93.394 F4500.000
G1 E1.46765 F900.00000
G92 E0
G1 X139.517 Y74.451 F4500.000
G1 E0.65000 F900.00000
G1 F720
G1 X138.941 Y74.928 E0.70929
G1 X138.262 Y75.240 E0.76857
G1 X137.525 Y75.365 E0.82784
G1 X136.780 Y75.295 E0.88713
G1 X136.079 Y75.035 E0.94640
G1 X135.469 Y74.602 E1.00569
G1 X134.992 Y74.026 E1.06497
G1 X134.680 Y73.347 E1.12425
G1 X134.555 Y72.609 E1.18353
G1 X134.625 Y71.865 E1.24281
G1 X134.885 Y71.164 E1.30210
G1 X135.318 Y70.554 E1.36138
G1 X135.893 Y70.077 E1.42066
G1 X136.573 Y69.765 E1.47994
G1 X137.275 Y69.646 E1.53640
G1 X138.053 Y69.709 E1.59824
G1 X138.756 Y69.970 E1.65770
G1 X139.366 Y70.403 E1.71698
G1 X139.843 Y70.978 E1.77626
G1 X140.155 Y71.658 E1.83554
G1 X140.280 Y72.395 E1.89482
G1 X140.210 Y73.140 E1.95410
G1 X139.950 Y73.841 E2.01338
G1 X139.552 Y74.402 E2.06790
G1 X139.517 Y74.451 F4500.000
G1 X140.858 Y73.220 F4500.000
G1 F1920
G1 X142.586 Y73.849 E2.21366
G1 X144.728 Y74.803 E2.39957
G1 X146.799 Y75.904 E2.58549
G1 X148.787 Y77.147 E2.77140
G1 X150.684 Y78.525 E2.95730
G1 X152.481 Y80.033 E3.14322
G1 X154.168 Y81.661 E3.32913
G1 X155.737 Y83.404 E3.51504
G1 X157.181 Y85.252 E3.70094
G1 X158.583 Y87.332 E3.89981
G1 X157.746 Y87.880 E3.97919
G1 X157.136 Y88.563 E4.05173
G1 X156.723 Y89.379 E4.12427
G1 X156.537 Y90.275 E4.19683
G1 X156.588 Y91.189 E4.26938
G1 X156.862 Y92.021 E4.33878
G1 X157.371 Y92.820 E4.41390
G1 X158.058 Y93.434 E4.48694
G1 X158.874 Y93.846 E4.55949
G1 X159.770 Y94.033 E4.63204
G1 X160.684 Y93.982 E4.70459
G1 X161.624 Y93.672 E4.78305
G1 X162.296 Y95.739 E4.95535
G1 X162.863 Y98.015 E5.14126
G1 X163.270 Y100.324 E5.32717
G1 X163.515 Y102.656 E5.51308
G1 X163.597 Y105.000 E5.69899
G1 X163.515 Y107.344 E5.88491
G1 X163.270 Y109.676 E6.07081
G1 X162.863 Y111.985 E6.25672
G1 X162.296 Y114.261 E6.44264
G1 X161.624 Y116.328 E6.61494
G1 X160.678 Y116.016 E6.69389
G1 X159.732 Y115.975 E6.76901
G1 X158.874 Y116.154 E6.83842
G1 X158.058 Y116.566 E6.91096
G1 X157.375 Y117.176 E6.98351
G1 X156.874 Y117.942 E7.05606
G1 X156.588 Y118.811 E7.12861
G1 X156.537 Y119.725 E7.20116
G1 X156.723 Y120.621 E7.27371
G1 X157.136 Y121.437 E7.34626
G1 X157.746 Y122.120 E7.41880
G1 X158.583 Y122.668 E7.49818
G1 X157.181 Y124.748 E7.69704
G1 X155.737 Y126.596 E7.88295
G1 X154.168 Y128.339 E8.06886
G1 X152.481 Y129.967 E8.25477
G1 X150.684 Y131.475 E8.44068
G1 X148.787 Y132.853 E8.62659
G1 X146.799 Y134.096 E8.81250
G1 X144.728 Y135.197 E8.99842
G1 X142.586 Y136.151 E9.18433
G1 X140.858 Y136.780 E9.33008
G1 X140.517 Y135.860 E9.40787
G1 X139.987 Y135.113 E9.48042
G1 X139.282 Y134.529 E9.55298
G1 X138.445 Y134.145 E9.62603
G1 X137.509 Y133.998 E9.70113
G1 X136.637 Y134.080 E9.77054
G1 X135.779 Y134.398 E9.84308
G1 X135.033 Y134.928 E9.91564
G1 X134.449 Y135.633 E9.98819
G1 X134.068 Y136.464 E10.06073
G1 X133.914 Y137.367 E10.13329
G1 X134.006 Y138.344 E10.21109
G1 X133.512 Y138.413 E10.25064
G1 X131.172 Y138.577 E10.43656
G1 X128.828 Y138.577 E10.62246
G1 X126.488 Y138.413 E10.80837
G1 X124.166 Y138.087 E10.99428
G1 X121.872 Y137.599 E11.18020
G1 X119.618 Y136.953 E11.36610
G1 X117.414 Y136.151 E11.55201
G1 X115.272 Y135.197 E11.73792
G1 X113.201 Y134.096 E11.92384
G1 X111.975 Y133.330 E12.03845
G1 X111.249 Y133.330 E12.09608
G1 X110.687 Y133.691 E12.14898
G1 X110.526 Y133.775 E12.16337
G1 X110.119 Y133.935 E12.19806
G1 X109.710 Y134.032 E12.23137
G1 X109.292 Y134.072 E12.26469
G1 X108.855 Y134.052 E12.29937
G1 X108.681 Y134.026 E12.31331
G1 X108.258 Y133.916 E12.34799
G1 X107.854 Y133.748 E12.38266
G1 X107.690 Y133.659 E12.39746
G1 X107.189 Y133.330 E12.44495
G1 X102.444 Y133.330 E12.82114
G1 X103.031 Y132.720 E12.88823
G1 X103.384 Y132.082 E12.94606
G1 X103.560 Y131.374 E13.00390
G1 X103.546 Y130.644 E13.06173
G1 X103.344 Y129.944 E13.11956
G1 X102.968 Y129.319 E13.17739
G1 X102.579 Y128.944 E13.22022
G1 X102.763 Y128.677 E13.24594
G1 X102.961 Y128.771 E13.26326
G1 X103.788 Y127.972 E13.35447
G1 X105.333 Y126.257 E13.53747
G1 X106.754 Y124.438 E13.72046
G1 X108.045 Y122.524 E13.90345
G1 X109.199 Y120.525 E14.08644
G1 X110.211 Y118.451 E14.26943
G1 X111.075 Y116.310 E14.45243
G1 X111.789 Y114.115 E14.63542
G1 X112.347 Y111.876 E14.81841
G1 X112.748 Y109.602 E15.00140
G1 X112.902 Y108.131 E15.11867
G1 X112.703 Y108.034 E15.13623
G1 X112.796 Y107.724 E15.16196
G1 X113.333 Y107.794 E15.20489
G1 X114.057 Y107.699 E15.26273
G1 X114.730 Y107.420 E15.32055
G1 X115.309 Y106.976 E15.37838
G1 X115.753 Y106.397 E15.43622
G1 X116.032 Y105.723 E15.49405
G1 X116.128 Y105.000 E15.55188
G1 X116.032 Y104.277 E15.60970
G1 X115.753 Y103.603 E15.66753
G1 X115.309 Y103.024 E15.72537
G1 X114.730 Y102.580 E15.78320
G1 X114.051 Y102.299 E15.84151
G1 X113.304 Y102.209 E15.90112
G1 X112.796 Y102.276 E15.94174
G1 X112.703 Y101.966 E15.96746
G1 X112.902 Y101.869 E15.98503
G1 X112.748 Y100.398 E16.10229
G1 X112.347 Y98.124 E16.28529
G1 X111.789 Y95.885 E16.46828
G1 X111.075 Y93.690 E16.65126
G1 X110.211 Y91.549 E16.83426
G1 X109.199 Y89.475 E17.01725
G1 X108.045 Y87.476 E17.20024
G1 X106.754 Y85.562 E17.38323
G1 X105.333 Y83.743 E17.56622
G1 X103.788 Y82.028 E17.74922
G1 X102.961 Y81.229 E17.84043
G1 X102.763 Y81.323 E17.85775
G1 X102.579 Y81.056 E17.88348
G1 X102.968 Y80.681 E17.92630
G1 X103.344 Y80.056 E17.98414
G1 X103.546 Y79.355 E18.04196
