; generated by Slic3r 1.3.1-dev on 2019-10-20 at 11:13:09

; Print Config Notes: 
; DMF_3D_0.3mmThin222HC25%
; 
; external perimeters extrusion width = 0.60mm (4.82mm^3/s)
; perimeters extrusion width = 0.54mm (5.71mm^3/s)
; infill extrusion width = 0.70mm (7.63mm^3/s)
; solid infill extrusion width = 0.51mm (5.35mm^3/s)
; top infill extrusion width = 0.51mm (5.35mm^3/s)

M190 S90 ; set bed temperature and wait for it to be reached
M104 S250 ; set temperature
G28 ; home all axes
; Filament gcode

M109 S250 ; set temperature and wait for it to be reached
G21 ; set units to millimeters
G90 ; use absolute coordinates
M82 ; use absolute distances for extrusion
G92 E0
G1 Z0.300 F4500.000
G1 E-0.60000 F900.00000
G92 E0
G1 X67.947 Y68.981 F4500.000
G1 E0.65000 F900.00000
G1 F1920
G1 X70.550 Y66.484 E0.93595
G1 X73.051 Y64.385 E1.19476
G1 X75.962 Y62.255 E1.48070
G1 X79.311 Y60.163 E1.79378
G1 X82.501 Y58.480 E2.07971
G1 X85.483 Y57.152 E2.33852
G1 X89.195 Y55.802 E2.65162
G1 X92.333 Y54.902 E2.91042
G1 X95.858 Y54.140 E3.19636
G1 X99.428 Y53.626 E3.48232
G1 X103.368 Y53.351 E3.79539
G1 X106.974 Y53.363 E4.08133
G1 X110.231 Y53.590 E4.34014
G1 X113.805 Y54.081 E4.62608
G1 X117.667 Y54.902 E4.93916
G1 X121.131 Y55.907 E5.22510
G1 X124.199 Y57.024 E5.48391
G1 X127.807 Y58.630 E5.79699
G1 X130.986 Y60.334 E6.08293
G1 X133.754 Y62.064 E6.34174
G1 X136.949 Y64.385 E6.65482
G1 X139.450 Y66.484 E6.91363
G1 X142.053 Y68.981 E7.19959
G1 X144.475 Y71.653 E7.48552
G1 X146.906 Y74.765 E7.79860
G1 X148.732 Y77.471 E8.05740
G1 X150.546 Y80.589 E8.34335
G1 X152.277 Y84.138 E8.65643
G1 X153.500 Y87.165 E8.91524
G1 X154.626 Y90.592 E9.20119
G1 X155.581 Y94.424 E9.51426
G1 X156.196 Y97.978 E9.80021
G1 X156.537 Y101.225 E10.05902
G1 X156.675 Y104.829 E10.34496
G1 X156.537 Y108.775 E10.65803
G1 X156.196 Y112.022 E10.91684
G1 X155.581 Y115.576 E11.20279
G1 X154.626 Y119.408 E11.51587
G1 X153.617 Y122.513 E11.77468
G1 X152.369 Y125.635 E12.04121
G1 X152.138 Y126.174 E12.08777
G1 X150.706 Y129.109 E12.34658
G1 X148.732 Y132.529 E12.65966
G1 X146.906 Y135.235 E12.91846
G1 X144.695 Y138.085 E13.20441
G1 X142.053 Y141.019 E13.51747
G1 X139.704 Y143.287 E13.77628
G1 X139.262 Y143.674 E13.82284
G1 X136.679 Y145.826 E14.08937
G1 X134.038 Y147.745 E14.34819
G1 X130.689 Y149.837 E14.66127
G1 X127.499 Y151.520 E14.94720
G1 X124.517 Y152.848 E15.20601
G1 X120.806 Y154.198 E15.51909
G1 X117.335 Y155.181 E15.80503
G1 X114.142 Y155.860 E16.06384
G1 X110.572 Y156.374 E16.34980
G1 X106.632 Y156.649 E16.66287
G1 X103.025 Y156.637 E16.94882
G1 X99.769 Y156.410 E17.20762
G1 X96.195 Y155.919 E17.49356
G1 X92.333 Y155.098 E17.80665
G1 X88.869 Y154.093 E18.09259
G1 X85.801 Y152.976 E18.35140
G1 X82.193 Y151.370 E18.66448
G1 X79.311 Y149.837 E18.92329
G1 X76.246 Y147.936 E19.20922
G1 X73.051 Y145.615 E19.52231
G1 X70.550 Y143.516 E19.78112
G1 X67.947 Y141.019 E20.06707
G1 X65.305 Y138.085 E20.38014
G1 X63.295 Y135.512 E20.63894
G1 X61.405 Y132.732 E20.90548
G1 X61.087 Y132.238 E20.95203
G1 X59.454 Y129.411 E21.21084
G1 X57.723 Y125.862 E21.52393
G1 X56.500 Y122.835 E21.78273
G1 X55.374 Y119.408 E22.06868
G1 X54.419 Y115.576 E22.38175
G1 X53.804 Y112.022 E22.66771
G1 X53.463 Y108.775 E22.92651
G1 X53.325 Y105.171 E23.21246
G1 X53.439 Y101.566 E23.49840
G1 X53.852 Y97.639 E23.81148
G1 X54.419 Y94.424 E24.07028
G1 X55.280 Y90.921 E24.35623
G1 X56.500 Y87.165 E24.66931
G1 X57.723 Y84.138 E24.92811
G1 X59.294 Y80.891 E25.21406
G1 X61.268 Y77.471 E25.52714
G1 X63.094 Y74.765 E25.78595
G1 X65.305 Y71.915 E26.07190
G1 X67.906 Y69.024 E26.38021
G1 X68.389 Y69.438 F4500.000
G1 F1920
G1 X70.959 Y66.971 E26.66264
G1 X73.460 Y64.872 E26.92145
G1 X76.336 Y62.770 E27.20388
G1 X79.609 Y60.724 E27.50993
G1 X82.492 Y59.191 E27.76873
G1 X85.742 Y57.733 E28.05115
G1 X89.370 Y56.413 E28.35722
G1 X92.508 Y55.513 E28.61602
G1 X95.990 Y54.762 E28.89844
G1 X99.813 Y54.225 E29.20450
G1 X103.368 Y53.986 E29.48693
G1 X106.930 Y53.997 E29.76935
G1 X110.187 Y54.225 E30.02816
G1 X113.716 Y54.710 E30.31059
G1 X117.492 Y55.513 E30.61664
G1 X120.630 Y56.413 E30.87545
G1 X123.981 Y57.621 E31.15788
G1 X127.508 Y59.191 E31.46393
G1 X130.649 Y60.873 E31.74635
G1 X133.417 Y62.603 E32.00516
G1 X136.540 Y64.872 E32.31121
G1 X139.263 Y67.170 E32.59365
G1 X141.611 Y69.438 E32.85246
G1 X144.194 Y72.307 E33.15849
G1 X146.379 Y75.120 E33.44093
G1 X148.205 Y77.827 E33.69973
G1 X149.995 Y80.907 E33.98216
G1 X151.688 Y84.377 E34.28821
G1 X153.012 Y87.684 E34.57064
G1 X154.021 Y90.788 E34.82945
G1 X154.955 Y94.534 E35.13550
G1 X155.564 Y98.044 E35.41793
G1 X155.905 Y101.291 E35.67674
G1 X156.039 Y104.851 E35.95917
G1 X155.905 Y108.709 E36.26521
G1 X155.564 Y111.956 E36.52402
G1 X154.955 Y115.466 E36.80645
G1 X154.021 Y119.212 E37.11250
G1 X153.012 Y122.316 E37.37131
G1 X151.779 Y125.396 E37.63432
G1 X151.566 Y125.896 E37.67736
G1 X150.135 Y128.830 E37.93617
G1 X148.205 Y132.173 E38.24222
G1 X146.204 Y135.121 E38.52465
G1 X144.194 Y137.693 E38.78346
G1 X141.611 Y140.562 E39.08949
G1 X139.263 Y142.830 E39.34830
G1 X138.854 Y143.187 E39.39135
G1 X136.306 Y145.311 E39.65436
G1 X133.664 Y147.230 E39.91318
G1 X130.391 Y149.276 E40.21922
G1 X127.508 Y150.809 E40.47803
G1 X124.258 Y152.267 E40.76045
G1 X120.630 Y153.587 E41.06651
G1 X117.492 Y154.487 E41.32532
G1 X114.010 Y155.238 E41.60774
G1 X110.187 Y155.775 E41.91379
G1 X106.632 Y156.014 E42.19622
G1 X103.070 Y156.003 E42.47865
G1 X99.813 Y155.775 E42.73746
G1 X96.284 Y155.290 E43.01988
G1 X92.508 Y154.487 E43.32594
G1 X89.086 Y153.495 E43.60836
G1 X86.019 Y152.379 E43.86717
G1 X82.492 Y150.809 E44.17322
G1 X79.609 Y149.276 E44.43203
G1 X76.583 Y147.397 E44.71445
G1 X73.460 Y145.128 E45.02051
G1 X70.959 Y143.029 E45.27931
G1 X68.389 Y140.562 E45.56175
G1 X65.806 Y137.693 E45.86779
G1 X63.796 Y135.121 E46.12660
G1 X61.932 Y132.376 E46.38962
G1 X61.637 Y131.920 E46.43265
G1 X60.005 Y129.093 E46.69146
G1 X58.312 Y125.623 E46.99752
G1 X57.090 Y122.597 E47.25632
G1 X55.979 Y119.212 E47.53875
G1 X55.045 Y115.466 E47.84480
G1 X54.436 Y111.956 E48.12723
G1 X54.095 Y108.709 E48.38604
G1 X53.961 Y105.149 E48.66847
G1 X54.074 Y101.588 E48.95089
G1 X54.478 Y97.749 E49.25694
G1 X55.045 Y94.534 E49.51575
G1 X55.897 Y91.075 E49.79818
G1 X57.090 Y87.403 E50.10423
G1 X58.434 Y84.104 E50.38666
G1 X59.865 Y81.170 E50.64547
G1 X61.795 Y77.827 E50.95152
G1 X63.621 Y75.120 E51.21032
G1 X65.806 Y72.307 E51.49276
G1 X68.347 Y69.481 E51.79404
G1 X68.830 Y69.895 F4500.000
G1 F1920
G1 X71.367 Y67.457 E52.07296
G1 X73.868 Y65.359 E52.33177
G1 X76.709 Y63.284 E52.61068
G1 X79.908 Y61.285 E52.90970
G1 X83.018 Y59.641 E53.18860
G1 X86.000 Y58.314 E53.44741
G1 X89.545 Y57.024 E53.74644
G1 X92.683 Y56.124 E54.00525
G1 X96.122 Y55.384 E54.28415
G1 X99.858 Y54.859 E54.58318
G1 X103.368 Y54.622 E54.86209
G1 X106.886 Y54.631 E55.14100
G1 X110.142 Y54.859 E55.39981
G1 X113.628 Y55.339 E55.67872
G1 X117.317 Y56.124 E55.97774
G1 X120.455 Y57.024 E56.23655
G1 X123.764 Y58.218 E56.51546
G1 X127.210 Y59.753 E56.81448
G1 X130.312 Y61.412 E57.09339
G1 X133.080 Y63.142 E57.35220
G1 X136.132 Y65.359 E57.65122
G1 X138.633 Y67.457 E57.91003
G1 X141.170 Y69.895 E58.18895
G1 X143.530 Y72.504 E58.46786
G1 X145.852 Y75.476 E58.76688
G1 X147.678 Y78.182 E59.02568
G1 X149.445 Y81.225 E59.30460
G1 X151.098 Y84.615 E59.60362
G1 X152.321 Y87.641 E59.86242
G1 X153.417 Y90.985 E60.14134
G1 X154.329 Y94.644 E60.44036
G1 X154.931 Y98.111 E60.71927
G1 X155.273 Y101.357 E60.97808
G1 X155.404 Y104.873 E61.25700
G1 X155.273 Y108.643 E61.55601
G1 X154.931 Y111.889 E61.81481
G1 X154.329 Y115.356 E62.09373
G1 X153.417 Y119.015 E62.39275
G1 X152.408 Y122.120 E62.65156
G1 X151.190 Y125.158 E62.91106
G1 X150.995 Y125.617 E62.95058
G1 X149.564 Y128.551 E63.20940
G1 X147.678 Y131.818 E63.50841
G1 X145.852 Y134.524 E63.76722
G1 X143.693 Y137.302 E64.04614
G1 X141.170 Y140.105 E64.34514
G1 X138.633 Y142.543 E64.62406
G1 X135.932 Y144.797 E64.90297
G1 X133.291 Y146.716 E65.16179
G1 X130.092 Y148.715 E65.46080
G1 X127.210 Y150.247 E65.71961
G1 X124.000 Y151.686 E65.99851
G1 X120.455 Y152.976 E66.29754
G1 X117.071 Y153.938 E66.57645
G1 X113.878 Y154.616 E66.83526
G1 X110.395 Y155.115 E67.11418
G1 X106.632 Y155.378 E67.41320
G1 X103.114 Y155.369 E67.69211
G1 X99.858 Y155.141 E67.95091
G1 X96.372 Y154.661 E68.22983
G1 X92.683 Y153.876 E68.52885
G1 X89.545 Y152.976 E68.78765
G1 X86.236 Y151.782 E69.06657
G1 X82.790 Y150.247 E69.36559
G1 X79.688 Y148.588 E69.64450
G1 X76.920 Y146.858 E69.90330
G1 X73.868 Y144.641 E70.20233
G1 X71.367 Y142.543 E70.46113
G1 X68.830 Y140.105 E70.74006
G1 X66.307 Y137.302 E71.03906
G1 X64.297 Y134.730 E71.29787
G1 X62.459 Y132.021 E71.55737
G1 X62.188 Y131.603 E71.59690
G1 X60.555 Y128.775 E71.85570
G1 X58.902 Y125.385 E72.15473
G1 X57.679 Y122.359 E72.41353
G1 X56.583 Y119.015 E72.69245
G1 X55.671 Y115.356 E72.99146
G1 X55.069 Y111.889 E73.27038
G1 X54.727 Y108.643 E73.52919
G1 X54.596 Y105.127 E73.80811
G1 X54.710 Y101.611 E74.08701
G1 X55.104 Y97.859 E74.38603
G1 X55.671 Y94.644 E74.64484
G1 X56.513 Y91.229 E74.92376
G1 X57.679 Y87.641 E75.22278
G1 X58.902 Y84.615 E75.48158
G1 X60.436 Y81.449 E75.76050
G1 X62.322 Y78.182 E76.05952
G1 X64.297 Y75.270 E76.33843
G1 X66.307 Y72.698 E76.59724
G1 X68.789 Y69.938 E76.89149
G1 E76.29149 F900.00000
G92 E0
G1 X123.495 Y133.298 F4500.000
G1 E0.65000 F900.00000
G1 F1920
G1 X121.910 Y134.289 E0.79820
G1 X119.826 Y135.397 E0.98534
G1 X117.669 Y136.357 E1.17248
G1 X115.451 Y137.164 E1.35963
G1 X113.182 Y137.815 E1.54677
G1 X110.873 Y138.306 E1.73391
G1 X108.535 Y138.634 E1.92105
G1 X106.180 Y138.799 E2.10819
G1 X103.820 Y138.799 E2.29533
G1 X100.613 Y138.575 E2.55014
G1 X100.605 Y138.206 E2.57937
G1 X100.294 Y138.154 E2.60437
G1 X100.053 Y138.803 E2.65928
G1 X99.631 Y139.398 E2.71710
G1 X99.069 Y139.864 E2.77494
G1 X98.406 Y140.168 E2.83277
G1 X97.687 Y140.290 E2.89059
G1 X96.961 Y140.222 E2.94842
G1 X96.277 Y139.968 E3.00626
G1 X95.682 Y139.546 E3.06409
G1 X95.217 Y138.984 E3.12191
G1 X94.912 Y138.321 E3.17975
G1 X94.789 Y137.593 E3.23830
G1 X94.867 Y136.892 E3.29419
G1 X94.563 Y136.801 E3.31941
G1 X94.404 Y137.111 E3.34706
G1 X92.331 Y136.357 E3.52195
G1 X90.174 Y135.397 E3.70908
G1 X88.090 Y134.289 E3.89623
G1 X86.088 Y133.038 E4.08337
G1 X84.179 Y131.650 E4.27051
G1 X82.370 Y130.133 E4.45765
G1 X80.672 Y128.493 E4.64479
G1 X79.093 Y126.739 E4.83193
G1 X77.639 Y124.879 E5.01907
G1 X76.030 Y122.493 E5.24723
G1 X76.300 Y122.267 E5.27514
G1 X76.147 Y121.991 E5.30013
G1 X75.487 Y122.208 E5.35519
G1 X74.759 Y122.249 E5.41302
G1 X74.045 Y122.100 E5.47086
G1 X73.394 Y121.772 E5.52870
G1 X72.850 Y121.285 E5.58653
G1 X72.450 Y120.675 E5.64435
G1 X72.222 Y119.982 E5.70217
G1 X72.181 Y119.245 E5.76072
G1 X72.350 Y118.500 E5.82127
G1 X72.659 Y117.889 E5.87560
G1 X73.145 Y117.345 E5.93342
G1 X73.728 Y116.963 E5.98865
G1 X73.608 Y116.672 E6.01363
G1 X73.276 Y116.739 E6.04050
G1 X72.491 Y114.322 E6.24200
G1 X71.920 Y112.031 E6.42913
G1 X71.510 Y109.707 E6.61628
G1 X71.263 Y107.359 E6.80342
G1 X71.180 Y105.000 E6.99056
G1 X71.263 Y102.641 E7.17770
G1 X71.510 Y100.293 E7.36484
G1 X71.920 Y97.969 E7.55198
G1 X72.491 Y95.678 E7.73912
G1 X73.276 Y93.261 E7.94062
G1 X73.608 Y93.328 E7.96749
G1 X73.728 Y93.037 E7.99247
G1 X73.145 Y92.655 E8.04769
G1 X72.659 Y92.111 E8.10552
G1 X72.330 Y91.460 E8.16336
G1 X72.181 Y90.746 E8.22120
G1 X72.222 Y90.018 E8.27903
G1 X72.450 Y89.325 E8.33686
G1 X72.850 Y88.715 E8.39468
G1 X73.394 Y88.228 E8.45251
G1 X74.045 Y87.900 E8.51034
G1 X74.792 Y87.744 E8.57086
G1 X75.495 Y87.794 E8.62669
G1 X76.147 Y88.009 E8.68115
G1 X76.300 Y87.733 E8.70614
G1 X76.030 Y87.507 E8.73405
G1 X77.639 Y85.121 E8.96221
G1 X79.093 Y83.261 E9.14935
G1 X80.672 Y81.507 E9.33649
G1 X82.370 Y79.867 E9.52363
G1 X84.179 Y78.350 E9.71077
G1 X86.088 Y76.962 E9.89791
G1 X88.090 Y75.711 E10.08505
G1 X90.174 Y74.603 E10.27220
G1 X92.331 Y73.643 E10.45933
G1 X94.404 Y72.889 E10.63421
G1 X94.553 Y73.180 E10.66014
G1 X94.855 Y73.092 E10.68512
G1 X94.790 Y72.398 E10.74036
G1 X94.912 Y71.679 E10.79819
G1 X95.217 Y71.016 E10.85603
G1 X95.682 Y70.454 E10.91385
G1 X96.277 Y70.032 E10.97168
G1 X96.961 Y69.778 E11.02952
G1 X97.643 Y69.714 E11.08385
G1 X98.407 Y69.830 E11.14507
G1 X99.071 Y70.138 E11.20309
G1 X99.631 Y70.602 E11.26077
G1 X100.053 Y71.197 E11.31859
G1 X100.294 Y71.846 E11.37351
G1 X100.605 Y71.794 E11.39850
G1 X100.613 Y71.425 E11.42774
G1 X103.820 Y71.201 E11.68254
G1 X106.180 Y71.201 E11.86968
G1 X108.535 Y71.366 E12.05682
G1 X110.873 Y71.694 E12.24397
G1 X113.182 Y72.185 E12.43111
G1 X115.451 Y72.836 E12.61825
G1 X117.669 Y73.643 E12.80539
G1 X119.826 Y74.603 E12.99253
G1 X121.910 Y75.711 E13.17967
G1 X123.495 Y76.702 E13.32787
G1 X123.364 Y76.993 E13.35319
G1 X123.621 Y77.175 E13.37817
G1 X124.124 Y76.691 E13.43349
G1 X124.762 Y76.338 E13.49131
G1 X125.427 Y76.173 E13.54563
G1 X126.191 Y76.173 E13.60617
G1 X126.900 Y76.378 E13.66472
G1 X127.525 Y76.754 E13.72255
G1 X128.031 Y77.280 E13.78038
G1 X128.384 Y77.918 E13.83821
G1 X128.560 Y78.626 E13.89604
G1 X128.546 Y79.355 E13.95387
G1 X128.344 Y80.056 E14.01170
G1 X127.986 Y80.651 E14.06677
G1 X128.220 Y80.862 E14.09176
G1 X128.466 Y80.675 E14.11627
G1 X129.328 Y81.507 E14.21122
G1 X130.907 Y83.261 E14.39835
G1 X132.361 Y85.121 E14.58550
G1 X133.681 Y87.078 E14.77264
G1 X134.861 Y89.123 E14.95978
G1 X135.896 Y91.244 E15.14692
G1 X136.780 Y93.433 E15.33406
G1 X137.509 Y95.678 E15.52120
G1 X138.080 Y97.969 E15.70834
G1 X138.490 Y100.293 E15.89548
G1 X138.651 Y101.818 E16.01707
G1 X138.326 Y101.901 E16.04360
G1 X138.348 Y102.218 E16.06881
G1 X139.048 Y102.297 E16.12469
G1 X139.730 Y102.580 E16.18323
G1 X140.316 Y103.030 E16.24178
G1 X140.770 Y103.644 E16.30233
G1 X141.032 Y104.277 E16.35665
G1 X141.128 Y105.000 E16.41447
G1 X141.032 Y105.723 E16.47229
G1 X140.753 Y106.397 E16.53013
G1 X140.309 Y106.976 E16.58796
G1 X139.730 Y107.420 E16.64580
G1 X139.057 Y107.699 E16.70362
G1 X138.366 Y107.790 E16.75884
G1 X138.348 Y108.105 E16.78382
G1 X138.651 Y108.181 E16.80861
G1 X138.490 Y109.707 E16.93020
G1 X138.080 Y112.031 E17.11734
G1 X137.509 Y114.324 E17.30467
G1 X136.715 Y116.729 E17.50541
G1 X135.896 Y118.756 E17.67873
G1 X134.861 Y120.877 E17.86587
G1 X133.681 Y122.922 E18.05302
G1 X132.361 Y124.879 E18.24015
G1 X130.907 Y126.739 E18.42730
G1 X129.328 Y128.493 E18.61444
G1 X128.466 Y129.325 E18.70939
G1 X128.219 Y129.137 E18.73397
G1 X127.985 Y129.344 E18.75873
G1 X128.356 Y129.986 E18.81754
G1 X128.546 Y130.645 E18.87186
G1 X128.560 Y131.374 E18.92969
G1 X128.384 Y132.082 E18.98752
G1 X128.031 Y132.720 E19.04535
G1 X127.525 Y133.246 E19.10318
G1 X126.900 Y133.622 E19.16101
G1 X126.199 Y133.824 E19.21884
G1 X125.470 Y133.838 E19.27667
G1 X124.762 Y133.662 E19.33450
G1 X124.124 Y133.309 E19.39233
G1 X123.621 Y132.825 E19.44765
G1 X123.364 Y133.007 E19.47262
G1 X123.470 Y133.243 E19.49318
G1 E18.89318 F900.00000
G92 E0
G1 X99.721 Y137.337 F4500.000
G1 E0.65000 F900.00000
G1 F720
G1 X99.734 Y137.417 E0.65640
G1 X99.682 Y137.977 E0.70096
G1 X99.486 Y138.504 E0.74553
G1 X99.161 Y138.962 E0.79008
G1 X98.728 Y139.321 E0.83465
G1 X98.217 Y139.555 E0.87921
G1 X97.663 Y139.649 E0.92377
G1 X97.104 Y139.597 E0.96833
G1 X96.576 Y139.401 E1.01290
G1 X96.118 Y139.076 E1.05746
G1 X95.759 Y138.643 E1.10202
G1 X95.525 Y138.132 E1.14659
G1 X95.430 Y137.575 E1.19140
G1 X95.497 Y136.982 E1.23867
G1 X95.679 Y136.491 E1.28019
G1 X96.004 Y136.033 E1.32475
G1 X96.437 Y135.674 E1.36931
G1 X96.948 Y135.440 E1.41388
G1 X97.464 Y135.352 E1.45538
G1 X98.059 Y135.397 E1.50265
G1 X98.589 Y135.594 E1.54747
G1 X99.047 Y135.919 E1.59204
G1 X99.406 Y136.352 E1.63659
G1 X99.640 Y136.863 E1.68116
G1 X99.711 Y137.278 E1.71457
G1 X99.798 Y137.362 F4500.000
G1 E1.11457 F900.00000
G92 E0
G1 X76.747 Y120.676 F4500.000
G1 E0.65000 F900.00000
G1 F720
G1 X76.372 Y121.095 E0.69456
G1 X75.902 Y121.403 E0.73912
G1 X75.368 Y121.578 E0.78368
G1 X74.807 Y121.610 E0.82825
G1 X74.256 Y121.495 E0.87282
G1 X73.755 Y121.242 E0.91738
G1 X73.336 Y120.867 E0.96194
G1 X73.028 Y120.397 E1.00650
G1 X72.852 Y119.863 E1.05106
G1 X72.820 Y119.299 E1.09588
G1 X72.953 Y118.717 E1.14315
