; generated by Slic3r 1.3.1-dev on 2019-10-20 at 11:13:24

; Print Config Notes: 
; DMF_3D_0.3mmThin222HC25%
; 
; external perimeters extrusion width = 0.60mm (4.82mm^3/s)
; perimeters extrusion width = 0.54mm (5.71mm^3/s)
; infill extrusion width = 0.70mm (7.63mm^3/s)
; solid infill extrusion width = 0.51mm (5.35mm^3/s)
; top infill extrusion width = 0.51mm (5.35mm^3/s)

M190 S90 ; set bed temperature and wait for it to be reached
M104 S250 ; set temperature
G28 ; home all axes
; Filament gcode

M109 S250 ; set temperature and wait for it to be reached
G21 ; set units to millimeters
G90 ; use absolute coordinates
M82 ; use absolute distances for extrusion
G92 E0
G1 Z0.300 F4500.000
G1 E-0.60000 F900.00000
G92 E0
G1 X55.800 Y73.796 F4500.000
G1 E0.65000 F900.00000
G1 F1920
G1 X67.275 Y65.350 E1.77957
G1 X67.896 Y64.930 E1.83901
G1 X68.685 Y64.495 E1.91045
G1 X69.573 Y64.121 E1.98687
G1 X70.164 Y63.932 E2.03607
G1 X70.768 Y63.784 E2.08535
G1 X71.659 Y63.645 E2.15681
G1 X72.523 Y63.596 E2.22542
G1 X137.477 Y63.596 E7.37488
G1 X138.342 Y63.645 E7.44351
G1 X139.232 Y63.784 E7.51494
G1 X140.162 Y64.030 E7.59120
G1 X141.005 Y64.352 E7.66278
G1 X141.865 Y64.787 E7.73915
G1 X142.391 Y65.116 E7.78837
G1 X142.725 Y65.350 E7.82072
G1 X154.446 Y73.989 E8.97500
G1 X156.348 Y75.586 E9.17194
G1 X166.127 Y84.043 E10.19687
G1 X166.793 Y84.740 E10.27332
G1 X167.339 Y85.447 E10.34412
G1 X167.682 Y85.978 E10.39423
G1 X168.129 Y86.828 E10.47035
G1 X168.368 Y87.403 E10.51974
G1 X168.641 Y88.259 E10.59096
G1 X168.780 Y88.867 E10.64044
G1 X168.909 Y89.821 E10.71671
G1 X169.487 Y104.829 E11.90740
G1 X169.402 Y107.601 E12.12729
G1 X168.909 Y120.182 E13.12547
G1 X168.780 Y121.133 E13.20149
G1 X168.641 Y121.741 E13.25097
G1 X168.462 Y122.334 E13.30008
G1 X168.241 Y122.916 E13.34946
G1 X167.850 Y123.728 E13.42091
G1 X167.344 Y124.548 E13.49725
G1 X166.793 Y125.259 E13.56860
G1 X166.128 Y125.955 E13.64491
G1 X156.348 Y134.414 E14.66999
G1 X154.446 Y136.011 E14.86692
G1 X142.392 Y144.884 E16.05355
G1 X141.565 Y145.378 E16.12990
G1 X141.005 Y145.648 E16.17915
G1 X140.427 Y145.879 E16.22852
G1 X139.566 Y146.140 E16.29986
G1 X138.619 Y146.322 E16.37630
G1 X138.003 Y146.384 E16.42539
G1 X137.477 Y146.404 E16.46708
G1 X72.523 Y146.404 E21.61653
G1 X71.659 Y146.355 E21.68515
G1 X70.768 Y146.216 E21.75659
G1 X69.837 Y145.969 E21.83294
G1 X68.995 Y145.648 E21.90445
G1 X68.137 Y145.214 E21.98062
G1 X67.378 Y144.724 E22.05223
G1 X55.800 Y136.204 E23.19192
G1 X53.652 Y134.414 E23.41358
G1 X44.174 Y126.228 E24.40644
G1 X43.629 Y125.718 E24.46561
G1 X43.207 Y125.260 E24.51497
G1 X42.656 Y124.547 E24.58635
G1 X42.319 Y124.024 E24.63570
G1 X41.871 Y123.172 E24.71201
G1 X41.632 Y122.597 E24.76141
G1 X41.359 Y121.741 E24.83263
G1 X41.220 Y121.132 E24.88212
G1 X41.125 Y120.520 E24.93125
G1 X41.066 Y119.771 E24.99078
G1 X40.598 Y107.601 E25.95632
G1 X40.513 Y104.829 E26.17621
G1 X41.073 Y90.099 E27.34477
G1 X41.125 Y89.480 E27.39408
G1 X41.220 Y88.868 E27.44319
G1 X41.434 Y87.990 E27.51480
G1 X41.759 Y87.084 E27.59113
G1 X42.020 Y86.519 E27.64043
G1 X42.319 Y85.976 E27.68960
G1 X42.656 Y85.453 E27.73895
G1 X43.029 Y84.955 E27.78821
G1 X43.629 Y84.282 E27.85972
G1 X44.174 Y83.772 E27.91886
G1 X53.652 Y75.586 E28.91172
G1 X55.753 Y73.833 E29.12862
G1 X56.176 Y74.308 F4500.000
G1 F1920
G1 X67.651 Y65.862 E30.25819
G1 X68.222 Y65.476 E30.31280
G1 X68.972 Y65.062 E30.38071
G1 X69.779 Y64.722 E30.45010
G1 X70.327 Y64.546 E30.49579
G1 X70.888 Y64.408 E30.54156
G1 X71.735 Y64.276 E30.60949
G1 X72.523 Y64.232 E30.67209
G1 X137.477 Y64.232 E35.82154
G1 X138.266 Y64.276 E35.88415
G1 X139.112 Y64.408 E35.95206
G1 X139.956 Y64.632 E36.02131
G1 X140.758 Y64.937 E36.08935
G1 X141.539 Y65.333 E36.15869
G1 X142.028 Y65.637 E36.20440
G1 X142.349 Y65.862 E36.23543
G1 X154.037 Y74.476 E37.38651
G1 X155.933 Y76.067 E37.58272
G1 X165.699 Y84.514 E38.60637
G1 X166.304 Y85.147 E38.67578
G1 X166.823 Y85.818 E38.74307
G1 X167.141 Y86.312 E38.78962
G1 X167.547 Y87.084 E38.85876
G1 X167.770 Y87.617 E38.90461
G1 X168.030 Y88.431 E38.97234
G1 X168.157 Y88.996 E39.01828
G1 X168.275 Y89.862 E39.08753
G1 X168.852 Y104.851 E40.27671
G1 X168.767 Y107.577 E40.49291
G1 X168.274 Y120.141 E41.48972
G1 X168.157 Y121.004 E41.55876
G1 X168.030 Y121.569 E41.60470
G1 X167.864 Y122.120 E41.65031
G1 X167.659 Y122.661 E41.69617
G1 X167.287 Y123.433 E41.76409
G1 X166.827 Y124.176 E41.83341
G1 X166.304 Y124.853 E41.90125
G1 X165.700 Y125.485 E41.97054
G1 X155.933 Y133.933 E42.99431
G1 X154.037 Y135.524 E43.19052
G1 X142.028 Y144.363 E44.37263
G1 X141.278 Y144.811 E44.44195
G1 X140.501 Y145.171 E44.50980
G1 X139.675 Y145.454 E44.57905
G1 X139.112 Y145.592 E44.62498
G1 X138.266 Y145.724 E44.69288
G1 X137.477 Y145.768 E44.75549
G1 X72.523 Y145.768 E49.90494
G1 X71.734 Y145.724 E49.96754
G1 X70.888 Y145.592 E50.03546
G1 X70.043 Y145.368 E50.10479
G1 X69.241 Y145.063 E50.17276
G1 X68.463 Y144.669 E50.24193
G1 X67.971 Y144.362 E50.28788
G1 X67.651 Y144.138 E50.31883
G1 X56.176 Y135.692 E51.44840
G1 X54.067 Y133.933 E51.66613
G1 X44.589 Y125.747 E52.65899
G1 X44.088 Y125.278 E52.71337
G1 X43.696 Y124.854 E52.75920
G1 X43.177 Y124.182 E52.82651
G1 X42.860 Y123.690 E52.87289
G1 X42.453 Y122.916 E52.94218
G1 X42.230 Y122.383 E52.98805
G1 X41.970 Y121.569 E53.05577
G1 X41.843 Y121.003 E53.10172
G1 X41.755 Y120.435 E53.14735
G1 X41.701 Y119.747 E53.20204
G1 X41.233 Y107.577 E54.16757
G1 X41.148 Y104.851 E54.38377
G1 X41.707 Y90.141 E55.55082
G1 X41.755 Y89.565 E55.59661
G1 X41.843 Y88.996 E55.64222
G1 X42.046 Y88.162 E55.71029
G1 X42.341 Y87.339 E55.77960
G1 X42.583 Y86.815 E55.82538
G1 X42.860 Y86.310 E55.87104
G1 X43.172 Y85.824 E55.91687
G1 X43.518 Y85.361 E55.96261
G1 X44.088 Y84.721 E56.03059
G1 X44.589 Y84.253 E56.08494
G1 X54.067 Y76.067 E57.07780
G1 X56.129 Y74.345 E57.29078
G1 X56.553 Y74.820 F4500.000
G1 F1920
G1 X68.334 Y66.159 E58.44998
G1 X69.010 Y65.755 E58.51238
G1 X69.488 Y65.523 E58.55453
G1 X69.984 Y65.324 E58.59688
G1 X70.490 Y65.160 E58.63907
G1 X71.008 Y65.032 E58.68132
G1 X71.810 Y64.907 E58.74573
G1 X72.523 Y64.867 E58.80230
G1 X137.477 Y64.867 E63.95175
G1 X138.190 Y64.907 E64.00834
G1 X138.992 Y65.032 E64.07273
G1 X139.751 Y65.233 E64.13496
G1 X140.511 Y65.523 E64.19946
G1 X141.213 Y65.878 E64.26178
G1 X141.972 Y66.374 E64.33366
G1 X153.628 Y74.963 E65.48154
G1 X155.517 Y76.548 E65.67703
G1 X165.271 Y84.984 E66.69939
G1 X165.815 Y85.553 E66.76177
G1 X166.307 Y86.189 E66.82554
G1 X166.600 Y86.645 E66.86854
G1 X166.965 Y87.339 E66.93068
G1 X167.171 Y87.832 E66.97301
G1 X167.418 Y88.603 E67.03724
G1 X167.535 Y89.125 E67.07963
G1 X167.640 Y89.903 E67.14187
G1 X168.217 Y104.873 E68.32955
G1 X168.132 Y107.552 E68.54205
G1 X167.641 Y120.090 E69.53676
G1 X167.578 Y120.626 E69.57957
G1 X167.478 Y121.149 E69.62176
G1 X167.342 Y121.667 E69.66422
G1 X167.077 Y122.405 E69.72639
G1 X166.725 Y123.137 E69.79079
G1 X166.311 Y123.805 E69.85309
G1 X165.815 Y124.447 E69.91742
G1 X165.272 Y125.015 E69.97969
G1 X155.517 Y133.452 E71.00216
G1 X153.628 Y135.037 E71.19765
G1 X141.665 Y143.841 E72.37523
G1 X140.990 Y144.244 E72.43753
G1 X140.254 Y144.585 E72.50187
G1 X139.511 Y144.839 E72.56410
G1 X138.992 Y144.968 E72.60649
G1 X138.190 Y145.093 E72.67087
G1 X137.477 Y145.133 E72.72746
G1 X72.523 Y145.133 E77.87691
G1 X71.810 Y145.093 E77.93349
G1 X71.008 Y144.968 E77.99788
G1 X70.248 Y144.766 E78.06018
G1 X69.488 Y144.477 E78.12463
G1 X68.789 Y144.123 E78.18680
G1 X68.028 Y143.626 E78.25881
G1 X56.553 Y135.180 E79.38838
G1 X54.483 Y133.452 E79.60219
G1 X45.005 Y125.265 E80.59505
G1 X44.547 Y124.839 E80.64463
G1 X44.185 Y124.447 E80.68693
G1 X43.693 Y123.811 E80.75073
G1 X43.401 Y123.356 E80.79358
G1 X43.035 Y122.661 E80.85586
G1 X42.829 Y122.168 E80.89819
G1 X42.582 Y121.397 E80.96242
G1 X42.465 Y120.875 E81.00482
G1 X42.385 Y120.349 E81.04695
G1 X42.337 Y119.722 E81.09680
G1 X41.868 Y107.552 E82.06233
G1 X41.783 Y104.873 E82.27484
G1 X42.342 Y90.182 E83.44037
G1 X42.385 Y89.650 E83.48264
G1 X42.465 Y89.125 E83.52476
G1 X42.658 Y88.335 E83.58928
G1 X42.829 Y87.832 E83.63139
G1 X43.035 Y87.339 E83.67372
G1 X43.275 Y86.863 E83.71598
G1 X43.547 Y86.406 E83.75815
G1 X44.007 Y85.767 E83.82053
G1 X44.354 Y85.363 E83.86283
G1 X44.728 Y84.984 E83.90499
G1 X54.483 Y76.548 E84.92740
G1 X56.506 Y74.857 E85.13646
G1 E84.53646 F900.00000
G92 E0
G1 X135.318 Y137.977 F4500.000
G1 E0.65000 F900.00000
G1 F720
G1 X135.266 Y137.416 E0.69465
G1 X135.365 Y136.851 E0.74012
G1 X135.594 Y136.352 E0.78367
G1 X135.953 Y135.919 E0.82822
G1 X136.411 Y135.594 E0.87279
G1 X136.938 Y135.398 E0.91735
G1 X137.485 Y135.347 E0.96089
G1 X138.051 Y135.440 E1.00635
G1 X138.563 Y135.674 E1.05100
G1 X138.996 Y136.033 E1.09556
G1 X139.321 Y136.491 E1.14013
G1 X139.517 Y137.018 E1.18469
G1 X139.569 Y137.578 E1.22925
G1 X139.475 Y138.132 E1.27381
G1 X139.241 Y138.643 E1.31838
G1 X138.882 Y139.076 E1.36294
G1 X138.423 Y139.401 E1.40750
G1 X137.896 Y139.597 E1.45207
G1 X137.337 Y139.649 E1.49662
G1 X136.783 Y139.555 E1.54119
G1 X136.272 Y139.321 E1.58575
G1 X135.839 Y138.962 E1.63032
G1 X135.514 Y138.504 E1.67487
G1 X135.339 Y138.033 E1.71468
G1 X135.318 Y137.977 F4500.000
G1 E1.11468 F900.00000
G92 E0
G1 X139.953 Y136.368 F4500.000
G1 E0.65000 F900.00000
G1 F1920
G1 X140.235 Y136.208 E0.67572
G1 X140.383 Y136.391 E0.69441
G1 X142.388 Y135.662 E0.86357
G1 X144.497 Y134.723 E1.04656
G1 X146.536 Y133.639 E1.22962
G1 X148.538 Y132.383 E1.41704
G1 X150.360 Y131.059 E1.59553
G1 X152.128 Y129.576 E1.77851
G1 X153.788 Y127.972 E1.96150
G1 X155.333 Y126.257 E2.14450
G1 X156.754 Y124.438 E2.32749
G1 X158.311 Y122.129 E2.54832
G1 X158.150 Y121.925 E2.56893
G1 X158.369 Y121.685 E2.59466
G1 X158.978 Y122.084 E2.65234
G1 X157.181 Y124.748 E2.90712
G1 X155.737 Y126.596 E3.09302
G1 X154.168 Y128.339 E3.27893
G1 X152.481 Y129.967 E3.46484
G1 X150.684 Y131.475 E3.65076
G1 X148.787 Y132.853 E3.83666
G1 X146.799 Y134.096 E4.02257
G1 X144.728 Y135.197 E4.20849
G1 X142.586 Y136.151 E4.39440
G1 X140.491 Y136.913 E4.57115
G1 X140.487 Y136.954 E4.57437
G1 X140.185 Y136.993 E4.59849
G1 X139.974 Y136.424 E4.64664
G1 E4.04664 F900.00000
G92 E0
G1 X158.253 Y120.676 F4500.000
G1 E0.65000 F900.00000
G1 F720
G1 X158.000 Y120.174 E0.69456
G1 X157.885 Y119.623 E0.73922
G1 X157.921 Y119.050 E0.78468
G1 X158.092 Y118.529 E0.82822
G1 X158.400 Y118.058 E0.87279
G1 X158.819 Y117.684 E0.91735
G1 X159.321 Y117.430 E0.96191
G1 X159.859 Y117.318 E1.00545
G1 X160.432 Y117.347 E1.05092
G1 X160.967 Y117.523 E1.09557
G1 X161.438 Y117.831 E1.14021
G1 X161.817 Y118.261 E1.18568
G1 X162.065 Y118.752 E1.22922
G1 X162.180 Y119.302 E1.27379
G1 X162.148 Y119.863 E1.31835
G1 X161.972 Y120.397 E1.36291
G1 X161.664 Y120.867 E1.40747
G1 X161.245 Y121.242 E1.45203
G1 X160.744 Y121.495 E1.49659
G1 X160.193 Y121.610 E1.54116
G1 X159.632 Y121.578 E1.58573
G1 X159.098 Y121.403 E1.63029
G1 X158.628 Y121.095 E1.67485
G1 X158.293 Y120.720 E1.71465
G1 X158.253 Y120.676 F4500.000
G1 E1.11465 F900.00000
G92 E0
G1 X160.731 Y116.776 F4500.000
G1 E0.65000 F900.00000
G1 F1920
G1 X160.782 Y116.456 E0.67572
G1 X161.028 Y116.455 E0.69528
G1 X161.789 Y114.115 E0.89030
G1 X162.347 Y111.876 E1.07329
G1 X162.748 Y109.602 E1.25628
G1 X162.989 Y107.307 E1.43927
G1 X163.070 Y105.000 E1.62226
G1 X162.989 Y102.693 E1.80525
G1 X162.748 Y100.398 E1.98825
G1 X162.347 Y98.124 E2.17124
G1 X161.789 Y95.885 E2.35423
G1 X161.028 Y93.545 E2.54924
G1 X160.782 Y93.544 E2.56880
G1 X160.731 Y93.224 E2.59452
G1 X161.406 Y93.002 E2.65089
G1 X162.296 Y95.739 E2.87909
G1 X162.863 Y98.015 E3.06501
G1 X163.270 Y100.324 E3.25092
G1 X163.515 Y102.656 E3.43683
G1 X163.597 Y105.000 E3.62274
G1 X163.515 Y107.344 E3.80865
G1 X163.270 Y109.676 E3.99456
G1 X162.863 Y111.985 E4.18047
G1 X162.296 Y114.261 E4.36638
G1 X161.406 Y116.998 E4.59459
G1 X160.788 Y116.795 E4.64619
G1 E4.04619 F900.00000
G92 E0
G1 X159.871 Y92.684 F4500.000
G1 E0.65000 F900.00000
G1 F720
G1 X159.321 Y92.570 E0.69457
G1 X158.819 Y92.316 E0.73913
G1 X158.400 Y91.942 E0.78369
G1 X158.092 Y91.471 E0.82825
G1 X157.917 Y90.938 E0.87281
G1 X157.885 Y90.376 E0.91738
G1 X158.000 Y89.826 E0.96195
G1 X158.253 Y89.324 E1.00651
G1 X158.628 Y88.905 E1.05107
G1 X159.098 Y88.597 E1.09563
G1 X159.632 Y88.422 E1.14019
G1 X160.180 Y88.391 E1.18373
G1 X160.743 Y88.504 E1.22920
G1 X161.245 Y88.758 E1.27385
G1 X161.664 Y89.133 E1.31842
G1 X161.972 Y89.603 E1.36297
G1 X162.148 Y90.137 E1.40753
G1 X162.180 Y90.698 E1.45210
G1 X162.065 Y91.248 E1.49667
G1 X161.811 Y91.750 E1.54123
G1 X161.437 Y92.169 E1.58579
G1 X160.967 Y92.477 E1.63035
G1 X160.433 Y92.653 E1.67491
G1 X159.931 Y92.681 E1.71471
G1 X159.871 Y92.684 F4500.000
G1 E1.11471 F900.00000
G92 E0
G1 X158.369 Y88.315 F4500.000
G1 E0.65000 F900.00000
G1 F1920
G1 X158.150 Y88.075 E0.67573
G1 X158.311 Y87.871 E0.69634
G1 X156.783 Y85.605 E0.91308
G1 X155.333 Y83.744 E1.10009
G1 X153.788 Y82.028 E1.28315
G1 X152.128 Y80.424 E1.46614
G1 X150.360 Y78.941 E1.64912
G1 X148.492 Y77.584 E1.83211
G1 X146.535 Y76.361 E2.01510
G1 X144.497 Y75.277 E2.19810
G1 X142.388 Y74.338 E2.38109
G1 X140.359 Y73.600 E2.55227
G1 X140.269 Y73.720 E2.56418
G1 X139.979 Y73.562 E2.59034
G1 X140.185 Y73.007 E2.63732
G1 X140.487 Y73.046 E2.66143
G1 X140.491 Y73.087 E2.66465
G1 X142.586 Y73.849 E2.84140
G1 X144.728 Y74.803 E3.02731
G1 X146.799 Y75.904 E3.21323
G1 X148.787 Y77.147 E3.39914
G1 X150.684 Y78.525 E3.58505
G1 X152.481 Y80.033 E3.77096
G1 X154.168 Y81.661 E3.95687
G1 X155.737 Y83.404 E4.14278
G1 X157.181 Y85.252 E4.32869
G1 X158.978 Y87.916 E4.58346
G1 X158.419 Y88.282 E4.63639
G1 E4.03639 F900.00000
G92 E0
G1 X138.996 Y73.967 F4500.000
G1 E0.65000 F900.00000
G1 F720
G1 X138.563 Y74.326 E0.69456
G1 X138.064 Y74.555 E0.73810
G1 X137.499 Y74.654 E0.78356
G1 X136.938 Y74.602 E0.82821
G1 X136.411 Y74.406 E0.87278
G1 X135.953 Y74.081 E0.91734
G1 X135.594 Y73.648 E0.96190
G1 X135.360 Y73.137 E1.00647
G1 X135.265 Y72.582 E1.05112
G1 X135.323 Y72.011 E1.09658
G1 X135.514 Y71.496 E1.14013
G1 X135.839 Y71.038 E1.18468
G1 X136.272 Y70.679 E1.22925
G1 X136.783 Y70.445 E1.27381
G1 X137.324 Y70.353 E1.31735
G1 X137.895 Y70.403 E1.36281
G1 X138.423 Y70.599 E1.40746
G1 X138.882 Y70.924 E1.45203
G1 X139.241 Y71.357 E1.49658
G1 X139.475 Y71.868 E1.54115
G1 X139.569 Y72.422 E1.58572
G1 X139.517 Y72.982 E1.63028
G1 X139.321 Y73.509 E1.67484
G1 X139.031 Y73.918 E1.71465
G1 X138.996 Y73.967 F4500.000
G1 X140.585 Y74.358 F4500.000
G1 F1440
G1 X142.150 Y74.928 E1.84669
G1 X144.218 Y75.849 E2.02616
G1 X146.217 Y76.912 E2.20564
G1 X148.137 Y78.111 E2.38511
G1 X149.968 Y79.442 E2.56458
G1 X151.702 Y80.897 E2.74405
G1 X153.331 Y82.470 E2.92352
G1 X154.846 Y84.152 E3.10302
G1 X156.268 Y85.978 E3.28651
G1 X157.524 Y87.841 E3.46465
G1 X157.017 Y88.482 E3.52943
G1 X156.760 Y88.921 E3.56976
G1 X156.567 Y89.392 E3.61013
G1 X156.442 Y89.886 E3.65049
G1 X156.385 Y90.398 E3.69134
G1 X156.384 Y90.640 E3.71056
G1 X156.435 Y91.153 E3.75140
G1 X156.556 Y91.648 E3.79177
G1 X156.744 Y92.120 E3.83211
G1 X157.001 Y92.568 E3.87301
G1 X157.312 Y92.970 E3.91333
G1 X157.480 Y93.146 E3.93256
G1 X157.873 Y93.479 E3.97340
G1 X158.303 Y93.751 E4.01377
G1 X158.767 Y93.960 E4.05413
G1 X159.256 Y94.103 E4.09449
G1 X159.759 Y94.176 E4.13483
G1 X160.566 Y94.179 E4.19877
G1 X161.177 Y96.060 E4.35557
G1 X161.725 Y98.257 E4.53504
G1 X162.118 Y100.486 E4.71451
G1 X162.355 Y102.738 E4.89398
G1 X162.434 Y105.000 E5.07345
G1 X162.355 Y107.262 E5.25292
G1 X162.118 Y109.514 E5.43240
G1 X161.725 Y111.743 E5.61187
G1 X161.177 Y113.940 E5.79134
G1 X160.566 Y115.821 E5.94813
G1 X159.759 Y115.824 E6.01207
G1 X159.256 Y115.897 E6.05242
G1 X158.761 Y116.042 E6.09326
G1 X158.537 Y116.134 E6.11249
G1 X158.083 Y116.378 E6.15333
G1 X157.673 Y116.679 E6.19368
G1 X157.304 Y117.040 E6.23458
G1 X156.993 Y117.442 E6.27489
G1 X156.866 Y117.648 E6.29412
G1 X156.642 Y118.113 E6.33498
G1 X156.487 Y118.598 E6.37533
G1 X156.401 Y119.099 E6.41569
G1 X156.386 Y119.608 E6.45605
G1 X156.442 Y120.114 E6.49641
G1 X156.567 Y120.608 E6.53677
G1 X156.760 Y121.079 E6.57714
G1 X157.017 Y121.518 E6.61747
G1 X157.524 Y122.159 E6.68225
G1 X156.239 Y124.064 E6.86444
