; generated by Slic3r 1.3.1-dev on 2019-10-30 at 16:52:14

; Print Config Notes: 
; DMF_3D_0.3mmThin222HC25%
; 
; external perimeters extrusion width = 0.60mm (4.82mm^3/s)
; perimeters extrusion width = 0.54mm (5.71mm^3/s)
; infill extrusion width = 0.70mm (7.63mm^3/s)
; solid infill extrusion width = 0.51mm (5.35mm^3/s)
; top infill extrusion width = 0.51mm (5.35mm^3/s)

M190 S90 ; set bed temperature and wait for it to be reached
M104 S250 ; set temperature
G28 ; home all axes
; Filament gcode

M109 S250 ; set temperature and wait for it to be reached
G21 ; set units to millimeters
G90 ; use absolute coordinates
M82 ; use absolute distances for extrusion
G92 E0
G1 Z0.300 F4500.000
G1 E-0.60000 F900.00000
G92 E0
G1 X82.554 Y83.086 F4500.000
G1 E0.65000 F900.00000
G1 F1920
G1 X83.883 Y81.803 E0.79645
G1 X85.553 Y80.387 E0.97003
G1 X87.601 Y78.899 E1.17073
G1 X89.464 Y77.748 E1.34433
G1 X91.095 Y76.881 E1.49077
G1 X93.090 Y75.980 E1.66435
G1 X95.469 Y75.114 E1.86505
G1 X97.578 Y74.522 E2.03866
G1 X99.384 Y74.138 E2.18510
G1 X101.551 Y73.821 E2.35867
G1 X104.076 Y73.644 E2.55938
G1 X105.924 Y73.644 E2.70583
G1 X108.109 Y73.785 E2.87942
G1 X110.616 Y74.138 E3.08011
G1 X112.422 Y74.522 E3.22656
G1 X114.531 Y75.114 E3.40016
G1 X116.910 Y75.980 E3.60086
G1 X118.905 Y76.881 E3.77444
G1 X120.536 Y77.748 E3.92089
G1 X122.399 Y78.898 E4.09448
G1 X124.447 Y80.387 E4.29519
G1 X126.117 Y81.803 E4.46877
G1 X127.446 Y83.086 E4.61521
G1 X129.140 Y84.968 E4.81592
G1 X130.479 Y86.701 E4.98952
G1 X131.693 Y88.522 E5.16309
G1 X132.616 Y90.122 E5.30953
G1 X133.726 Y92.398 E5.51024
G1 X134.536 Y94.432 E5.68384
G1 X135.106 Y96.189 E5.83028
G1 X135.648 Y98.311 E6.00385
G1 X136.087 Y100.804 E6.20457
G1 X136.280 Y102.641 E6.35101
G1 X136.369 Y104.829 E6.52459
G1 X136.280 Y107.359 E6.72531
G1 X136.087 Y109.196 E6.87176
G1 X135.719 Y111.354 E7.04532
G1 X135.201 Y113.482 E7.21892
G1 X134.418 Y115.890 E7.41964
G1 X133.726 Y117.602 E7.56608
G1 X132.777 Y119.576 E7.73966
G1 X131.511 Y121.768 E7.94037
G1 X130.479 Y123.299 E8.08681
G1 X129.140 Y125.032 E8.26040
G1 X127.446 Y126.914 E8.46111
G1 X126.117 Y128.197 E8.60756
G1 X124.447 Y129.613 E8.78114
G1 X122.399 Y131.102 E8.98185
G1 X120.536 Y132.252 E9.15544
G1 X118.905 Y133.119 E9.30188
G1 X116.910 Y134.020 E9.47546
G1 X114.531 Y134.886 E9.67617
G1 X112.422 Y135.478 E9.84977
G1 X110.616 Y135.862 E9.99621
G1 X108.449 Y136.179 E10.16978
G1 X105.924 Y136.356 E10.37050
G1 X104.076 Y136.356 E10.51694
G1 X101.891 Y136.215 E10.69053
G1 X99.384 Y135.862 E10.89122
G1 X97.578 Y135.478 E11.03767
G1 X95.469 Y134.886 E11.21127
G1 X93.090 Y134.020 E11.41197
G1 X91.403 Y133.269 E11.55841
G1 X89.464 Y132.252 E11.73200
G1 X87.601 Y131.102 E11.90559
G1 X85.553 Y129.613 E12.10630
G1 X83.883 Y128.197 E12.27988
G1 X82.554 Y126.914 E12.42632
G1 X80.860 Y125.032 E12.62703
G1 X79.521 Y123.299 E12.80063
G1 X78.489 Y121.768 E12.94707
G1 X77.384 Y119.878 E13.12064
G1 X76.274 Y117.602 E13.32136
G1 X75.464 Y115.568 E13.49495
G1 X74.799 Y113.482 E13.66852
G1 X74.352 Y111.689 E13.81497
G1 X73.913 Y109.196 E14.01568
G1 X73.720 Y107.359 E14.16212
G1 X73.631 Y105.171 E14.33570
G1 X73.720 Y102.641 E14.53643
G1 X73.913 Y100.804 E14.68287
G1 X74.281 Y98.646 E14.85643
G1 X74.799 Y96.518 E15.03003
G1 X75.582 Y94.110 E15.23075
G1 X76.274 Y92.398 E15.37719
G1 X77.223 Y90.424 E15.55078
G1 X78.489 Y88.232 E15.75148
G1 X79.521 Y86.701 E15.89792
G1 X80.860 Y84.968 E16.07152
G1 X82.513 Y83.129 E16.26747
G1 X82.996 Y83.544 F4500.000
G1 F1920
G1 X84.325 Y82.260 E16.41392
G1 X85.961 Y80.874 E16.58398
G1 X87.938 Y79.438 E16.77766
G1 X89.762 Y78.310 E16.94773
G1 X91.393 Y77.442 E17.09418
G1 X93.349 Y76.560 E17.26424
G1 X95.645 Y75.725 E17.45792
G1 X97.710 Y75.143 E17.62800
G1 X99.810 Y74.708 E17.79805
G1 X101.639 Y74.451 E17.94450
G1 X104.076 Y74.280 E18.13819
G1 X105.924 Y74.280 E18.28463
G1 X108.064 Y74.419 E18.45470
G1 X110.483 Y74.759 E18.64837
G1 X112.580 Y75.216 E18.81845
G1 X114.355 Y75.725 E18.96490
G1 X116.651 Y76.560 E19.15857
G1 X118.339 Y77.312 E19.30501
G1 X120.238 Y78.309 E19.47508
G1 X122.062 Y79.438 E19.64516
G1 X124.039 Y80.874 E19.83884
G1 X125.675 Y82.260 E20.00890
G1 X127.004 Y83.544 E20.15534
G1 X128.639 Y85.359 E20.34902
G1 X129.776 Y86.815 E20.49547
G1 X130.984 Y88.587 E20.66554
G1 X132.206 Y90.703 E20.85922
G1 X133.016 Y92.363 E21.00567
G1 X133.829 Y94.348 E21.17573
G1 X134.584 Y96.672 E21.36942
G1 X135.093 Y98.756 E21.53950
G1 X135.414 Y100.575 E21.68594
G1 X135.648 Y102.707 E21.85599
G1 X135.733 Y105.149 E22.04969
G1 X135.669 Y106.995 E22.19613
G1 X135.455 Y109.130 E22.36619
G1 X135.031 Y111.536 E22.55988
G1 X134.584 Y113.328 E22.70632
G1 X133.931 Y115.371 E22.87638
G1 X133.137 Y117.364 E23.04645
G1 X132.066 Y119.560 E23.24014
G1 X131.142 Y121.160 E23.38658
G1 X129.952 Y122.944 E23.55663
G1 X128.639 Y124.641 E23.72671
G1 X127.004 Y126.456 E23.92039
G1 X125.675 Y127.740 E24.06684
G1 X124.039 Y129.126 E24.23690
G1 X122.062 Y130.562 E24.43058
G1 X120.238 Y131.690 E24.60066
G1 X118.607 Y132.558 E24.74710
G1 X116.651 Y133.440 E24.91717
G1 X114.355 Y134.275 E25.11084
G1 X112.290 Y134.857 E25.28093
G1 X110.190 Y135.292 E25.45098
G1 X108.361 Y135.549 E25.59742
G1 X105.924 Y135.720 E25.79111
G1 X104.076 Y135.720 E25.93755
G1 X101.936 Y135.581 E26.10763
G1 X99.517 Y135.241 E26.30129
G1 X97.710 Y134.857 E26.44774
G1 X95.645 Y134.275 E26.61782
G1 X93.349 Y133.440 E26.81149
G1 X91.661 Y132.688 E26.95794
G1 X89.762 Y131.690 E27.12800
G1 X87.938 Y130.562 E27.29808
G1 X85.961 Y129.126 E27.49176
G1 X84.546 Y127.939 E27.63820
G1 X82.996 Y126.456 E27.80827
G1 X81.361 Y124.641 E28.00195
G1 X80.048 Y122.944 E28.17203
G1 X79.016 Y121.413 E28.31847
G1 X77.934 Y119.560 E28.48852
G1 X76.863 Y117.364 E28.68221
G1 X76.069 Y115.371 E28.85228
G1 X75.498 Y113.615 E28.99873
G1 X74.969 Y111.536 E29.16879
G1 X74.545 Y109.130 E29.36247
G1 X74.352 Y107.293 E29.50891
G1 X74.267 Y105.149 E29.67898
G1 X74.352 Y102.707 E29.87267
G1 X74.545 Y100.870 E30.01911
G1 X74.907 Y98.756 E30.18916
G1 X75.416 Y96.672 E30.35925
G1 X76.171 Y94.348 E30.55293
G1 X76.984 Y92.363 E30.72300
G1 X77.794 Y90.703 E30.86944
G1 X79.016 Y88.587 E31.06312
G1 X80.048 Y87.056 E31.20956
G1 X81.361 Y85.359 E31.37964
G1 X82.954 Y83.587 E31.56856
G1 X83.437 Y84.001 F4500.000
G1 F1920
G1 X84.766 Y82.718 E31.71501
G1 X86.370 Y81.360 E31.88155
G1 X88.274 Y79.977 E32.06821
G1 X90.061 Y78.871 E32.23476
G1 X91.692 Y78.004 E32.38121
G1 X93.607 Y77.141 E32.54776
G1 X95.820 Y76.336 E32.73440
G1 X97.842 Y75.765 E32.90097
G1 X99.898 Y75.337 E33.06751
G1 X101.728 Y75.080 E33.21395
G1 X104.076 Y74.916 E33.40061
G1 X106.177 Y74.925 E33.56717
G1 X108.020 Y75.053 E33.71361
G1 X110.351 Y75.381 E33.90025
G1 X112.158 Y75.765 E34.04669
G1 X114.180 Y76.336 E34.21326
G1 X116.393 Y77.141 E34.39990
G1 X118.080 Y77.892 E34.54635
G1 X119.939 Y78.871 E34.71290
G1 X121.726 Y79.977 E34.87945
G1 X123.630 Y81.360 E35.06611
G1 X125.234 Y82.718 E35.23265
G1 X126.563 Y84.001 E35.37910
G1 X127.975 Y85.556 E35.54566
G1 X129.425 Y87.411 E35.73231
G1 X130.457 Y88.943 E35.87875
G1 X131.516 Y90.758 E36.04529
G1 X132.548 Y92.874 E36.23195
G1 X133.326 Y94.825 E36.39851
G1 X133.897 Y96.582 E36.54495
G1 X134.414 Y98.618 E36.71150
G1 X134.823 Y100.937 E36.89815
G1 X135.016 Y102.774 E37.04459
G1 X135.098 Y104.873 E37.21114
G1 X135.016 Y107.226 E37.39780
G1 X134.823 Y109.063 E37.54425
G1 X134.467 Y111.134 E37.71078
G1 X133.967 Y113.174 E37.87735
G1 X133.240 Y115.413 E38.06400
G1 X132.548 Y117.126 E38.21045
G1 X131.635 Y119.018 E38.37700
G1 X130.457 Y121.057 E38.56364
G1 X129.425 Y122.589 E38.71008
G1 X128.138 Y124.250 E38.87665
G1 X126.563 Y125.999 E39.06330
G1 X125.234 Y127.282 E39.20974
G1 X123.630 Y128.640 E39.37629
G1 X121.726 Y130.023 E39.56294
G1 X119.939 Y131.129 E39.72950
G1 X118.308 Y131.996 E39.87594
G1 X116.393 Y132.859 E40.04249
G1 X114.180 Y133.664 E40.22914
G1 X112.158 Y134.235 E40.39570
G1 X110.351 Y134.619 E40.54215
G1 X108.272 Y134.920 E40.70869
G1 X105.924 Y135.084 E40.89534
G1 X104.076 Y135.084 E41.04179
G1 X101.980 Y134.947 E41.20834
G1 X99.649 Y134.619 E41.39498
G1 X97.842 Y134.235 E41.54143
G1 X95.820 Y133.664 E41.70799
G1 X93.607 Y132.859 E41.89464
G1 X91.920 Y132.108 E42.04108
G1 X90.061 Y131.129 E42.20763
G1 X88.274 Y130.023 E42.37419
G1 X86.370 Y128.640 E42.56084
G1 X84.766 Y127.282 E42.72739
G1 X83.437 Y125.999 E42.87383
G1 X82.025 Y124.444 E43.04040
G1 X80.575 Y122.589 E43.22705
G1 X79.542 Y121.057 E43.37349
G1 X78.484 Y119.242 E43.54003
G1 X77.452 Y117.126 E43.72668
G1 X76.674 Y115.175 E43.89324
G1 X76.103 Y113.418 E44.03969
G1 X75.586 Y111.382 E44.20623
G1 X75.177 Y109.063 E44.39288
G1 X74.984 Y107.226 E44.53933
G1 X74.902 Y105.127 E44.70588
G1 X74.984 Y102.774 E44.89254
G1 X75.177 Y100.937 E45.03898
G1 X75.533 Y98.866 E45.20552
G1 X76.033 Y96.826 E45.37208
G1 X76.760 Y94.587 E45.55874
G1 X77.556 Y92.642 E45.72529
G1 X78.365 Y90.982 E45.87173
G1 X79.542 Y88.943 E46.05838
G1 X80.575 Y87.411 E46.20482
G1 X81.862 Y85.750 E46.37138
G1 X83.396 Y84.044 E46.55328
G1 E45.95328 F900.00000
G92 E0
G1 X121.184 Y120.629 F4500.000
G1 E0.65000 F900.00000
G1 F1920
G1 X120.054 Y121.720 E0.77450
G1 X118.851 Y122.729 E0.89900
G1 X117.581 Y123.652 E1.02349
G1 X116.249 Y124.484 E1.14798
G1 X114.863 Y125.222 E1.27248
G1 X113.428 Y125.860 E1.39698
G1 X111.952 Y126.397 E1.52147
G1 X110.443 Y126.830 E1.64597
G1 X108.907 Y127.157 E1.77046
G1 X107.348 Y127.376 E1.89526
G1 X105.420 Y127.496 E2.04841
G1 X105.420 Y127.548 E2.05255
G1 X105.000 Y127.522 E2.08590
G1 X104.580 Y127.548 E2.11926
G1 X104.580 Y127.496 E2.12340
G1 X102.652 Y127.376 E2.27655
G1 X101.093 Y127.157 E2.40135
G1 X99.557 Y126.830 E2.52584
G1 X98.048 Y126.397 E2.65034
G1 X96.572 Y125.860 E2.77483
G1 X95.137 Y125.222 E2.89933
G1 X93.751 Y124.484 E3.02383
G1 X92.419 Y123.652 E3.14832
G1 X91.149 Y122.729 E3.27281
G1 X89.946 Y121.720 E3.39731
G1 X88.816 Y120.629 E3.52181
G1 X87.108 Y118.732 E3.72419
G1 X87.161 Y118.689 E3.72963
G1 X86.798 Y118.224 E3.77637
G1 X85.920 Y116.922 E3.90087
G1 X85.135 Y115.562 E4.02536
G1 X84.447 Y114.151 E4.14986
G1 X83.858 Y112.695 E4.27435
G1 X83.373 Y111.201 E4.39885
G1 X82.993 Y109.678 E4.52334
G1 X82.720 Y108.131 E4.64784
G1 X82.556 Y106.569 E4.77234
G1 X82.502 Y105.000 E4.89683
G1 X82.556 Y103.430 E5.02135
G1 X82.723 Y101.853 E5.14705
G1 X83.125 Y99.576 E5.33036
G1 X83.176 Y99.588 E5.33454
G1 X83.373 Y98.799 E5.39905
G1 X83.858 Y97.305 E5.52355
G1 X84.447 Y95.849 E5.64804
G1 X85.135 Y94.438 E5.77254
G1 X85.920 Y93.078 E5.89703
G1 X86.798 Y91.776 E6.02153
G1 X87.765 Y90.538 E6.14603
G1 X88.816 Y89.371 E6.27052
G1 X89.946 Y88.280 E6.39502
G1 X91.149 Y87.271 E6.51952
G1 X92.419 Y86.348 E6.64401
G1 X93.751 Y85.516 E6.76850
G1 X94.865 Y84.923 E6.86858
G1 X94.856 Y84.904 E6.87029
G1 X95.137 Y84.779 E6.89463
G1 X95.608 Y84.528 E6.93691
G1 X95.624 Y84.562 E6.93987
G1 X96.572 Y84.140 E7.02216
G1 X98.048 Y83.603 E7.14665
G1 X99.557 Y83.170 E7.27115
G1 X101.093 Y82.843 E7.39564
G1 X102.648 Y82.625 E7.52014
G1 X104.215 Y82.515 E7.64464
G1 X105.785 Y82.515 E7.76913
G1 X107.352 Y82.625 E7.89363
G1 X108.907 Y82.843 E8.01812
G1 X110.443 Y83.170 E8.14262
G1 X111.952 Y83.603 E8.26711
G1 X113.428 Y84.140 E8.39161
G1 X114.376 Y84.562 E8.47390
G1 X114.392 Y84.528 E8.47685
G1 X114.863 Y84.779 E8.51913
G1 X115.144 Y84.904 E8.54348
G1 X115.135 Y84.923 E8.54518
G1 X116.249 Y85.516 E8.64526
G1 X117.581 Y86.348 E8.76976
G1 X118.836 Y87.260 E8.89277
G1 X120.054 Y88.280 E9.01871
G1 X121.184 Y89.371 E9.14324
G1 X122.235 Y90.538 E9.26773
G1 X123.202 Y91.776 E9.39223
G1 X124.080 Y93.078 E9.51673
G1 X124.865 Y94.438 E9.64122
G1 X125.553 Y95.849 E9.76572
G1 X126.142 Y97.305 E9.89021
G1 X126.627 Y98.799 E10.01471
G1 X126.824 Y99.588 E10.07922
G1 X126.875 Y99.576 E10.08340
G1 X127.280 Y101.869 E10.26794
G1 X127.444 Y103.431 E10.39244
G1 X127.498 Y105.000 E10.51693
G1 X127.444 Y106.569 E10.64143
G1 X127.280 Y108.131 E10.76592
G1 X127.007 Y109.678 E10.89042
G1 X126.627 Y111.201 E11.01491
G1 X126.142 Y112.695 E11.13941
G1 X125.553 Y114.151 E11.26391
G1 X124.865 Y115.562 E11.38840
G1 X124.080 Y116.922 E11.51290
G1 X123.202 Y118.224 E11.63740
G1 X122.839 Y118.689 E11.68413
G1 X122.892 Y118.732 E11.68957
G1 X121.224 Y120.584 E11.88720
G1 X121.968 Y118.808 F4500.000
G1 F1440
G1 X120.727 Y120.187 E12.03433
G1 X119.629 Y121.247 E12.15530
G1 X118.460 Y122.228 E12.27629
G1 X117.225 Y123.125 E12.39725
G1 X115.931 Y123.933 E12.51823
G1 X114.584 Y124.650 E12.63921
G1 X113.190 Y125.271 E12.76019
G1 X111.756 Y125.792 E12.88116
G1 X110.289 Y126.213 E13.00214
G1 X108.796 Y126.530 E13.12311
G1 X107.284 Y126.743 E13.24420
G1 X105.216 Y126.872 E13.40848
G1 X105.216 Y119.662 E13.98007
G1 X106.531 Y119.570 E14.08463
G1 X107.544 Y119.427 E14.16569
G1 X108.544 Y119.215 E14.24676
G1 X109.527 Y118.933 E14.32783
G1 X110.488 Y118.583 E14.40889
G1 X111.422 Y118.167 E14.48995
G1 X112.325 Y117.687 E14.57102
G1 X113.192 Y117.145 E14.65208
G1 X114.019 Y116.544 E14.73315
G1 X114.803 Y115.887 E14.81421
G1 X115.544 Y115.170 E14.89595
G1 X116.323 Y114.305 E14.98822
G1 X121.921 Y118.770 E15.55595
G1 X122.284 Y119.053 F4500.000
G1 X122.216 Y118.453 F4500.000
G1 F1440
G1 X116.597 Y113.972 E16.12574
G1 X117.424 Y112.762 E16.24195
G1 X117.935 Y111.878 E16.32293
G1 X118.383 Y110.959 E16.40399
G1 X118.770 Y110.001 E16.48588
G1 X119.082 Y109.038 E16.56612
G1 X119.330 Y108.046 E16.64719
G1 X119.507 Y107.039 E16.72825
G1 X119.614 Y106.022 E16.80932
G1 X119.650 Y105.000 E16.89038
G1 X119.614 Y103.978 E16.97145
G1 X119.507 Y102.961 E17.05251
G1 X119.329 Y101.951 E17.13385
G1 X126.365 Y100.345 E17.70601
G1 X126.650 Y101.957 E17.83583
G1 X126.809 Y103.475 E17.95680
G1 X126.862 Y105.000 E18.07778
G1 X126.809 Y106.525 E18.19875
G1 X126.650 Y108.043 E18.31973
G1 X126.385 Y109.545 E18.44071
G1 X126.016 Y111.026 E18.56168
G1 X125.544 Y112.477 E18.68266
G1 X124.972 Y113.892 E18.80363
G1 X124.303 Y115.264 E18.92461
G1 X123.540 Y116.585 E19.04559
G1 X122.687 Y117.850 E19.16656
G1 X122.253 Y118.406 E19.22247
G1 X121.972 Y118.771 F4500.000
G1 E18.62247 F900.00000
G92 E0
G1 X119.224 Y101.532 F4500.000
G1 E0.65000 F900.00000
G1 F1440
G1 X119.082 Y100.962 E0.69659
G1 X118.766 Y99.989 E0.77765
G1 X118.383 Y99.041 E0.85871
G1 X117.935 Y98.122 E0.93978
G1 X117.424 Y97.237 E1.02084
G1 X116.852 Y96.389 E1.10191
G1 X116.222 Y95.583 E1.18297
G1 X115.538 Y94.823 E1.26404
G1 X114.803 Y94.113 E1.34510
G1 X114.019 Y93.456 E1.42617
G1 X113.192 Y92.855 E1.50724
G1 X112.325 Y92.313 E1.58830
G1 X111.548 Y91.900 E1.65805
G1 X114.678 Y85.400 E2.22996
G1 X115.931 Y86.067 E2.34247
G1 X117.225 Y86.875 E2.46345
G1 X118.445 Y87.761 E2.58297
G1 X119.629 Y88.753 E2.70539
G1 X120.727 Y89.813 E2.82638
G1 X121.748 Y90.947 E2.94735
G1 X122.687 Y92.150 E3.06833
G1 X123.540 Y93.415 E3.18931
G1 X124.303 Y94.736 E3.31028
G1 X124.972 Y96.108 E3.43126
G1 X125.544 Y97.523 E3.55223
G1 X126.016 Y98.974 E3.67321
G1 X126.253 Y99.928 E3.75115
G1 X119.283 Y101.519 E4.31797
G1 X118.840 Y101.644 F4500.000
G1 X117.742 Y102.232 F4500.000
G1 F1440
G1 X117.852 Y102.733 E4.35861
G1 X117.979 Y103.636 E4.43091
G1 X118.042 Y104.543 E4.50300
G1 X118.048 Y105.228 E4.55729
G1 X118.018 Y105.914 E4.61175
G1 X117.923 Y106.816 E4.68367
G1 X117.771 Y107.675 E4.75283
G1 X117.608 Y108.053 E4.78547
G1 X117.472 Y108.245 E4.80408
G1 X117.251 Y108.464 E4.82882
G1 X117.063 Y108.595 E4.84695
G1 X116.779 Y108.725 E4.87170
G1 X116.558 Y108.783 E4.88982
G1 X116.262 Y108.807 E4.91331
G1 X116.000 Y108.806 E4.93410
G1 X115.740 Y108.728 E4.95562
G1 X115.473 Y108.740 E4.97680
G1 X115.315 Y108.813 E4.99061
G1 X115.191 Y108.954 E5.00549
G1 X114.820 Y109.789 E5.07799
G1 X114.462 Y110.463 E5.13845
G1 X114.057 Y111.110 E5.19897
G1 X113.549 Y111.803 E5.26705
G1 X113.475 Y111.966 E5.28133
G1 X113.462 Y112.127 E5.29407
G1 X113.490 Y112.243 E5.30356
G1 X113.596 Y112.434 E5.32086
G1 X113.659 Y112.512 E5.32882
G1 X113.797 Y112.624 E5.34291
G1 X113.973 Y112.929 E5.37082
G1 X114.059 Y113.129 E5.38812
G1 X114.132 Y113.439 E5.41335
G1 X114.140 Y113.764 E5.43907
G1 X114.080 Y114.082 E5.46479
G1 X113.954 Y114.382 E5.49051
G1 X113.767 Y114.653 E5.51670
G1 X113.217 Y115.139 E5.57484
