; generated by Slic3r 1.3.1-dev on 2019-10-26 at 12:57:57

; Print Config Notes: 
; DMF_3D_0.3mmThin222HC25%
; 
; external perimeters extrusion width = 0.60mm (4.82mm^3/s)
; perimeters extrusion width = 0.54mm (5.71mm^3/s)
; infill extrusion width = 0.70mm (7.63mm^3/s)
; solid infill extrusion width = 0.51mm (5.35mm^3/s)
; top infill extrusion width = 0.51mm (5.35mm^3/s)

M190 S90 ; set bed temperature and wait for it to be reached
M104 S250 ; set temperature
G28 ; home all axes
; Filament gcode

M109 S250 ; set temperature and wait for it to be reached
G21 ; set units to millimeters
G90 ; use absolute coordinates
M82 ; use absolute distances for extrusion
G92 E0
G1 Z0.300 F4500.000
G1 E-0.60000 F900.00000
G92 E0
G1 X76.613 Y61.450 F4500.000
G1 E0.65000 F900.00000
G1 F1920
G1 X78.283 Y60.403 E0.80627
G1 X80.000 Y60.093 E0.94456
G1 X170.000 Y60.093 E8.07958
G1 X171.931 Y60.489 E8.23585
G1 X173.550 Y61.613 E8.39212
G1 X174.597 Y63.283 E8.54839
G1 X174.907 Y65.000 E8.68668
G1 X174.907 Y155.000 E15.82169
G1 X174.511 Y156.931 E15.97796
G1 X173.387 Y158.550 E16.13423
G1 X171.717 Y159.597 E16.29050
G1 X170.000 Y159.907 E16.42879
G1 X80.000 Y159.907 E23.56381
G1 X78.069 Y159.511 E23.72008
G1 X76.450 Y158.387 E23.87635
G1 X75.403 Y156.717 E24.03262
G1 X75.093 Y155.000 E24.17091
G1 X75.093 Y65.000 E31.30592
G1 X75.489 Y63.069 E31.46219
G1 X76.579 Y61.499 E31.61371
G1 X77.237 Y61.743 F4500.000
G1 F1920
G1 X78.861 Y60.883 E31.75939
G1 X80.000 Y60.729 E31.85051
G1 X170.000 Y60.729 E38.98553
G1 X171.795 Y61.124 E39.13121
G1 X173.257 Y62.237 E39.27690
G1 X174.117 Y63.861 E39.42258
G1 X174.271 Y65.000 E39.51370
G1 X174.271 Y155.000 E46.64872
G1 X173.876 Y156.795 E46.79440
G1 X172.763 Y158.257 E46.94009
G1 X171.139 Y159.117 E47.08577
G1 X170.000 Y159.271 E47.17689
G1 X80.000 Y159.271 E54.31191
G1 X78.205 Y158.876 E54.45759
G1 X76.743 Y157.763 E54.60328
G1 X75.883 Y156.139 E54.74897
G1 X75.729 Y155.000 E54.84008
G1 X75.729 Y65.000 E61.97510
G1 X76.124 Y63.205 E62.12079
G1 X77.201 Y61.791 E62.26172
G1 X77.857 Y62.063 F4500.000
G1 F1920
G1 X80.000 Y61.364 E62.44043
G1 X170.000 Y61.364 E69.57545
G1 X171.647 Y61.759 E69.70972
G1 X172.937 Y62.857 E69.84399
G1 X173.636 Y65.000 E70.02271
G1 X173.636 Y155.000 E77.15772
G1 X173.241 Y156.647 E77.29199
G1 X172.143 Y157.937 E77.42626
G1 X170.000 Y158.636 E77.60498
G1 X80.000 Y158.636 E84.74000
G1 X78.353 Y158.241 E84.87427
G1 X77.063 Y157.143 E85.00854
G1 X76.364 Y155.000 E85.18726
G1 X76.364 Y65.000 E92.32227
G1 X76.759 Y63.353 E92.45654
G1 X77.818 Y62.109 E92.58606
G1 E91.98606 F900.00000
G92 E0
G1 X168.350 Y128.659 F4500.000
G1 E0.65000 F900.00000
G1 F1440
G1 X168.350 Y140.017 E1.55043
G1 X165.300 Y141.237 E1.81086
G1 X165.300 Y148.763 E2.40751
G1 X168.350 Y149.983 E2.66793
G1 X168.350 Y153.350 E2.93486
G1 X164.983 Y153.350 E3.20179
G1 X163.763 Y150.300 E3.46221
G1 X156.237 Y150.300 E4.05886
G1 X155.017 Y153.350 E4.31929
G1 X143.659 Y153.350 E5.21972
G1 X132.082 Y125.400 E7.61810
G1 X133.469 Y124.668 E7.74246
G1 X134.471 Y124.042 E7.83614
G1 X135.428 Y123.347 E7.92986
G1 X136.333 Y122.587 E8.02359
G1 X137.184 Y121.766 E8.11731
G1 X137.975 Y120.887 E8.21103
G1 X138.703 Y119.955 E8.30476
G1 X139.364 Y118.975 E8.39848
G1 X139.955 Y117.952 E8.49220
G1 X140.382 Y117.075 E8.56956
G1 X168.295 Y128.636 E10.96470
G1 X168.747 Y128.708 F4500.000
G1 X168.350 Y127.253 F4500.000
G1 F1440
G1 X140.888 Y115.878 E13.32119
G1 X141.281 Y114.669 E13.42202
G1 X141.567 Y113.521 E13.51575
G1 X141.772 Y112.357 E13.60947
G1 X141.896 Y111.181 E13.70319
G1 X141.937 Y110.000 E13.79692
G1 X141.896 Y108.819 E13.89064
G1 X141.772 Y107.643 E13.98436
G1 X141.567 Y106.479 E14.07809
G1 X141.281 Y105.331 E14.17181
G1 X140.888 Y104.122 E14.27264
G1 X168.350 Y92.747 E16.62914
G1 X168.350 Y127.193 E19.36000
G1 X168.292 Y127.649 F4500.000
G1 E18.76000 F900.00000
G92 E0
G1 X169.014 Y79.564 F4500.000
G1 E0.65000 F900.00000
G1 F720
G1 X165.936 Y78.333 E0.91288
G1 X165.936 Y71.667 E1.44130
G1 X169.014 Y70.436 E1.70418
G1 X169.014 Y79.504 E2.42311
G1 E1.82311 F900.00000
G92 E0
G1 X163.333 Y69.064 F4500.000
G1 E0.65000 F900.00000
G1 F720
G1 X156.667 Y69.064 E1.17842
G1 X155.436 Y65.986 E1.44130
G1 X164.564 Y65.986 E2.16498
G1 X163.355 Y69.009 E2.42311
G1 X164.983 Y66.650 F4500.000
G1 F1440
G1 X168.350 Y66.650 E2.69003
G1 X168.350 Y70.017 E2.95696
G1 X165.300 Y71.237 E3.21738
G1 X165.300 Y78.763 E3.81403
G1 X168.350 Y79.983 E4.07446
G1 X168.350 Y91.341 E4.97489
G1 X140.382 Y102.925 E7.37478
G1 X139.955 Y102.048 E7.45214
G1 X139.364 Y101.025 E7.54586
G1 X138.703 Y100.045 E7.63958
G1 X137.975 Y99.113 E7.73331
G1 X137.184 Y98.234 E7.82703
G1 X136.333 Y97.413 E7.92075
G1 X135.428 Y96.653 E8.01448
G1 X134.471 Y95.958 E8.10820
G1 X133.469 Y95.332 E8.20188
G1 X132.082 Y94.600 E8.32624
G1 X143.659 Y66.650 E10.72462
G1 X155.017 Y66.650 E11.62506
G1 X156.237 Y69.700 E11.88548
G1 X163.763 Y69.700 E12.48213
G1 X164.961 Y66.706 E12.73780
G1 X165.143 Y66.283 F4500.000
G1 E12.13780 F900.00000
G92 E0
G1 X135.220 Y98.649 F4500.000
G1 E0.65000 F900.00000
G1 F1920
G1 X135.987 Y99.390 E0.73452
G1 X136.700 Y100.182 E0.81904
G1 X137.357 Y101.023 E0.90361
G1 X137.963 Y101.923 E0.98961
G1 X138.486 Y102.829 E1.07259
G1 X138.953 Y103.788 E1.15710
G1 X139.353 Y104.776 E1.24162
G1 X139.682 Y105.790 E1.32614
G1 X139.940 Y106.824 E1.41065
G1 X140.125 Y107.874 E1.49518
G1 X140.237 Y108.935 E1.57974
G1 X140.273 Y110.019 E1.66575
G1 X140.237 Y111.065 E1.74872
G1 X140.125 Y112.126 E1.83324
G1 X139.940 Y113.176 E1.91776
G1 X139.682 Y114.210 E2.00228
G1 X139.353 Y115.224 E2.08679
G1 X138.953 Y116.212 E2.17131
G1 X138.486 Y117.171 E2.25583
G1 X137.953 Y118.094 E2.34035
G1 X137.357 Y118.978 E2.42486
G1 X136.700 Y119.818 E2.50938
G1 X135.987 Y120.610 E2.59390
G1 X135.220 Y121.351 E2.67842
G1 X134.403 Y122.036 E2.76293
G1 X133.541 Y122.663 E2.84745
G1 X132.637 Y123.227 E2.93197
G1 X131.696 Y123.728 E3.01648
G1 X130.722 Y124.162 E3.10100
G1 X129.720 Y124.526 E3.18552
G1 X128.695 Y124.820 E3.27004
G1 X127.652 Y125.042 E3.35456
G1 X126.597 Y125.190 E3.43907
G1 X125.533 Y125.264 E3.52359
G1 X124.467 Y125.264 E3.60811
G1 X123.403 Y125.190 E3.69263
G1 X122.348 Y125.042 E3.77714
G1 X121.305 Y124.820 E3.86166
G1 X120.280 Y124.526 E3.94618
G1 X119.278 Y124.162 E4.03069
G1 X118.304 Y123.728 E4.11521
G1 X117.363 Y123.227 E4.19973
G1 X116.459 Y122.663 E4.28424
G1 X115.597 Y122.036 E4.36876
G1 X114.780 Y121.351 E4.45328
G1 X114.013 Y120.610 E4.53780
G1 X113.300 Y119.818 E4.62232
G1 X112.643 Y118.978 E4.70683
G1 X112.047 Y118.094 E4.79135
G1 X111.514 Y117.171 E4.87587
G1 X111.047 Y116.212 E4.96038
G1 X110.647 Y115.224 E5.04491
G1 X110.318 Y114.210 E5.12942
G1 X110.060 Y113.176 E5.21394
G1 X109.875 Y112.125 E5.29851
G1 X109.763 Y111.046 E5.38452
G1 X109.726 Y110.000 E5.46749
G1 X109.763 Y108.935 E5.55200
G1 X109.875 Y107.874 E5.63652
G1 X110.060 Y106.824 E5.72104
G1 X110.318 Y105.790 E5.80556
G1 X110.648 Y104.775 E5.89012
G1 X111.055 Y103.770 E5.97613
G1 X111.514 Y102.829 E6.05911
G1 X112.047 Y101.906 E6.14362
G1 X112.643 Y101.022 E6.22814
G1 X113.300 Y100.182 E6.31265
G1 X114.013 Y99.390 E6.39718
G1 X114.780 Y98.649 E6.48170
G1 X115.597 Y97.964 E6.56621
G1 X116.459 Y97.337 E6.65073
G1 X117.363 Y96.773 E6.73525
G1 X118.304 Y96.272 E6.81976
G1 X119.278 Y95.838 E6.90428
G1 X120.280 Y95.474 E6.98880
G1 X121.305 Y95.180 E7.07332
G1 X122.348 Y94.958 E7.15783
G1 X123.384 Y94.813 E7.24080
G1 X124.466 Y94.736 E7.32681
G1 X125.533 Y94.736 E7.41138
G1 X126.597 Y94.810 E7.49590
G1 X127.652 Y94.958 E7.58042
G1 X128.695 Y95.180 E7.66493
G1 X129.720 Y95.474 E7.74945
G1 X130.722 Y95.838 E7.83397
G1 X131.696 Y96.272 E7.91849
G1 X132.637 Y96.773 E8.00300
G1 X133.541 Y97.337 E8.08752
G1 X134.403 Y97.964 E8.17204
G1 X135.174 Y98.611 E8.25180
G1 X134.795 Y99.122 F4500.000
G1 F1440
G1 X135.530 Y99.832 E8.33280
G1 X136.213 Y100.591 E8.41380
G1 X136.842 Y101.396 E8.49481
G1 X137.423 Y102.260 E8.57730
G1 X137.924 Y103.128 E8.65678
G1 X138.372 Y104.046 E8.73778
G1 X138.755 Y104.994 E8.81878
G1 X139.071 Y105.965 E8.89978
G1 X139.318 Y106.957 E8.98078
G1 X139.495 Y107.963 E9.06178
G1 X139.602 Y108.979 E9.14279
G1 X139.637 Y110.019 E9.22528
G1 X139.602 Y111.021 E9.30477
G1 X139.495 Y112.037 E9.38576
G1 X139.318 Y113.043 E9.46676
G1 X139.071 Y114.035 E9.54776
G1 X138.755 Y115.006 E9.62876
G1 X138.372 Y115.954 E9.70976
G1 X137.924 Y116.872 E9.79076
G1 X137.413 Y117.757 E9.87175
G1 X136.842 Y118.604 E9.95275
G1 X136.213 Y119.409 E10.03375
G1 X135.530 Y120.168 E10.11475
G1 X134.795 Y120.878 E10.19575
G1 X134.012 Y121.535 E10.27674
G1 X133.185 Y122.135 E10.35774
G1 X132.319 Y122.677 E10.43874
G1 X131.417 Y123.156 E10.51974
G1 X130.483 Y123.572 E10.60074
G1 X129.523 Y123.921 E10.68173
G1 X128.541 Y124.203 E10.76273
G1 X127.542 Y124.415 E10.84373
G1 X126.530 Y124.557 E10.92473
G1 X125.511 Y124.629 E11.00573
G1 X124.489 Y124.629 E11.08673
G1 X123.470 Y124.557 E11.16772
G1 X122.458 Y124.415 E11.24872
G1 X121.459 Y124.203 E11.32972
G1 X120.477 Y123.921 E11.41072
G1 X119.517 Y123.572 E11.49172
G1 X118.583 Y123.156 E11.57271
G1 X117.681 Y122.677 E11.65371
G1 X116.815 Y122.135 E11.73471
G1 X115.988 Y121.535 E11.81571
G1 X115.205 Y120.878 E11.89670
G1 X114.470 Y120.168 E11.97770
G1 X113.787 Y119.409 E12.05870
G1 X113.158 Y118.604 E12.13970
G1 X112.587 Y117.757 E12.22070
G1 X112.076 Y116.872 E12.30170
G1 X111.628 Y115.954 E12.38269
G1 X111.245 Y115.006 E12.46369
G1 X110.929 Y114.035 E12.54469
G1 X110.682 Y113.043 E12.62569
G1 X110.505 Y112.037 E12.70671
G1 X110.397 Y111.002 E12.78919
G1 X110.362 Y110.000 E12.86868
G1 X110.398 Y108.979 E12.94968
G1 X110.505 Y107.963 E13.03067
G1 X110.682 Y106.957 E13.11167
G1 X110.929 Y105.965 E13.19267
G1 X111.245 Y104.993 E13.27369
G1 X111.636 Y104.029 E13.35618
G1 X112.076 Y103.128 E13.43566
G1 X112.587 Y102.243 E13.51666
G1 X113.158 Y101.396 E13.59766
G1 X113.787 Y100.591 E13.67865
G1 X114.470 Y99.832 E13.75965
G1 X115.205 Y99.122 E13.84065
G1 X115.988 Y98.465 E13.92165
G1 X116.815 Y97.865 E14.00265
G1 X117.681 Y97.323 E14.08365
G1 X118.583 Y96.844 E14.16465
G1 X119.517 Y96.428 E14.24564
G1 X120.477 Y96.079 E14.32664
G1 X121.459 Y95.797 E14.40764
G1 X122.458 Y95.585 E14.48864
G1 X123.451 Y95.445 E14.56812
G1 X124.489 Y95.371 E14.65061
G1 X125.511 Y95.371 E14.73163
G1 X126.530 Y95.443 E14.81263
G1 X127.542 Y95.585 E14.89362
G1 X128.541 Y95.797 E14.97462
G1 X129.523 Y96.079 E15.05562
G1 X130.483 Y96.428 E15.13662
G1 X131.417 Y96.844 E15.21762
G1 X132.319 Y97.323 E15.29861
G1 X133.185 Y97.865 E15.37961
G1 X134.012 Y98.465 E15.46061
G1 X134.749 Y99.083 E15.53685
G1 X134.795 Y99.122 F4500.000
G1 X135.863 Y97.848 F4500.000
G1 F1920
G1 X136.726 Y98.676 E15.63165
G1 X137.488 Y99.522 E15.72186
G1 X138.188 Y100.418 E15.81206
G1 X138.824 Y101.362 E15.90226
G1 X139.393 Y102.347 E15.99247
G1 X140.142 Y103.884 E16.12800
G1 X140.670 Y105.507 E16.26329
G1 X140.945 Y106.611 E16.35350
G1 X141.143 Y107.731 E16.44371
G1 X141.262 Y108.863 E16.53391
G1 X141.301 Y110.000 E16.62411
G1 X141.262 Y111.137 E16.71431
G1 X141.143 Y112.269 E16.80452
G1 X140.945 Y113.389 E16.89472
G1 X140.670 Y114.493 E16.98493
G1 X140.142 Y116.116 E17.12022
G1 X139.393 Y117.653 E17.25576
G1 X138.824 Y118.638 E17.34596
G1 X138.188 Y119.582 E17.43616
G1 X137.488 Y120.478 E17.52637
G1 X136.726 Y121.324 E17.61657
G1 X135.908 Y122.114 E17.70677
G1 X135.036 Y122.846 E17.79698
G1 X134.116 Y123.514 E17.88718
G1 X133.152 Y124.117 E17.97726
G1 X131.248 Y125.121 E18.14789
G1 X131.227 Y125.070 E18.15225
G1 X130.037 Y125.503 E18.25265
G1 X128.944 Y125.817 E18.34285
G1 X127.831 Y126.054 E18.43306
G1 X126.704 Y126.212 E18.52326
G1 X125.569 Y126.291 E18.61346
G1 X124.431 Y126.291 E18.70367
G1 X123.296 Y126.212 E18.79387
G1 X122.169 Y126.054 E18.88407
G1 X121.056 Y125.817 E18.97428
G1 X119.963 Y125.503 E19.06448
G1 X118.773 Y125.070 E19.16488
G1 X118.752 Y125.121 E19.16924
G1 X116.848 Y124.117 E19.33987
G1 X115.884 Y123.514 E19.42995
G1 X114.964 Y122.846 E19.52015
G1 X114.092 Y122.114 E19.61036
G1 X113.274 Y121.324 E19.70056
G1 X112.512 Y120.478 E19.79076
G1 X111.812 Y119.582 E19.88097
G1 X111.176 Y118.638 E19.97117
G1 X110.607 Y117.653 E20.06137
G1 X109.858 Y116.116 E20.19691
G1 X109.330 Y114.493 E20.33220
G1 X109.055 Y113.389 E20.42241
G1 X108.857 Y112.269 E20.51261
G1 X108.738 Y111.137 E20.60281
G1 X108.699 Y110.000 E20.69302
G1 X108.738 Y108.863 E20.78322
G1 X108.857 Y107.731 E20.87342
G1 X109.055 Y106.611 E20.96363
G1 X109.330 Y105.507 E21.05384
G1 X109.858 Y103.884 E21.18913
G1 X110.607 Y102.347 E21.32466
G1 X111.176 Y101.362 E21.41487
G1 X111.812 Y100.418 E21.50507
G1 X112.512 Y99.522 E21.59527
G1 X113.274 Y98.676 E21.68548
G1 X114.092 Y97.886 E21.77568
G1 X114.964 Y97.154 E21.86589
G1 X115.884 Y96.486 E21.95609
G1 X116.848 Y95.883 E22.04617
G1 X118.752 Y94.879 E22.21680
G1 X118.773 Y94.930 E22.22116
G1 X119.963 Y94.497 E22.32156
G1 X121.056 Y94.183 E22.41176
G1 X122.169 Y93.946 E22.50196
G1 X123.296 Y93.788 E22.59217
G1 X124.431 Y93.709 E22.68237
G1 X125.569 Y93.709 E22.77257
G1 X126.704 Y93.788 E22.86278
G1 X127.831 Y93.946 E22.95298
G1 X128.944 Y94.183 E23.04318
G1 X130.037 Y94.497 E23.13339
G1 X131.227 Y94.930 E23.23379
G1 X131.248 Y94.879 E23.23815
G1 X133.152 Y95.883 E23.40878
G1 X134.116 Y96.486 E23.49886
G1 X135.036 Y97.154 E23.58906
G1 X135.817 Y97.810 E23.66990
G1 E23.06990 F900.00000
G92 E0
G1 X130.873 Y94.124 F4500.000
G1 E0.65000 F900.00000
G1 F1440
G1 X130.234 Y93.892 E0.70392
G1 X129.097 Y93.566 E0.79764
G1 X127.941 Y93.320 E0.89137
G1 X126.770 Y93.155 E0.98509
G1 X125.591 Y93.073 E1.07881
G1 X124.409 Y93.073 E1.17253
G1 X123.230 Y93.155 E1.26626
G1 X122.059 Y93.320 E1.35998
G1 X120.903 Y93.566 E1.45370
G1 X119.766 Y93.892 E1.54743
G1 X119.127 Y94.124 E1.60135
G1 X107.747 Y66.650 E3.95891
G1 X142.253 Y66.650 E6.69453
G1 X130.896 Y94.069 E9.04733
G1 X130.873 Y94.524 F4500.000
G1 E8.44733 F900.00000
G92 E0
G1 X117.918 Y94.600 F4500.000
G1 E0.65000 F900.00000
G1 F1440
G1 X116.531 Y95.332 E0.77436
G1 X115.529 Y95.958 E0.86804
G1 X114.572 Y96.653 E0.96176
G1 X113.667 Y97.413 E1.05549
G1 X112.816 Y98.234 E1.14921
G1 X112.025 Y99.113 E1.24293
G1 X111.297 Y100.045 E1.33666
G1 X110.636 Y101.025 E1.43038
G1 X110.045 Y102.048 E1.52410
G1 X109.618 Y102.925 E1.60146
G1 X81.650 Y91.341 E4.00135
G1 X81.650 Y79.983 E4.90178
G1 X84.700 Y78.763 E5.16221
G1 X84.700 Y71.237 E5.75886
G1 X81.650 Y70.017 E6.01928
G1 X81.650 Y66.650 E6.28621
G1 X85.017 Y66.650 E6.55314
G1 X86.237 Y69.700 E6.81356
G1 X93.763 Y69.700 E7.41021
G1 X94.983 Y66.650 E7.67064
G1 X106.341 Y66.650 E8.57107
G1 X117.895 Y94.545 E10.96469
G1 X118.128 Y94.940 F4500.000
G1 E10.36469 F900.00000
G92 E0
G1 X93.333 Y69.064 F4500.000
G1 E0.65000 F900.00000
G1 F720
G1 X86.667 Y69.064 E1.17842
G1 X85.436 Y65.986 E1.44130
G1 X94.564 Y65.986 E2.16498
G1 X93.355 Y69.009 E2.42311
G1 E1.82311 F900.00000
G92 E0
G1 X84.064 Y71.667 F4500.000
G1 E0.65000 F900.00000
G1 F720
G1 X84.064 Y78.333 E1.17842
G1 X80.986 Y79.564 E1.44130
G1 X80.986 Y70.436 E2.16498
G1 X84.009 Y71.645 E2.42311
G1 E1.82311 F900.00000
G92 E0
G1 X109.618 Y117.075 F4500.000
G1 E0.65000 F900.00000
G1 F1440
G1 X110.045 Y117.952 E0.72736
G1 X110.636 Y118.975 E0.82108
G1 X111.297 Y119.955 E0.91480
G1 X112.025 Y120.887 E1.00853
G1 X112.816 Y121.766 E1.10225
G1 X113.667 Y122.587 E1.19597
G1 X114.572 Y123.347 E1.28970
G1 X115.529 Y124.042 E1.38342
G1 X116.531 Y124.668 E1.47710
G1 X117.918 Y125.400 E1.60146
G1 X106.341 Y153.350 E3.99984
G1 X94.983 Y153.350 E4.90027
G1 X93.763 Y150.300 E5.16070
G1 X86.237 Y150.300 E5.75735
G1 X85.017 Y153.350 E6.01777
G1 X81.650 Y153.350 E6.28470
G1 X81.650 Y149.983 E6.55163
G1 X84.700 Y148.763 E6.81205
G1 X84.700 Y141.237 E7.40870
G1 X81.650 Y140.017 E7.66913
G1 X81.650 Y128.659 E8.56956
G1 X109.562 Y117.097 E10.96470
G1 X109.981 Y116.907 F4500.000
G1 X109.112 Y115.878 F4500.000
G1 F1440
G1 X81.650 Y127.253 E13.32119
G1 X81.650 Y92.747 E16.05681
G1 X109.112 Y104.122 E18.41331
G1 X108.719 Y105.331 E18.51414
G1 X108.433 Y106.479 E18.60786
G1 X108.228 Y107.643 E18.70158
G1 X108.104 Y108.819 E18.79531
G1 X108.063 Y110.000 E18.88903
G1 X108.104 Y111.181 E18.98275
G1 X108.228 Y112.357 E19.07647
