; generated by Slic3r 1.3.1-dev on 2019-10-20 at 12:37:33

; Print Config Notes: 
; DMF_3D_0.3mmThin333HC30%PETGear
; 
; external perimeters extrusion width = 0.66mm (2.68mm^3/s)
; perimeters extrusion width = 0.54mm (2.85mm^3/s)
; infill extrusion width = 0.90mm (7.52mm^3/s)
; solid infill extrusion width = 0.51mm (4.01mm^3/s)
; top infill extrusion width = 0.51mm (4.01mm^3/s)

M190 S90 ; set bed temperature and wait for it to be reached
M104 S250 ; set temperature
G28 ; home all axes
; Filament gcode

M109 S250 ; set temperature and wait for it to be reached
G21 ; set units to millimeters
G90 ; use absolute coordinates
M82 ; use absolute distances for extrusion
G92 E0
G1 Z0.300 F3000.000
G1 E-0.60000 F900.00000
G92 E0
G1 X63.674 Y63.447 F3000.000
G1 E0.65000 F900.00000
G1 F1440
G1 X64.338 Y62.870 E0.70878
G1 X64.824 Y62.516 E0.74892
G1 X65.613 Y62.042 E0.81044
G1 X66.154 Y61.779 E0.85060
G1 X101.610 Y47.090 E3.41448
G1 X102.475 Y46.773 E3.47601
G1 X103.368 Y46.551 E3.53750
G1 X104.239 Y46.428 E3.59627
G1 X105.160 Y46.396 E3.65782
G1 X105.761 Y46.428 E3.69801
G1 X106.632 Y46.551 E3.75678
G1 X107.525 Y46.773 E3.81827
G1 X108.094 Y46.970 E3.85849
G1 X143.552 Y61.654 E6.42235
G1 X144.386 Y62.042 E6.48383
G1 X145.176 Y62.516 E6.54536
G1 X145.879 Y63.045 E6.60414
G1 X146.553 Y63.675 E6.66576
G1 X147.122 Y64.328 E6.72360
G1 X147.484 Y64.824 E6.76466
G1 X147.958 Y65.614 E6.82619
G1 X148.221 Y66.154 E6.86634
G1 X162.910 Y101.610 E9.43023
G1 X163.227 Y102.475 E9.49176
G1 X163.449 Y103.368 E9.55324
G1 X163.572 Y104.240 E9.61209
G1 X163.604 Y105.160 E9.67357
G1 X163.572 Y105.761 E9.71375
G1 X163.449 Y106.632 E9.77253
G1 X163.314 Y107.219 E9.81278
G1 X163.030 Y108.094 E9.87423
G1 X148.346 Y143.552 E12.43810
G1 X147.958 Y144.386 E12.49957
G1 X147.484 Y145.176 E12.56110
G1 X146.954 Y145.879 E12.61989
G1 X146.326 Y146.553 E12.68149
G1 X145.868 Y146.963 E12.72255
G1 X145.176 Y147.484 E12.78041
G1 X144.386 Y147.958 E12.84194
G1 X143.846 Y148.221 E12.88206
G1 X108.390 Y162.910 E15.44597
G1 X107.525 Y163.227 E15.50751
G1 X106.632 Y163.449 E15.56898
G1 X105.761 Y163.572 E15.62776
G1 X104.840 Y163.604 E15.68931
G1 X104.227 Y163.571 E15.73035
G1 X103.368 Y163.449 E15.78827
G1 X102.475 Y163.227 E15.84975
G1 X101.906 Y163.030 E15.88997
G1 X66.448 Y148.346 E18.45384
G1 X65.614 Y147.958 E18.51531
G1 X64.824 Y147.484 E18.57685
G1 X64.121 Y146.955 E18.63562
G1 X63.447 Y146.325 E18.69725
G1 X62.870 Y145.662 E18.75601
G1 X62.516 Y145.176 E18.79615
G1 X62.197 Y144.667 E18.83627
G1 X61.779 Y143.846 E18.89782
G1 X47.090 Y108.390 E21.46171
G1 X46.773 Y107.525 E21.52324
G1 X46.551 Y106.632 E21.58473
G1 X46.428 Y105.761 E21.64349
G1 X46.396 Y104.840 E21.70505
G1 X46.428 Y104.239 E21.74524
G1 X46.551 Y103.368 E21.80401
G1 X46.773 Y102.475 E21.86550
G1 X46.970 Y101.906 E21.90571
G1 X61.654 Y66.448 E24.46958
G1 X62.042 Y65.613 E24.53107
G1 X62.516 Y64.824 E24.59259
G1 X63.046 Y64.121 E24.65138
G1 X63.632 Y63.489 E24.70897
G1 X64.040 Y63.839 F3000.000
G1 F1440
G1 X64.675 Y63.286 E24.76525
G1 X65.131 Y62.955 E24.80289
G1 X65.857 Y62.519 E24.85942
G1 X66.363 Y62.272 E24.89708
G1 X101.815 Y47.584 E27.46065
G1 X102.640 Y47.283 E27.51936
G1 X103.461 Y47.078 E27.57587
G1 X104.295 Y46.961 E27.63214
G1 X105.141 Y46.931 E27.68871
G1 X105.705 Y46.961 E27.72639
G1 X106.539 Y47.078 E27.78266
G1 X107.360 Y47.283 E27.83917
G1 X107.893 Y47.466 E27.87688
G1 X143.347 Y62.149 E30.44044
G1 X144.143 Y62.519 E30.49910
G1 X144.869 Y62.955 E30.55564
G1 X145.542 Y63.462 E30.61192
G1 X146.161 Y64.040 E30.66855
G1 X146.705 Y64.665 E30.72390
G1 X147.045 Y65.131 E30.76245
G1 X147.481 Y65.857 E30.81900
G1 X147.728 Y66.363 E30.85665
G1 X162.416 Y101.815 E33.42022
G1 X162.717 Y102.640 E33.47893
G1 X162.922 Y103.461 E33.53543
G1 X163.039 Y104.296 E33.59178
G1 X163.069 Y105.141 E33.64828
G1 X163.039 Y105.705 E33.68595
G1 X162.922 Y106.539 E33.74223
G1 X162.795 Y107.089 E33.77998
G1 X162.534 Y107.893 E33.83645
G1 X147.851 Y143.347 E36.40000
G1 X147.481 Y144.143 E36.45866
G1 X147.045 Y144.869 E36.51521
G1 X146.538 Y145.542 E36.57150
G1 X145.960 Y146.161 E36.62810
G1 X145.531 Y146.547 E36.66667
G1 X144.869 Y147.045 E36.72202
G1 X144.143 Y147.481 E36.77857
G1 X143.637 Y147.728 E36.81619
G1 X108.185 Y162.416 E39.37979
G1 X107.359 Y162.717 E39.43850
G1 X106.539 Y162.922 E39.49500
G1 X105.705 Y163.039 E39.55128
G1 X104.858 Y163.069 E39.60785
G1 X104.282 Y163.038 E39.64638
G1 X103.461 Y162.922 E39.70180
G1 X102.640 Y162.717 E39.75830
G1 X102.107 Y162.534 E39.79601
G1 X66.653 Y147.851 E42.35957
G1 X65.857 Y147.481 E42.41823
G1 X65.131 Y147.045 E42.47478
G1 X64.459 Y146.538 E42.53105
G1 X63.839 Y145.960 E42.58768
G1 X63.286 Y145.325 E42.64395
G1 X62.955 Y144.869 E42.68159
G1 X62.656 Y144.391 E42.71922
G1 X62.272 Y143.637 E42.77578
G1 X47.584 Y108.185 E45.33936
G1 X47.283 Y107.360 E45.39806
G1 X47.078 Y106.539 E45.45457
G1 X46.961 Y105.705 E45.51084
G1 X46.931 Y104.859 E45.56741
G1 X46.961 Y104.295 E45.60509
G1 X47.078 Y103.461 E45.66136
G1 X47.283 Y102.640 E45.71787
G1 X47.466 Y102.107 E45.75558
G1 X62.149 Y66.653 E48.31914
G1 X62.519 Y65.857 E48.37781
G1 X62.955 Y65.131 E48.43434
G1 X63.462 Y64.458 E48.49064
G1 X63.997 Y63.881 E48.54323
G1 X64.405 Y64.230 F3000.000
G1 F1440
G1 X65.013 Y63.702 E48.59701
G1 X65.438 Y63.394 E48.63216
G1 X66.100 Y62.996 E48.68370
G1 X66.573 Y62.765 E48.71886
G1 X102.020 Y48.079 E51.28212
G1 X102.806 Y47.792 E51.33801
G1 X103.554 Y47.606 E51.38954
G1 X104.351 Y47.493 E51.44331
G1 X105.123 Y47.467 E51.49489
G1 X105.649 Y47.493 E51.53007
G1 X106.446 Y47.606 E51.58384
G1 X107.194 Y47.792 E51.63537
G1 X107.693 Y47.963 E51.67057
G1 X143.142 Y62.644 E54.23382
G1 X143.900 Y62.996 E54.28967
G1 X144.562 Y63.394 E54.34123
G1 X145.204 Y63.878 E54.39500
G1 X145.770 Y64.405 E54.44664
G1 X146.289 Y65.002 E54.49948
G1 X146.606 Y65.438 E54.53554
G1 X147.004 Y66.100 E54.58711
G1 X147.235 Y66.573 E54.62226
G1 X161.921 Y102.020 E57.18551
G1 X162.208 Y102.806 E57.24141
G1 X162.394 Y103.554 E57.29293
G1 X162.507 Y104.352 E57.34677
G1 X162.533 Y105.123 E57.39828
G1 X162.507 Y105.649 E57.43346
G1 X162.394 Y106.446 E57.48724
G1 X162.275 Y106.960 E57.52247
G1 X162.037 Y107.693 E57.57396
G1 X147.356 Y143.142 E60.13721
G1 X147.004 Y143.900 E60.19306
G1 X146.606 Y144.562 E60.24462
G1 X146.122 Y145.205 E60.29840
G1 X145.595 Y145.770 E60.35002
G1 X145.194 Y146.131 E60.38610
G1 X144.562 Y146.606 E60.43894
G1 X143.900 Y147.004 E60.49050
G1 X143.428 Y147.235 E60.52563
G1 X107.980 Y161.921 E63.08891
G1 X107.194 Y162.208 E63.14480
G1 X106.446 Y162.394 E63.19632
G1 X105.649 Y162.507 E63.25010
G1 X104.877 Y162.533 E63.30168
G1 X104.338 Y162.505 E63.33772
G1 X103.554 Y162.394 E63.39063
G1 X102.806 Y162.208 E63.44215
G1 X102.307 Y162.037 E63.47736
G1 X66.858 Y147.356 E66.04060
G1 X66.100 Y147.004 E66.09645
G1 X65.438 Y146.606 E66.14801
G1 X64.796 Y146.122 E66.20178
G1 X64.230 Y145.595 E66.25342
G1 X63.702 Y144.987 E66.30719
G1 X63.394 Y144.562 E66.34233
G1 X63.115 Y144.115 E66.37746
G1 X62.765 Y143.427 E66.42904
G1 X48.079 Y107.980 E68.99230
G1 X47.792 Y107.194 E69.04818
G1 X47.606 Y106.446 E69.09971
G1 X47.493 Y105.649 E69.15349
G1 X47.467 Y104.877 E69.20506
G1 X47.493 Y104.351 E69.24025
G1 X47.606 Y103.554 E69.29402
G1 X47.792 Y102.806 E69.34555
G1 X47.963 Y102.307 E69.38075
G1 X62.644 Y66.858 E71.94399
G1 X62.996 Y66.100 E71.99985
G1 X63.394 Y65.438 E72.05140
G1 X63.878 Y64.795 E72.10519
G1 X64.362 Y64.273 E72.15279
G1 E71.55279 F900.00000
G92 E0
G1 X105.558 Y152.899 F3000.000
G1 E0.65000 F900.00000
G1 F720
G1 X106.087 Y153.118 E0.68825
G1 X106.537 Y153.463 E0.72615
G1 X106.882 Y153.914 E0.76406
G1 X107.099 Y154.438 E0.80195
G1 X107.173 Y155.000 E0.83985
G1 X107.099 Y155.562 E0.87775
G1 X106.882 Y156.086 E0.91564
G1 X106.537 Y156.537 E0.95354
G1 X106.087 Y156.882 E0.99144
G1 X105.562 Y157.099 E1.02934
G1 X105.000 Y157.173 E1.06724
G1 X104.438 Y157.099 E1.10514
G1 X103.913 Y156.882 E1.14304
G1 X103.463 Y156.537 E1.18094
G1 X103.118 Y156.086 E1.21884
G1 X102.901 Y155.562 E1.25673
G1 X102.826 Y154.995 E1.29498
G1 X102.910 Y154.417 E1.33401
G1 X103.118 Y153.914 E1.37039
G1 X103.463 Y153.463 E1.40829
G1 X103.913 Y153.118 E1.44619
G1 X104.438 Y152.901 E1.48409
G1 X104.978 Y152.830 E1.52048
G1 X105.498 Y152.892 E1.55549
G1 X105.421 Y153.422 F3000.000
G1 F720
G1 X105.816 Y153.586 E1.58409
G1 X106.155 Y153.845 E1.61257
G1 X106.414 Y154.184 E1.64105
G1 X106.577 Y154.577 E1.66953
G1 X106.633 Y155.000 E1.69800
G1 X106.577 Y155.423 E1.72648
G1 X106.414 Y155.816 E1.75495
G1 X106.155 Y156.155 E1.78344
G1 X105.816 Y156.414 E1.81191
G1 X105.423 Y156.577 E1.84039
G1 X105.000 Y156.633 E1.86887
G1 X104.577 Y156.577 E1.89734
G1 X104.184 Y156.414 E1.92582
G1 X103.845 Y156.155 E1.95430
G1 X103.586 Y155.816 E1.98278
G1 X103.423 Y155.423 E2.01125
G1 X103.367 Y154.998 E2.03986
G1 X103.430 Y154.560 E2.06946
G1 X103.586 Y154.184 E2.09664
G1 X103.845 Y153.845 E2.12513
G1 X104.184 Y153.586 E2.15360
G1 X104.577 Y153.423 E2.18208
G1 X104.981 Y153.370 E2.20927
G1 X105.361 Y153.415 E2.23486
G1 X105.421 Y153.422 F3000.000
G1 E1.63486 F900.00000
G92 E0
G1 X138.256 Y140.918 F3000.000
G1 E0.65000 F900.00000
G1 F720
G1 X138.182 Y140.355 E0.68790
G1 X138.256 Y139.793 E0.72581
G1 X138.473 Y139.269 E0.76370
G1 X138.819 Y138.819 E0.80160
G1 X139.269 Y138.473 E0.83949
G1 X139.793 Y138.256 E0.87738
G1 X140.333 Y138.185 E0.91378
G1 X140.913 Y138.254 E0.95280
G1 X141.442 Y138.473 E0.99105
G1 X141.892 Y138.819 E1.02895
G1 X142.237 Y139.269 E1.06685
G1 X142.454 Y139.793 E1.10474
G1 X142.528 Y140.355 E1.14264
G1 X142.454 Y140.918 E1.18054
G1 X142.237 Y141.442 E1.21844
G1 X141.892 Y141.892 E1.25634
G1 X141.442 Y142.237 E1.29424
G1 X140.918 Y142.454 E1.33214
G1 X140.355 Y142.528 E1.37004
G1 X139.793 Y142.454 E1.40794
G1 X139.269 Y142.237 E1.44583
G1 X138.815 Y141.889 E1.48408
G1 X138.465 Y141.421 E1.52310
G1 X138.279 Y140.973 E1.55548
G1 X138.778 Y140.778 F3000.000
G1 F720
G1 X138.722 Y140.355 E1.58396
G1 X138.778 Y139.933 E1.61244
G1 X138.941 Y139.539 E1.64091
G1 X139.201 Y139.201 E1.66939
G1 X139.539 Y138.941 E1.69786
G1 X139.933 Y138.778 E1.72633
G1 X140.336 Y138.725 E1.75353
G1 X140.776 Y138.777 E1.78313
G1 X141.172 Y138.941 E1.81173
G1 X141.510 Y139.201 E1.84021
G1 X141.769 Y139.539 E1.86869
G1 X141.933 Y139.933 E1.89716
G1 X141.988 Y140.355 E1.92564
G1 X141.933 Y140.778 E1.95411
G1 X141.769 Y141.172 E1.98259
G1 X141.510 Y141.510 E2.01107
G1 X141.172 Y141.769 E2.03955
G1 X140.778 Y141.933 E2.06803
G1 X140.355 Y141.988 E2.09650
G1 X139.933 Y141.933 E2.12498
G1 X139.539 Y141.769 E2.15346
G1 X139.199 Y141.509 E2.18206
G1 X138.934 Y141.154 E2.21166
G1 X138.801 Y140.833 E2.23484
G1 X138.778 Y140.778 F3000.000
G1 E1.63484 F900.00000
G92 E0
G1 X153.914 Y106.882 F3000.000
G1 E0.65000 F900.00000
G1 F720
G1 X153.463 Y106.537 E0.68790
G1 X153.118 Y106.087 E0.72581
G1 X152.901 Y105.562 E0.76371
G1 X152.827 Y105.000 E0.80160
G1 X152.901 Y104.438 E0.83950
G1 X153.118 Y103.913 E0.87740
G1 X153.463 Y103.463 E0.91530
G1 X153.914 Y103.118 E0.95320
G1 X154.438 Y102.901 E0.99110
G1 X154.978 Y102.830 E1.02748
G1 X155.558 Y102.899 E1.06651
G1 X156.086 Y103.118 E1.10475
G1 X156.537 Y103.463 E1.14265
G1 X156.882 Y103.913 E1.18055
G1 X157.099 Y104.438 E1.21845
G1 X157.173 Y105.000 E1.25635
G1 X157.099 Y105.562 E1.29425
G1 X156.882 Y106.087 E1.33215
G1 X156.537 Y106.537 E1.37005
G1 X156.086 Y106.882 E1.40795
G1 X155.562 Y107.099 E1.44584
G1 X155.000 Y107.173 E1.48374
G1 X154.438 Y107.099 E1.52164
G1 X153.969 Y106.905 E1.55553
G1 X154.184 Y106.414 F3000.000
G1 F720
G1 X153.845 Y106.155 E1.58401
G1 X153.586 Y105.816 E1.61249
G1 X153.423 Y105.423 E1.64096
G1 X153.367 Y105.000 E1.66944
G1 X153.423 Y104.577 E1.69792
G1 X153.586 Y104.184 E1.72639
G1 X153.845 Y103.845 E1.75487
G1 X154.184 Y103.586 E1.78335
G1 X154.577 Y103.423 E1.81183
G1 X154.981 Y103.370 E1.83902
G1 X155.421 Y103.422 E1.86862
G1 X155.816 Y103.586 E1.89722
G1 X156.155 Y103.845 E1.92570
G1 X156.414 Y104.184 E1.95418
G1 X156.577 Y104.577 E1.98265
G1 X156.633 Y105.000 E2.01113
G1 X156.577 Y105.423 E2.03961
G1 X156.414 Y105.816 E2.06808
G1 X156.155 Y106.155 E2.09656
G1 X155.816 Y106.414 E2.12504
G1 X155.423 Y106.577 E2.15352
G1 X155.000 Y106.633 E2.18199
G1 X154.577 Y106.577 E2.21047
G1 X154.239 Y106.437 E2.23494
G1 X154.184 Y106.414 F3000.000
G1 E1.63494 F900.00000
G92 E0
G1 X140.918 Y71.744 F3000.000
G1 E0.65000 F900.00000
G1 F720
G1 X140.355 Y71.818 E0.68790
G1 X139.793 Y71.744 E0.72581
G1 X139.269 Y71.527 E0.76370
G1 X138.815 Y71.178 E0.80195
G1 X138.465 Y70.710 E0.84097
G1 X138.256 Y70.207 E0.87735
G1 X138.182 Y69.645 E0.91525
G1 X138.256 Y69.082 E0.95315
G1 X138.473 Y68.558 E0.99105
G1 X138.819 Y68.108 E1.02895
G1 X139.269 Y67.763 E1.06685
G1 X139.793 Y67.546 E1.10474
G1 X140.333 Y67.475 E1.14113
G1 X140.913 Y67.544 E1.18015
G1 X141.442 Y67.763 E1.21840
G1 X141.892 Y68.108 E1.25630
G1 X142.237 Y68.558 E1.29420
G1 X142.454 Y69.082 E1.33211
G1 X142.528 Y69.645 E1.37000
G1 X142.454 Y70.207 E1.40790
G1 X142.237 Y70.731 E1.44580
G1 X141.892 Y71.181 E1.48369
G1 X141.442 Y71.527 E1.52159
G1 X140.973 Y71.721 E1.55548
G1 X140.778 Y71.222 F3000.000
G1 F720
G1 X140.355 Y71.278 E1.58396
G1 X139.933 Y71.222 E1.61244
G1 X139.539 Y71.059 E1.64091
G1 X139.199 Y70.798 E1.66951
G1 X138.934 Y70.443 E1.69911
G1 X138.778 Y70.067 E1.72630
G1 X138.722 Y69.645 E1.75478
G1 X138.778 Y69.222 E1.78326
G1 X138.941 Y68.828 E1.81174
G1 X139.201 Y68.490 E1.84021
G1 X139.539 Y68.231 E1.86869
G1 X139.933 Y68.067 E1.89716
G1 X140.336 Y68.014 E1.92435
G1 X140.776 Y68.067 E1.95395
G1 X141.172 Y68.231 E1.98256
G1 X141.510 Y68.490 E2.01103
G1 X141.769 Y68.828 E2.03951
G1 X141.933 Y69.222 E2.06799
G1 X141.988 Y69.645 E2.09647
G1 X141.933 Y70.067 E2.12494
G1 X141.769 Y70.461 E2.15342
G1 X141.510 Y70.799 E2.18189
G1 X141.172 Y71.059 E2.21037
G1 X140.833 Y71.199 E2.23484
G1 X140.778 Y71.222 F3000.000
G1 E1.63484 F900.00000
G92 E0
G1 X106.882 Y56.086 F3000.000
G1 E0.65000 F900.00000
G1 F720
G1 X106.537 Y56.537 E0.68790
G1 X106.087 Y56.882 E0.72580
G1 X105.562 Y57.099 E0.76371
G1 X105.000 Y57.173 E0.80160
G1 X104.438 Y57.099 E0.83950
G1 X103.913 Y56.882 E0.87740
G1 X103.463 Y56.537 E0.91530
G1 X103.118 Y56.086 E0.95320
G1 X102.901 Y55.562 E0.99109
G1 X102.826 Y54.995 E1.02935
G1 X102.910 Y54.417 E1.06837
G1 X103.118 Y53.914 E1.10475
G1 X103.463 Y53.463 E1.14265
G1 X103.913 Y53.118 E1.18055
G1 X104.438 Y52.901 E1.21846
G1 X104.978 Y52.830 E1.25484
G1 X105.558 Y52.899 E1.29386
G1 X106.087 Y53.118 E1.33211
G1 X106.537 Y53.463 E1.37001
G1 X106.882 Y53.914 E1.40792
G1 X107.099 Y54.438 E1.44581
G1 X107.173 Y55.000 E1.48371
G1 X107.099 Y55.562 E1.52161
G1 X106.905 Y56.031 E1.55549
G1 X106.414 Y55.816 F3000.000
G1 F720
G1 X106.155 Y56.155 E1.58397
G1 X105.816 Y56.414 E1.61245
G1 X105.423 Y56.577 E1.64093
G1 X105.000 Y56.633 E1.66940
G1 X104.577 Y56.577 E1.69788
G1 X104.184 Y56.414 E1.72636
G1 X103.845 Y56.155 E1.75484
G1 X103.586 Y55.816 E1.78332
G1 X103.423 Y55.423 E1.81179
G1 X103.367 Y54.998 E1.84039
G1 X103.430 Y54.560 E1.86999
G1 X103.586 Y54.184 E1.89718
G1 X103.845 Y53.845 E1.92566
G1 X104.184 Y53.586 E1.95414
G1 X104.577 Y53.423 E1.98262
G1 X104.981 Y53.370 E2.00981
G1 X105.421 Y53.422 E2.03941
G1 X105.816 Y53.586 E2.06801
G1 X106.155 Y53.845 E2.09649
G1 X106.414 Y54.184 E2.12497
G1 X106.577 Y54.577 E2.15344
G1 X106.633 Y55.000 E2.18192
G1 X106.577 Y55.423 E2.21040
G1 X106.437 Y55.761 E2.23486
G1 X106.414 Y55.816 F3000.000
G1 E1.63486 F900.00000
G92 E0
G1 X106.322 Y60.077 F3000.000
G1 E0.65000 F900.00000
G1 F960
G1 X106.956 Y60.091 E0.69235
G1 X108.136 Y60.158 E0.77128
G1 X109.314 Y60.256 E0.85030
G1 X111.252 Y60.485 E0.98061
G1 X112.419 Y60.665 E1.05954
G1 X113.578 Y60.875 E1.13824
G1 X114.729 Y61.114 E1.21677
G1 X115.875 Y61.384 E1.29539
G1 X117.013 Y61.683 E1.37400
G1 X118.148 Y62.014 E1.45302
G1 X120.001 Y62.625 E1.58334
G1 X121.109 Y63.034 E1.66225
G1 X122.202 Y63.470 E1.74087
G1 X123.283 Y63.935 E1.81949
G1 X124.358 Y64.430 E1.89851
G1 X126.104 Y65.310 E2.02913
G1 X127.809 Y66.265 E2.15974
G1 X128.821 Y66.879 E2.23877
G1 X129.812 Y67.516 E2.31747
G1 X130.783 Y68.178 E2.39600
G1 X131.738 Y68.865 E2.47461
