; generated by Slic3r 1.3.1-dev on 2019-10-18 at 17:11:42

; Print Config Notes: 
; DMF_3D_0.3mmThin222R25%
; 
; external perimeters extrusion width = 0.60mm (2.41mm^3/s)
; perimeters extrusion width = 0.54mm (2.85mm^3/s)
; infill extrusion width = 0.90mm (7.52mm^3/s)
; solid infill extrusion width = 0.51mm (4.01mm^3/s)
; top infill extrusion width = 0.51mm (4.01mm^3/s)

M190 S90 ; set bed temperature and wait for it to be reached
M104 S250 ; set temperature
G28 ; home all axes
; Filament gcode

M109 S250 ; set temperature and wait for it to be reached
G21 ; set units to millimeters
G90 ; use absolute coordinates
M82 ; use absolute distances for extrusion
G92 E0
G1 Z0.300 F3000.000
G1 E-0.60000 F900.00000
G92 E0
G1 X56.908 Y56.585 F3000.000
G1 E0.65000 F900.00000
G1 F1440
G1 X58.558 Y55.625 E0.77755
G1 X60.000 Y55.393 E0.87512
G1 X150.000 Y55.393 E6.88761
G1 X151.868 Y55.789 E7.01516
G1 X153.415 Y56.908 E7.14271
G1 X154.375 Y58.558 E7.27027
G1 X154.607 Y60.000 E7.36784
G1 X154.607 Y150.000 E13.38032
G1 X154.211 Y151.868 E13.50787
G1 X153.092 Y153.415 E13.63543
G1 X151.442 Y154.375 E13.76298
G1 X150.000 Y154.607 E13.86055
G1 X60.000 Y154.607 E19.87304
G1 X58.132 Y154.211 E20.00059
G1 X56.585 Y153.092 E20.12814
G1 X55.625 Y151.442 E20.25569
G1 X55.393 Y150.000 E20.35326
G1 X55.393 Y60.000 E26.36575
G1 X55.789 Y58.132 E26.49330
G1 X56.873 Y56.634 E26.61685
G1 X57.432 Y56.840 F3000.000
G1 F1440
G1 X59.039 Y56.044 E26.73667
G1 X60.000 Y55.929 E26.80130
G1 X150.000 Y55.929 E32.81379
G1 X151.750 Y56.324 E32.93361
G1 X153.160 Y57.432 E33.05343
G1 X153.956 Y59.039 E33.17326
G1 X154.071 Y60.000 E33.23789
G1 X154.071 Y150.000 E39.25038
G1 X153.676 Y151.750 E39.37020
G1 X152.568 Y153.160 E39.49002
G1 X150.961 Y153.956 E39.60984
G1 X150.000 Y154.071 E39.67448
G1 X60.000 Y154.071 E45.68697
G1 X58.250 Y153.676 E45.80679
G1 X56.840 Y152.568 E45.92661
G1 X56.044 Y150.961 E46.04643
G1 X55.929 Y150.000 E46.11107
G1 X55.929 Y60.000 E52.12355
G1 X56.324 Y58.250 E52.24338
G1 X57.395 Y56.888 E52.35919
G1 X57.954 Y57.117 F3000.000
G1 F1440
G1 X60.000 Y56.464 E52.50267
G1 X150.000 Y56.464 E58.51515
G1 X151.623 Y56.859 E58.62671
G1 X152.883 Y57.954 E58.73827
G1 X153.536 Y60.000 E58.88174
G1 X153.536 Y150.000 E64.89423
G1 X153.141 Y151.623 E65.00579
G1 X152.046 Y152.883 E65.11734
G1 X150.000 Y153.536 E65.26082
G1 X60.000 Y153.536 E71.27330
G1 X58.377 Y153.141 E71.38486
G1 X57.117 Y152.046 E71.49642
G1 X56.464 Y150.000 E71.63989
G1 X56.464 Y60.000 E77.65238
G1 X56.859 Y58.377 E77.76394
G1 X57.914 Y57.162 E77.87149
G1 E77.27149 F900.00000
G92 E0
G1 X82.676 Y137.151 F3000.000
G1 E0.65000 F900.00000
G1 F720
G1 X75.095 Y148.496 E1.56159
G1 X73.797 Y145.250 E1.79518
G1 X66.203 Y145.250 E2.30249
G1 X64.983 Y148.300 E2.52194
G1 X61.700 Y148.300 E2.74127
G1 X61.700 Y145.017 E2.96060
G1 X64.750 Y143.797 E3.18005
G1 X64.750 Y136.203 E3.68736
G1 X61.504 Y134.905 E3.92095
G1 X72.854 Y127.321 E4.83289
G1 X73.322 Y128.015 E4.88887
G1 X75.005 Y130.169 E5.07145
G1 X76.833 Y132.199 E5.25400
G1 X78.990 Y134.267 E5.45358
G1 X80.893 Y135.855 E5.61916
G1 X82.628 Y137.115 E5.76243
G1 X83.003 Y137.381 F3000.000
G1 E5.16243 F900.00000
G92 E0
G1 X76.186 Y129.879 F3000.000
G1 E0.65000 F900.00000
G1 F720
G1 X75.794 Y129.444 E0.68915
G1 X76.593 Y128.973 E0.75114
G1 X76.769 Y129.179 E0.76920
G1 X76.224 Y129.833 E0.82605
G1 X76.202 Y130.698 F3000.000
G1 F720
G1 X75.416 Y129.824 E0.90457
G1 X74.999 Y129.291 E0.94981
G1 X76.352 Y128.494 E1.05473
G1 X76.986 Y128.191 E1.10171
G1 X77.825 Y127.864 E1.16184
G1 X78.272 Y127.723 E1.19316
G1 X78.062 Y128.142 E1.22447
G1 X77.604 Y128.917 E1.28460
G1 X77.203 Y129.495 E1.33157
G1 X76.240 Y130.652 E1.43212
G1 E0.83212 F900.00000
G92 E0
G1 X79.490 Y133.263 F3000.000
G1 E0.65000 F900.00000
G1 F720
G1 X80.206 Y132.693 E0.71114
G1 X80.408 Y132.873 E0.72920
G1 X79.926 Y133.653 E0.79048
G1 X79.533 Y133.304 E0.82554
G1 X78.677 Y133.225 F3000.000
G1 F720
G1 X79.900 Y132.252 E0.92997
G1 X80.487 Y131.864 E0.97695
G1 X81.272 Y131.423 E1.03708
G1 X81.695 Y131.222 E1.06839
G1 X81.544 Y131.666 E1.09971
G1 X81.199 Y132.497 E1.15984
G1 X80.882 Y133.125 E1.20681
G1 X80.056 Y134.459 E1.31166
G1 X79.347 Y133.868 E1.37336
G1 X78.720 Y133.267 E1.43139
G1 E0.83139 F900.00000
G92 E0
G1 X98.649 Y141.624 F3000.000
G1 E0.65000 F900.00000
G1 F720
G1 X98.915 Y141.669 E0.66805
G1 X98.919 Y142.578 E0.72879
G1 X98.340 Y142.496 E0.76789
G1 X98.629 Y141.680 E0.82573
G1 E0.22573 F900.00000
G92 E0
G1 X84.527 Y136.024 F3000.000
G1 E0.65000 F900.00000
G1 F720
G1 X84.160 Y136.858 E0.71087
G1 X83.663 Y136.547 E0.75002
G1 X84.302 Y135.874 E0.81202
G1 X84.477 Y135.991 E0.82607
G1 X83.686 Y137.194 F3000.000
G1 F960
G1 X75.907 Y148.836 E1.76147
G1 X96.114 Y148.836 E3.11137
G1 X97.334 Y142.699 E3.52939
G1 X97.655 Y142.767 E3.55128
G1 X97.628 Y142.902 E3.56051
G1 X98.156 Y141.412 E3.66613
G1 X98.447 Y140.772 E3.71311
G1 X98.879 Y139.982 E3.77324
G1 X99.132 Y139.587 E3.80456
G1 X99.239 Y140.043 E3.83587
G1 X99.387 Y140.931 E3.89600
G1 X99.451 Y141.632 E3.94298
G1 X99.458 Y143.195 E4.04745
G1 X97.621 Y142.936 E4.17136
G1 X96.448 Y148.836 E4.57322
G1 X113.552 Y148.836 E5.71592
G1 X112.345 Y142.767 E6.12930
G1 X112.666 Y142.699 E6.15118
G1 X113.886 Y148.836 E6.56920
G1 X134.093 Y148.836 E7.91911
G1 X126.243 Y137.087 E8.86305
G1 X126.521 Y136.914 E8.88494
G1 X134.707 Y149.164 E9.86924
G1 X75.293 Y149.164 E13.83836
G1 X83.408 Y137.020 E14.81412
G1 X82.856 Y136.619 E14.85968
G1 X83.937 Y135.480 E14.96459
G1 X84.464 Y135.014 E15.01157
G1 X85.180 Y134.469 E15.07170
G1 X85.571 Y134.210 E15.10302
G1 X85.484 Y134.671 E15.13434
G1 X85.258 Y135.542 E15.19447
G1 X85.031 Y136.208 E15.24144
G1 X84.401 Y137.640 E15.34600
G1 X83.737 Y137.225 E15.39830
G1 E14.79830 F900.00000
G92 E0
G1 X88.261 Y139.210 F3000.000
G1 E0.65000 F900.00000
G1 F720
G1 X88.800 Y138.455 E0.71200
G1 X89.044 Y138.571 E0.73005
G1 X88.796 Y139.448 E0.79092
G1 X88.316 Y139.234 E0.82606
G1 X87.472 Y139.393 F3000.000
G1 F720
G1 X88.385 Y138.115 E0.93098
G1 X88.841 Y137.580 E0.97796
G1 X89.474 Y136.940 E1.03809
G1 X89.825 Y136.630 E1.06941
G1 X89.803 Y137.098 E1.10072
G1 X89.701 Y137.992 E1.16086
G1 X89.569 Y138.683 E1.20783
G1 X89.144 Y140.189 E1.31238
G1 X88.070 Y139.711 E1.39090
G1 X87.525 Y139.421 E1.43215
G1 E0.83215 F900.00000
G92 E0
G1 X93.191 Y141.195 F3000.000
G1 E0.65000 F900.00000
G1 F720
G1 X93.614 Y140.384 E0.71113
G1 X93.871 Y140.466 E0.72918
G1 X93.748 Y141.374 E0.79045
G1 X93.247 Y141.215 E0.82550
G1 X92.433 Y141.491 F3000.000
G1 F720
G1 X93.155 Y140.105 E0.92993
G1 X93.532 Y139.512 E0.97692
G1 X94.070 Y138.790 E1.03704
G1 X94.375 Y138.434 E1.06836
G1 X94.418 Y138.901 E1.09967
G1 X94.441 Y139.800 E1.15980
G1 X94.407 Y140.503 E1.20678
G1 X94.195 Y142.058 E1.31163
G1 X93.306 Y141.806 E1.37334
G1 X92.489 Y141.512 E1.43136
G1 E0.83136 F900.00000
G92 E0
G1 X98.048 Y143.537 F3000.000
G1 E0.65000 F900.00000
G1 F720
G1 X100.907 Y143.941 E0.84290
G1 X103.887 Y144.139 E1.04247
G1 X106.366 Y144.132 E1.20806
G1 X109.093 Y143.941 E1.39067
G1 X111.953 Y143.539 E1.58361
G1 X112.900 Y148.300 E1.90788
G1 X97.100 Y148.300 E2.96338
G1 X98.036 Y143.596 E3.28380
G1 X98.111 Y143.142 F3000.000
G1 E2.68380 F900.00000
G92 E0
G1 X103.625 Y143.048 F3000.000
G1 E0.65000 F900.00000
G1 F720
G1 X103.808 Y142.151 E0.71113
G1 X104.078 Y142.159 E0.72918
G1 X104.210 Y143.067 E0.79046
G1 X103.685 Y143.052 E0.82551
G1 X102.978 Y143.542 F3000.000
G1 F720
G1 X103.290 Y142.010 E0.92993
G1 X103.489 Y141.336 E0.97691
G1 X103.808 Y140.494 E1.03705
G1 X104.002 Y140.067 E1.06836
G1 X104.173 Y140.504 E1.09968
G1 X104.443 Y141.363 E1.15981
G1 X104.603 Y142.047 E1.20679
G1 X104.828 Y143.601 E1.31164
G1 X103.904 Y143.603 E1.37334
G1 X103.038 Y143.546 E1.43136
G1 E0.83136 F900.00000
G92 E0
G1 X108.933 Y142.882 F3000.000
G1 E0.65000 F900.00000
G1 F720
G1 X108.990 Y141.956 E0.71199
G1 X109.259 Y141.926 E0.73004
G1 X109.513 Y142.800 E0.79090
G1 X108.993 Y142.874 E0.82604
G1 X108.361 Y143.455 F3000.000
G1 F720
G1 X108.457 Y141.888 E0.93096
G1 X108.561 Y141.192 E0.97794
G1 X108.759 Y140.314 E1.03806
G1 X108.892 Y139.865 E1.06938
G1 X109.122 Y140.274 E1.10070
G1 X109.509 Y141.086 E1.16083
G1 X109.763 Y141.742 E1.20781
G1 X110.201 Y143.245 E1.31236
G1 X109.037 Y143.408 E1.39088
G1 X108.421 Y143.451 E1.43211
G1 E0.83211 F900.00000
G92 E0
G1 X114.166 Y141.955 F3000.000
G1 E0.65000 F900.00000
G1 F720
G1 X114.094 Y141.041 E0.71126
G1 X114.356 Y140.974 E0.72931
G1 X114.733 Y141.810 E0.79059
G1 X114.225 Y141.942 E0.82565
G1 X113.680 Y142.612 F3000.000
G1 F720
G1 X113.558 Y141.048 E0.93045
G1 X113.563 Y140.345 E0.97743
G1 X113.637 Y139.448 E1.03756
G1 X113.707 Y138.984 E1.06887
G1 X113.991 Y139.357 E1.10019
G1 X114.487 Y140.108 E1.16032
G1 X114.830 Y140.722 E1.20729
G1 X115.474 Y142.153 E1.31214
G1 X114.585 Y142.410 E1.37400
G1 X113.739 Y142.599 E1.43191
G1 E0.83191 F900.00000
G92 E0
G1 X119.222 Y140.330 F3000.000
G1 E0.65000 F900.00000
G1 F720
G1 X119.022 Y139.424 E0.71199
G1 X119.272 Y139.322 E0.73005
G1 X119.758 Y140.092 E0.79091
G1 X119.277 Y140.306 E0.82605
G1 X118.831 Y141.039 F3000.000
G1 F720
G1 X118.491 Y139.506 E0.93097
G1 X118.399 Y138.809 E0.97795
G1 X118.347 Y137.910 E1.03807
G1 X118.352 Y137.441 E1.06939
G1 X118.685 Y137.771 E1.10071
G1 X119.281 Y138.446 E1.16083
G1 X119.706 Y139.006 E1.20781
G1 X120.541 Y140.330 E1.31237
G1 X119.467 Y140.808 E1.39088
G1 X118.887 Y141.019 E1.43212
G1 E0.83212 F900.00000
G92 E0
G1 X124.001 Y138.007 F3000.000
G1 E0.65000 F900.00000
G1 F720
G1 X123.676 Y137.138 E0.71200
G1 X123.909 Y137.001 E0.73005
G1 X124.498 Y137.697 E0.79091
G1 X124.052 Y137.975 E0.82605
G1 X123.712 Y138.764 F3000.000
G1 F720
G1 X123.162 Y137.292 E0.93098
G1 X122.974 Y136.615 E0.97795
G1 X122.798 Y135.732 E1.03808
G1 X122.737 Y135.268 E1.06939
G1 X123.113 Y135.548 E1.10071
G1 X123.797 Y136.133 E1.16083
G1 X124.295 Y136.628 E1.20781
G1 X125.307 Y137.823 E1.31237
G1 X124.310 Y138.446 E1.39088
G1 X123.765 Y138.735 E1.43211
G1 X126.157 Y137.923 F3000.000
G1 F720
G1 X133.091 Y148.300 E2.26586
G1 X114.326 Y148.300 E3.51947
G1 X113.320 Y143.241 E3.86409
G1 X114.718 Y142.930 E3.95978
G1 X117.099 Y142.239 E4.12543
G1 X119.668 Y141.305 E4.30804
G1 X122.165 Y140.193 E4.49061
G1 X124.578 Y138.910 E4.67320
G1 X126.106 Y137.955 E4.79361
G1 X126.492 Y137.704 F3000.000
G1 X128.410 Y135.042 F3000.000
G1 F720
G1 X127.967 Y134.226 E4.85560
G1 X128.179 Y134.058 E4.87366
G1 X128.859 Y134.665 E4.93452
G1 X128.456 Y135.003 E4.96966
G1 X128.229 Y135.831 F3000.000
G1 F720
G1 X127.480 Y134.451 E5.07458
G1 X127.199 Y133.806 E5.12156
G1 X126.902 Y132.956 E5.18168
G1 X126.777 Y132.504 E5.21301
G1 X127.188 Y132.730 E5.24433
G1 X127.947 Y133.214 E5.30446
G1 X128.509 Y133.635 E5.35143
G1 X129.677 Y134.677 E5.45599
G1 X128.777 Y135.433 E5.53450
G1 X128.277 Y135.796 E5.57574
G1 E4.97574 F900.00000
G92 E0
G1 X132.363 Y131.491 F3000.000
G1 E0.65000 F900.00000
G1 F720
G1 X131.811 Y130.745 E0.71199
G1 X131.998 Y130.549 E0.73004
G1 X132.755 Y131.056 E0.79090
G1 X132.403 Y131.447 E0.82604
G1 X132.294 Y132.298 F3000.000
G1 F720
G1 X131.360 Y131.035 E0.93096
G1 X130.992 Y130.436 E0.97794
G1 X130.579 Y129.636 E1.03807
G1 X130.393 Y129.206 E1.06939
G1 X130.831 Y129.372 E1.10071
G1 X131.650 Y129.746 E1.16084
G1 X132.266 Y130.085 E1.20781
G1 X133.567 Y130.954 E1.31237
G1 X132.781 Y131.828 E1.39089
G1 X132.337 Y132.256 E1.43212
G1 E0.83212 F900.00000
G92 E0
G1 X135.783 Y127.425 F3000.000
G1 E0.65000 F900.00000
G1 F720
G1 X135.133 Y126.763 E0.71197
G1 X135.291 Y126.544 E0.73003
G1 X136.115 Y126.941 E0.79119
G1 X135.818 Y127.376 E0.82637
G1 X135.827 Y128.234 F3000.000
G1 F720
G1 X134.727 Y127.113 E0.93129
G1 X134.279 Y126.571 E0.97827
G1 X133.759 Y125.836 E1.03840
G1 X133.514 Y125.437 E1.06971
G1 X133.972 Y125.540 E1.10103
G1 X134.834 Y125.796 E1.16116
G1 X135.492 Y126.046 E1.20813
G1 X136.901 Y126.726 E1.31268
G1 X136.248 Y127.695 E1.39078
G1 X135.864 Y128.186 E1.43244
G1 X137.148 Y127.322 F3000.000
G1 F720
G1 X148.496 Y134.905 E2.34421
G1 X145.250 Y136.203 E2.57780
G1 X145.250 Y143.797 E3.08511
G1 X148.300 Y145.017 E3.30456
G1 X148.300 Y148.300 E3.52389
G1 X145.017 Y148.300 E3.74322
G1 X143.797 Y145.250 E3.96267
G1 X136.203 Y145.250 E4.46998
G1 X134.905 Y148.496 E4.70357
G1 X127.324 Y137.151 E5.61516
G1 X129.107 Y135.855 E5.76240
G1 X131.200 Y134.098 E5.94498
G1 X133.166 Y132.200 E6.12756
G1 X134.995 Y130.169 E6.31015
G1 X136.679 Y128.013 E6.49288
G1 X137.115 Y127.372 E6.54470
G1 X137.371 Y126.990 F3000.000
G1 E5.94470 F900.00000
G92 E0
G1 X138.605 Y122.923 F3000.000
G1 E0.65000 F900.00000
G1 F720
G1 X137.869 Y122.358 E0.71199
G1 X137.994 Y122.118 E0.73004
G1 X138.862 Y122.396 E0.79090
G1 X138.631 Y122.869 E0.82604
G1 X138.761 Y123.717 F3000.000
G1 F720
G1 X137.515 Y122.761 E0.93096
G1 X136.996 Y122.286 E0.97794
G1 X136.379 Y121.631 E1.03806
G1 X136.081 Y121.269 E1.06938
G1 X136.548 Y121.308 E1.10070
G1 X137.438 Y121.441 E1.16083
G1 X138.124 Y121.597 E1.20780
G1 X139.615 Y122.074 E1.31235
G1 X139.099 Y123.131 E1.39088
G1 X138.791 Y123.665 E1.43211
G1 E0.83211 F900.00000
G92 E0
G1 X140.761 Y118.065 F3000.000
G1 E0.65000 F900.00000
G1 F720
G1 X139.965 Y117.614 E0.71113
G1 X140.056 Y117.360 E0.72918
G1 X140.959 Y117.515 E0.79045
G1 X140.783 Y118.009 E0.82550
G1 X141.031 Y118.833 F3000.000
G1 F720
G1 X139.670 Y118.063 E0.92993
G1 X139.090 Y117.665 E0.97691
G1 X138.388 Y117.102 E1.03703
G1 X138.043 Y116.785 E1.06835
G1 X138.511 Y116.758 E1.09967
G1 X139.411 Y116.767 E1.15980
G1 X140.112 Y116.826 E1.20677
G1 X141.658 Y117.092 E1.31162
G1 X141.375 Y117.971 E1.37332
G1 X141.053 Y118.777 E1.43135
G1 E0.83135 F900.00000
G92 E0
G1 X143.255 Y113.322 F3000.000
G1 E0.65000 F900.00000
G1 F720
G1 X148.300 Y114.326 E0.99364
G1 X148.300 Y133.091 E2.24725
G1 X137.928 Y126.161 E3.08056
G1 X138.206 Y125.749 E3.11372
G1 X139.572 Y123.382 E3.29630
G1 X140.770 Y120.927 E3.47885
G1 X141.880 Y118.153 E3.67843
G1 X142.639 Y115.793 E3.84401
G1 X143.240 Y113.381 E4.01012
G1 X143.339 Y112.931 F3000.000
G1 E3.41012 F900.00000
G92 E0
G1 X142.989 Y107.705 F3000.000
G1 E0.65000 F900.00000
G1 F720
G1 X142.087 Y107.488 E0.71199
G1 X142.104 Y107.218 E0.73004
G1 X143.010 Y107.119 E0.79090
G1 X142.991 Y107.645 E0.82604
G1 X143.455 Y108.368 F3000.000
G1 F720
G1 X141.928 Y108.001 E0.93096
G1 X141.261 Y107.778 E0.97794
G1 X140.431 Y107.430 E1.03806
G1 X140.011 Y107.221 E1.06938
G1 X140.454 Y107.066 E1.10070
G1 X141.321 Y106.826 E1.16083
G1 X142.011 Y106.690 E1.20780
G1 X143.567 Y106.519 E1.31236
G1 X143.526 Y107.694 E1.39087
G1 X143.461 Y108.308 E1.43211
G1 E0.83211 F900.00000
G92 E0
G1 X142.983 Y102.390 F3000.000
G1 E0.65000 F900.00000
G1 F720
G1 X142.072 Y102.302 E0.71113
G1 X142.052 Y102.033 E0.72918
G1 X142.941 Y101.807 E0.79046
G1 X142.981 Y102.330 E0.82551
G1 X143.542 Y102.982 F3000.000
G1 F720
G1 X141.986 Y102.832 E0.92994
G1 X141.295 Y102.704 E0.97691
G1 X140.424 Y102.476 E1.03704
G1 X139.980 Y102.327 E1.06836
G1 X140.396 Y102.112 E1.09968
G1 X141.222 Y101.753 E1.15981
G1 X141.886 Y101.522 E1.20678
G1 X143.407 Y101.136 E1.31164
G1 X143.506 Y102.054 E1.37334
G1 X143.540 Y102.922 E1.43136
G1 E0.83136 F900.00000
G92 E0
G1 X143.511 Y98.053 F3000.000
G1 E0.65000 F900.00000
G1 F720
G1 X148.300 Y97.100 E0.97623
G1 X148.300 Y112.900 E2.03173
G1 X143.511 Y111.947 E2.35796
G1 X143.775 Y110.449 E2.45956
G1 X144.060 Y107.731 E2.64214
G1 X144.156 Y105.001 E2.82469
G1 X144.041 Y102.015 E3.02426
G1 X143.775 Y99.551 E3.18985
G1 X143.521 Y98.112 E3.28747
G1 X143.441 Y97.659 F3000.000
G1 E2.68747 F900.00000
G92 E0
G1 X140.805 Y92.019 F3000.000
G1 E0.65000 F900.00000
G1 F720
G1 X139.893 Y92.188 E0.71201
G1 X139.798 Y91.935 E0.73006
G1 X140.586 Y91.476 E0.79094
G1 X140.783 Y91.964 E0.82608
G1 X141.500 Y92.435 F3000.000
G1 F720
G1 X139.956 Y92.721 E0.93101
G1 X139.256 Y92.789 E0.97798
G1 X138.356 Y92.809 E1.03811
G1 X137.888 Y92.789 E1.06943
G1 X138.229 Y92.467 E1.10075
G1 X138.924 Y91.895 E1.16088
G1 X139.498 Y91.490 E1.20786
G1 X140.850 Y90.701 E1.31241
G1 X141.291 Y91.791 E1.39093
G1 X141.482 Y92.378 E1.43217
G1 E0.83217 F900.00000
G92 E0
G1 X138.650 Y87.163 F3000.000
G1 E0.65000 F900.00000
G1 F720
G1 X137.770 Y87.457 E0.71199
