; generated by Slic3r 1.3.1-dev on 2019-10-31 at 14:27:12

; Print Config Notes: 
; DMF_3D_0.3mmThin222HC25%
; 
; external perimeters extrusion width = 0.60mm (4.82mm^3/s)
; perimeters extrusion width = 0.54mm (5.71mm^3/s)
; infill extrusion width = 0.70mm (7.63mm^3/s)
; solid infill extrusion width = 0.51mm (5.35mm^3/s)
; top infill extrusion width = 0.51mm (5.35mm^3/s)
; support material extrusion width = 0.60mm (6.43mm^3/s)

M190 S90 ; set bed temperature and wait for it to be reached
M104 S250 ; set temperature
G28 ; home all axes
; Filament gcode

M109 S250 ; set temperature and wait for it to be reached
G21 ; set units to millimeters
G90 ; use absolute coordinates
M82 ; use absolute distances for extrusion
G92 E0
G1 Z0.300 F4500.000
G1 E-0.60000 F900.00000
G92 E0
G1 X37.764 Y56.522 F4500.000
G1 E0.65000 F900.00000
G1 F1920
G1 X38.295 Y56.204 E0.69907
G1 X38.852 Y55.922 E0.74857
G1 X39.422 Y55.681 E0.79764
G1 X40.011 Y55.479 E0.84698
G1 X40.613 Y55.319 E0.89637
G1 X41.220 Y55.202 E0.94541
G1 X41.836 Y55.127 E0.99460
G1 X42.600 Y55.093 E1.05521
G1 X124.600 Y55.093 E7.55600
G1 X125.361 Y55.127 E7.61638
G1 X126.314 Y55.261 E7.69269
G1 X127.189 Y55.479 E7.76420
G1 X128.091 Y55.807 E7.84024
G1 X128.655 Y56.071 E7.88965
G1 X129.197 Y56.372 E7.93877
G1 X129.723 Y56.715 E7.98855
G1 X130.115 Y57.006 E8.02725
G1 X167.342 Y86.580 E11.79647
G1 X168.433 Y87.493 E11.90926
G1 X169.617 Y88.620 E12.03890
G1 X170.939 Y90.088 E12.19542
G1 X171.935 Y91.382 E12.32492
G1 X172.838 Y92.743 E12.45445
G1 X173.645 Y94.164 E12.58393
G1 X174.350 Y95.637 E12.71346
G1 X174.951 Y97.156 E12.84297
G1 X175.444 Y98.714 E12.97247
G1 X175.828 Y100.301 E13.10196
G1 X176.100 Y101.913 E13.23151
G1 X176.259 Y103.538 E13.36099
G1 X176.304 Y105.171 E13.49052
G1 X176.235 Y106.803 E13.62000
G1 X176.052 Y108.427 E13.74955
G1 X175.757 Y110.033 E13.87904
G1 X175.350 Y111.615 E14.00854
G1 X174.834 Y113.165 E14.13805
G1 X174.350 Y114.363 E14.24046
G1 X173.484 Y116.139 E14.39706
G1 X172.838 Y117.257 E14.49943
G1 X171.935 Y118.618 E14.62895
G1 X170.718 Y120.175 E14.78559
G1 X169.617 Y121.381 E14.91508
G1 X168.433 Y122.507 E15.04456
G1 X167.342 Y123.420 E15.15741
G1 X130.115 Y152.994 E18.92663
G1 X129.436 Y153.478 E18.99271
G1 X128.658 Y153.927 E19.06397
G1 X128.093 Y154.192 E19.11340
G1 X127.189 Y154.521 E19.18966
G1 X126.587 Y154.681 E19.23904
G1 X125.984 Y154.797 E19.28771
G1 X125.361 Y154.873 E19.33750
G1 X124.600 Y154.907 E19.39788
G1 X42.600 Y154.907 E25.89867
G1 X41.839 Y154.873 E25.95906
G1 X40.891 Y154.740 E26.03497
G1 X40.011 Y154.521 E26.10686
G1 X39.111 Y154.194 E26.18275
G1 X38.542 Y153.927 E26.23255
G1 X38.002 Y153.627 E26.28157
G1 X37.477 Y153.285 E26.33122
G1 X36.984 Y152.912 E26.38026
G1 X36.513 Y152.501 E26.42979
G1 X35.890 Y151.855 E26.50094
G1 X35.497 Y151.371 E26.55036
G1 X35.140 Y150.864 E26.59954
G1 X34.817 Y150.329 E26.64904
G1 X34.535 Y149.778 E26.69816
G1 X34.291 Y149.204 E26.74757
G1 X34.088 Y148.617 E26.79685
G1 X33.927 Y148.020 E26.84588
G1 X33.807 Y147.409 E26.89522
G1 X33.730 Y146.792 E26.94450
G1 X33.693 Y146.000 E27.00737
G1 X33.693 Y64.000 E33.50816
G1 X33.706 Y63.551 E33.54381
G1 X33.807 Y62.591 E33.62031
G1 X33.927 Y61.980 E33.66964
G1 X34.088 Y61.383 E33.71871
G1 X34.397 Y60.534 E33.79031
G1 X34.819 Y59.669 E33.86663
G1 X35.140 Y59.136 E33.91594
G1 X35.497 Y58.629 E33.96512
G1 X36.077 Y57.938 E34.03664
G1 X36.770 Y57.268 E34.11308
G1 X37.251 Y56.880 E34.16209
G1 X37.714 Y56.556 E34.20688
G1 X38.101 Y57.061 F4500.000
G1 F1920
G1 X38.594 Y56.765 E34.25246
G1 X39.110 Y56.502 E34.29842
G1 X39.640 Y56.278 E34.34399
G1 X40.186 Y56.090 E34.38981
G1 X40.745 Y55.941 E34.43567
G1 X41.309 Y55.831 E34.48123
G1 X41.881 Y55.761 E34.52691
G1 X42.600 Y55.729 E34.58397
G1 X124.600 Y55.729 E41.08476
G1 X125.316 Y55.761 E41.14162
G1 X126.182 Y55.883 E41.21091
G1 X127.014 Y56.090 E41.27888
G1 X127.833 Y56.388 E41.34795
G1 X128.357 Y56.633 E41.39382
G1 X128.860 Y56.912 E41.43945
G1 X129.349 Y57.229 E41.48564
G1 X129.719 Y57.504 E41.52219
G1 X166.947 Y87.077 E45.29141
G1 X168.024 Y87.980 E45.40285
G1 X169.176 Y89.077 E45.52896
G1 X170.438 Y90.479 E45.67847
G1 X171.408 Y91.737 E45.80445
G1 X172.288 Y93.061 E45.93046
G1 X173.073 Y94.442 E46.05643
G1 X173.761 Y95.875 E46.18244
G1 X174.347 Y97.353 E46.30844
G1 X174.828 Y98.867 E46.43442
G1 X175.202 Y100.412 E46.56040
G1 X175.468 Y101.979 E46.68643
G1 X175.624 Y103.560 E46.81240
G1 X175.669 Y105.149 E46.93841
G1 X175.603 Y106.737 E47.06437
G1 X175.426 Y108.317 E47.19040
G1 X175.140 Y109.880 E47.31638
G1 X174.746 Y111.419 E47.44237
G1 X174.245 Y112.927 E47.56836
G1 X173.761 Y114.125 E47.67077
G1 X172.934 Y115.821 E47.82034
G1 X172.288 Y116.939 E47.92271
G1 X171.408 Y118.263 E48.04872
G1 X170.246 Y119.750 E48.19832
G1 X169.175 Y120.924 E48.32430
G1 X168.025 Y122.020 E48.45027
G1 X166.947 Y122.923 E48.56176
G1 X129.719 Y152.496 E52.33098
G1 X129.099 Y152.939 E52.39137
G1 X128.359 Y153.366 E52.45913
G1 X127.835 Y153.611 E52.50502
G1 X127.014 Y153.910 E52.57427
G1 X126.455 Y154.059 E52.62012
G1 X125.895 Y154.168 E52.66535
G1 X125.316 Y154.239 E52.71156
G1 X124.600 Y154.271 E52.76842
G1 X42.600 Y154.271 E59.26921
G1 X41.883 Y154.239 E59.32608
G1 X41.022 Y154.118 E59.39502
G1 X40.186 Y153.910 E59.46333
G1 X39.369 Y153.613 E59.53225
G1 X38.841 Y153.366 E59.57847
G1 X38.339 Y153.088 E59.62401
G1 X37.851 Y152.771 E59.67010
G1 X37.393 Y152.425 E59.71565
G1 X36.957 Y152.046 E59.76142
G1 X36.362 Y151.430 E59.82930
G1 X35.998 Y150.980 E59.87518
G1 X35.667 Y150.508 E59.92085
G1 X35.368 Y150.012 E59.96681
G1 X35.107 Y149.499 E60.01243
G1 X34.880 Y148.966 E60.05831
G1 X34.692 Y148.421 E60.10407
G1 X34.543 Y147.866 E60.14962
G1 X34.433 Y147.299 E60.19543
G1 X34.362 Y146.726 E60.24119
G1 X34.329 Y146.000 E60.29879
G1 X34.341 Y63.573 E66.83346
G1 X34.433 Y62.701 E66.90292
G1 X34.543 Y62.134 E66.94873
G1 X34.692 Y61.579 E66.99431
G1 X34.986 Y60.772 E67.06236
G1 X35.369 Y59.987 E67.13166
G1 X35.667 Y59.492 E67.17746
G1 X35.998 Y59.020 E67.22313
G1 X36.549 Y58.363 E67.29112
G1 X37.179 Y57.755 E67.36052
G1 X37.625 Y57.394 E67.40605
G1 X38.051 Y57.095 E67.44729
G1 X38.437 Y57.600 F4500.000
G1 F1920
G1 X38.892 Y57.326 E67.48938
G1 X39.369 Y57.083 E67.53179
G1 X39.857 Y56.875 E67.57388
G1 X40.361 Y56.701 E67.61617
G1 X40.877 Y56.563 E67.65850
G1 X41.398 Y56.461 E67.70057
G1 X41.926 Y56.395 E67.74274
G1 X42.600 Y56.364 E67.79625
G1 X124.600 Y56.364 E74.29705
G1 X125.272 Y56.395 E74.35038
G1 X126.050 Y56.505 E74.41265
G1 X126.839 Y56.701 E74.47710
G1 X127.575 Y56.969 E74.53918
G1 X128.059 Y57.194 E74.58152
G1 X128.524 Y57.451 E74.62365
G1 X128.975 Y57.743 E74.66626
G1 X129.324 Y58.001 E74.70067
G1 X166.551 Y87.575 E78.46989
G1 X167.616 Y88.467 E78.57998
G1 X168.734 Y89.534 E78.70255
G1 X169.937 Y90.870 E78.84505
G1 X170.881 Y92.093 E78.96752
G1 X171.737 Y93.379 E79.09001
G1 X172.502 Y94.721 E79.21247
G1 X173.171 Y96.113 E79.33496
G1 X173.742 Y97.549 E79.45744
G1 X174.211 Y99.021 E79.57991
G1 X174.576 Y100.522 E79.70237
G1 X174.836 Y102.045 E79.82488
G1 X174.988 Y103.583 E79.94733
G1 X175.033 Y105.127 E80.06983
G1 X174.971 Y106.670 E80.19228
G1 X174.800 Y108.206 E80.31479
G1 X174.523 Y109.726 E80.43726
G1 X174.141 Y111.223 E80.55973
G1 X173.655 Y112.689 E80.68220
G1 X173.171 Y113.887 E80.78461
G1 X172.383 Y115.503 E80.92715
G1 X171.737 Y116.621 E81.02952
G1 X170.881 Y117.907 E81.15201
G1 X169.774 Y119.324 E81.29459
G1 X168.733 Y120.466 E81.41705
G1 X167.616 Y121.533 E81.53951
G1 X166.551 Y122.425 E81.64964
G1 X129.324 Y151.999 E85.41886
G1 X128.763 Y152.400 E85.47356
G1 X128.061 Y152.805 E85.53782
G1 X127.576 Y153.030 E85.58018
G1 X126.839 Y153.299 E85.64241
G1 X126.323 Y153.437 E85.68473
G1 X125.806 Y153.539 E85.72653
G1 X125.272 Y153.605 E85.76915
G1 X124.600 Y153.636 E85.82249
G1 X42.600 Y153.636 E92.32328
G1 X41.928 Y153.605 E92.37662
G1 X41.154 Y153.496 E92.43860
G1 X40.361 Y153.299 E92.50333
G1 X39.627 Y153.032 E92.56529
G1 X39.139 Y152.805 E92.60792
G1 X38.675 Y152.548 E92.64998
G1 X38.225 Y152.257 E92.69250
G1 X37.801 Y151.938 E92.73456
G1 X37.396 Y151.586 E92.77704
G1 X36.834 Y151.004 E92.84118
G1 X36.499 Y150.589 E92.88353
G1 X36.194 Y150.153 E92.92570
G1 X35.919 Y149.694 E92.96811
G1 X35.678 Y149.220 E93.01024
G1 X35.470 Y148.729 E93.05258
G1 X35.297 Y148.225 E93.09482
G1 X35.160 Y147.712 E93.13689
G1 X35.059 Y147.188 E93.17917
G1 X34.994 Y146.659 E93.22142
G1 X34.964 Y146.000 E93.27374
G1 X34.976 Y63.595 E99.80666
G1 X35.059 Y62.812 E99.86908
G1 X35.160 Y62.288 E99.91136
G1 X35.297 Y61.775 E99.95345
G1 X35.575 Y61.010 E100.01796
G1 X35.920 Y60.304 E100.08024
G1 X36.194 Y59.847 E100.12252
G1 X36.499 Y59.411 E100.16469
G1 X37.021 Y58.788 E100.22914
G1 X37.587 Y58.242 E100.29151
G1 X37.999 Y57.908 E100.33356
G1 X38.388 Y57.634 E100.37124
G1 E99.77124 F900.00000
G92 E0
G1 X76.518 Y120.400 F4500.000
G1 E0.65000 F900.00000
G1 F1440
G1 X64.941 Y148.349 E3.04828
G1 X53.583 Y148.349 E3.94879
G1 X52.363 Y145.300 E4.20911
G1 X44.837 Y145.300 E4.80576
G1 X43.617 Y148.351 E5.06629
G1 X42.359 Y148.339 E5.16602
G1 X42.025 Y148.280 E5.19285
G1 X41.575 Y148.116 E5.23085
G1 X41.280 Y147.946 E5.25783
G1 X40.913 Y147.638 E5.29584
G1 X40.694 Y147.377 E5.32280
G1 X40.454 Y146.962 E5.36081
G1 X40.340 Y146.648 E5.38730
G1 X40.272 Y146.327 E5.41330
G1 X40.250 Y146.012 E5.43833
G1 X40.250 Y144.983 E5.51992
G1 X43.300 Y143.763 E5.78035
G1 X43.300 Y136.237 E6.37700
G1 X40.250 Y135.017 E6.63742
G1 X40.250 Y123.659 E7.53786
G1 X68.218 Y112.075 E9.93775
G1 X68.645 Y112.952 E10.01510
G1 X69.236 Y113.975 E10.10883
G1 X69.897 Y114.955 E10.20255
G1 X70.625 Y115.887 E10.29627
G1 X71.416 Y116.766 E10.39000
G1 X72.267 Y117.587 E10.48372
G1 X73.172 Y118.347 E10.57744
G1 X74.129 Y119.042 E10.67117
G1 X75.131 Y119.668 E10.76484
G1 X76.465 Y120.372 E10.88445
G1 X76.881 Y120.568 F4500.000
G1 E10.28445 F900.00000
G92 E0
G1 X67.712 Y110.878 F4500.000
G1 E0.65000 F900.00000
G1 F1440
G1 X40.250 Y122.253 E3.00650
G1 X40.250 Y87.747 E5.74211
G1 X67.712 Y99.122 E8.09861
G1 X67.319 Y100.331 E8.19944
G1 X67.033 Y101.479 E8.29317
G1 X66.828 Y102.643 E8.38689
G1 X66.704 Y103.819 E8.48061
G1 X66.663 Y105.000 E8.57433
G1 X66.704 Y106.181 E8.66806
G1 X66.828 Y107.357 E8.76178
G1 X67.033 Y108.521 E8.85550
G1 X67.319 Y109.669 E8.94923
G1 X67.693 Y110.821 E9.04530
G1 X67.851 Y111.253 F4500.000
G1 E8.44530 F900.00000
G92 E0
G1 X42.664 Y136.667 F4500.000
G1 E0.65000 F900.00000
G1 F720
G1 X42.664 Y143.333 E1.17842
G1 X39.586 Y144.564 E1.44130
G1 X39.586 Y135.436 E2.16498
G1 X42.609 Y136.645 E2.42311
G1 E1.82311 F900.00000
G92 E0
G1 X45.267 Y145.936 F4500.000
G1 E0.65000 F900.00000
G1 F720
G1 X51.933 Y145.936 E1.17842
G1 X53.164 Y149.014 E1.44130
G1 X44.036 Y149.014 E2.16498
G1 X45.245 Y145.991 E2.42310
G1 E1.82310 F900.00000
G92 E0
G1 X66.347 Y148.349 F4500.000
G1 E0.65000 F900.00000
G1 F1440
G1 X77.727 Y120.876 E3.00746
G1 X78.366 Y121.108 E3.06138
G1 X79.503 Y121.434 E3.15510
G1 X80.659 Y121.680 E3.24883
G1 X81.830 Y121.845 E3.34255
G1 X83.009 Y121.927 E3.43627
G1 X84.191 Y121.927 E3.52999
G1 X85.370 Y121.845 E3.62372
G1 X86.541 Y121.680 E3.71744
G1 X87.697 Y121.434 E3.81116
G1 X88.834 Y121.108 E3.90488
G1 X89.473 Y120.876 E3.95880
G1 X100.853 Y148.349 E6.31626
G1 X66.407 Y148.349 E9.04703
G1 X65.947 Y148.360 F4500.000
G1 E8.44703 F900.00000
G92 E0
G1 X102.259 Y148.349 F4500.000
G1 E0.65000 F900.00000
G1 F1440
G1 X90.682 Y120.400 E3.04828
G1 X92.069 Y119.668 E3.17264
G1 X93.071 Y119.042 E3.26632
G1 X94.028 Y118.347 E3.36004
G1 X94.933 Y117.587 E3.45377
G1 X95.784 Y116.766 E3.54749
G1 X96.575 Y115.887 E3.64121
G1 X97.303 Y114.955 E3.73494
G1 X97.964 Y113.975 E3.82866
G1 X98.555 Y112.952 E3.92238
G1 X98.982 Y112.075 E3.99974
G1 X126.950 Y123.659 E6.39963
G1 X126.950 Y135.017 E7.30006
G1 X123.900 Y136.237 E7.56049
G1 X123.900 Y143.763 E8.15714
G1 X126.951 Y144.984 E8.41767
G1 X126.945 Y146.165 E8.51133
G1 X126.899 Y146.489 E8.53725
G1 X126.809 Y146.804 E8.56326
G1 X126.676 Y147.104 E8.58925
G1 X126.502 Y147.382 E8.61527
G1 X126.291 Y147.633 E8.64126
G1 X126.047 Y147.853 E8.66726
G1 X125.775 Y148.036 E8.69326
G1 X125.475 Y148.182 E8.71975
G1 X125.014 Y148.314 E8.75775
G1 X124.688 Y148.349 E8.78375
G1 X123.583 Y148.349 E8.87141
G1 X122.363 Y145.300 E9.13173
G1 X114.837 Y145.300 E9.72838
G1 X113.617 Y148.349 E9.98870
G1 X102.319 Y148.349 E10.88445
G1 X101.882 Y148.483 F4500.000
G1 E10.28445 F900.00000
G92 E0
G1 X126.950 Y122.253 F4500.000
G1 E0.65000 F900.00000
G1 F1440
G1 X99.488 Y110.878 E3.00650
G1 X99.881 Y109.669 E3.10733
G1 X100.167 Y108.521 E3.20105
G1 X100.372 Y107.357 E3.29478
G1 X100.496 Y106.181 E3.38850
G1 X100.537 Y105.000 E3.48222
G1 X100.496 Y103.819 E3.57594
G1 X100.372 Y102.643 E3.66967
G1 X100.167 Y101.479 E3.76339
G1 X99.881 Y100.331 E3.85711
G1 X99.488 Y99.122 E3.95794
G1 X126.950 Y87.747 E6.31444
G1 X126.950 Y122.193 E9.04530
G1 X126.892 Y122.649 F4500.000
G1 E8.44530 F900.00000
G92 E0
G1 X127.610 Y74.562 F4500.000
G1 E0.65000 F900.00000
G1 F720
G1 X124.536 Y73.333 E0.91246
G1 X124.536 Y66.667 E1.44088
G1 X127.605 Y65.439 E1.70300
G1 X127.609 Y74.502 E2.42149
G1 E1.82149 F900.00000
G92 E0
G1 X121.933 Y64.064 F4500.000
G1 E0.65000 F900.00000
G1 F720
G1 X115.267 Y64.064 E1.17842
G1 X114.036 Y60.986 E1.44127
G1 X123.164 Y60.986 E2.16493
G1 X121.955 Y64.009 E2.42305
G1 X123.583 Y61.651 F4500.000
G1 F1440
G1 X124.694 Y61.651 E2.51119
G1 X125.163 Y61.717 E2.54870
G1 X125.481 Y61.820 E2.57519
G1 X125.775 Y61.964 E2.60120
G1 X126.047 Y62.148 E2.62719
G1 X126.296 Y62.371 E2.65368
G1 X126.591 Y62.749 E2.69169
G1 X126.748 Y63.044 E2.71817
G1 X126.862 Y63.358 E2.74466
G1 X126.945 Y63.829 E2.78259
G1 X126.951 Y65.016 E2.87673
G1 X123.900 Y66.237 E3.13727
G1 X123.900 Y73.763 E3.73392
G1 X126.950 Y74.983 E3.99434
G1 X126.950 Y86.341 E4.89478
G1 X98.982 Y97.925 E7.29467
G1 X98.555 Y97.048 E7.37202
G1 X97.964 Y96.025 E7.46575
G1 X97.303 Y95.045 E7.55947
G1 X96.575 Y94.113 E7.65319
G1 X95.784 Y93.234 E7.74692
G1 X94.933 Y92.413 E7.84064
G1 X94.028 Y91.653 E7.93436
G1 X93.071 Y90.958 E8.02809
G1 X92.069 Y90.332 E8.12176
G1 X90.682 Y89.600 E8.24613
G1 X102.259 Y61.651 E10.64441
G1 X113.617 Y61.651 E11.54492
G1 X114.837 Y64.700 E11.80524
G1 X122.363 Y64.700 E12.40189
G1 X123.560 Y61.707 E12.65746
G1 X123.743 Y61.285 F4500.000
G1 E12.05746 F900.00000
G92 E0
G1 X149.151 Y97.542 F4500.000
G1 E0.65000 F900.00000
G1 F1440
G1 X148.286 Y96.414 E0.76270
G1 X147.753 Y95.129 E0.87297
G1 X147.572 Y93.750 E0.98324
G1 X147.753 Y92.371 E1.09352
G1 X148.286 Y91.086 E1.20378
G1 X149.132 Y89.982 E1.31406
G1 X150.236 Y89.136 E1.42433
G1 X151.521 Y88.603 E1.53460
G1 X152.855 Y88.428 E1.64125
G1 X154.278 Y88.603 E1.75491
G1 X155.564 Y89.136 E1.86530
G1 X156.668 Y89.982 E1.97557
G1 X157.514 Y91.086 E2.08584
G1 X158.047 Y92.371 E2.19611
G1 X158.228 Y93.750 E2.30639
G1 X158.047 Y95.129 E2.41666
G1 X157.514 Y96.414 E2.52693
G1 X156.649 Y97.542 E2.63963
G1 X157.075 Y97.769 E2.67789
G1 X157.570 Y98.078 E2.72415
G1 X158.067 Y98.442 E2.77302
G1 X158.487 Y98.795 E2.81650
G1 X158.907 Y99.199 E2.86271
G1 X159.297 Y99.633 E2.90892
G1 X159.655 Y100.092 E2.95512
G1 X159.981 Y100.575 E3.00133
G1 X160.367 Y101.244 E3.06254
G1 X161.486 Y100.386 E3.17430
G1 X162.771 Y99.853 E3.28457
G1 X164.150 Y99.672 E3.39485
G1 X165.529 Y99.853 E3.50512
G1 X166.814 Y100.386 E3.61539
G1 X167.918 Y101.232 E3.72566
G1 X168.764 Y102.336 E3.83593
G1 X169.297 Y103.621 E3.94620
G1 X169.478 Y105.000 E4.05647
G1 X169.297 Y106.379 E4.16675
G1 X168.764 Y107.664 E4.27702
G1 X167.918 Y108.768 E4.38729
G1 X166.814 Y109.614 E4.49756
G1 X165.529 Y110.147 E4.60783
G1 X164.150 Y110.328 E4.71810
G1 X162.771 Y110.147 E4.82838
G1 X161.486 Y109.614 E4.93865
G1 X160.367 Y108.756 E5.05040
G1 X159.981 Y109.425 E5.11162
G1 X159.655 Y109.908 E5.15783
G1 X159.297 Y110.367 E5.20403
G1 X158.907 Y110.801 E5.25024
G1 X158.487 Y111.205 E5.29645
G1 X158.041 Y111.580 E5.34265
G1 X157.569 Y111.923 E5.38886
G1 X157.075 Y112.231 E5.43506
G1 X156.649 Y112.458 E5.47333
G1 X157.514 Y113.586 E5.58603
G1 X158.047 Y114.871 E5.69630
G1 X158.228 Y116.250 E5.80657
G1 X158.047 Y117.629 E5.91684
G1 X157.514 Y118.914 E6.02711
G1 X156.668 Y120.018 E6.13739
