; generated by Slic3r 1.3.1-dev on 2019-10-27 at 10:33:10

; Print Config Notes: 
; DMF_3D_0.3mmThin222HC25%
; 
; external perimeters extrusion width = 0.60mm (4.82mm^3/s)
; perimeters extrusion width = 0.54mm (5.71mm^3/s)
; infill extrusion width = 0.70mm (7.63mm^3/s)
; solid infill extrusion width = 0.51mm (5.35mm^3/s)
; top infill extrusion width = 0.51mm (5.35mm^3/s)

M190 S90 ; set bed temperature and wait for it to be reached
M104 S250 ; set temperature
G28 ; home all axes
; Filament gcode

M109 S250 ; set temperature and wait for it to be reached
G21 ; set units to millimeters
G90 ; use absolute coordinates
M82 ; use absolute distances for extrusion
G92 E0
G1 Z0.300 F4500.000
G1 E-0.60000 F900.00000
G92 E0
G1 X60.229 Y61.527 F4500.000
G1 E0.65000 F900.00000
G1 F1920
G1 X63.371 Y58.510 E0.99530
G1 X66.445 Y55.931 E1.31349
G1 X70.246 Y53.169 E1.68593
G1 X73.946 Y50.871 E2.03124
G1 X77.490 Y48.987 E2.34943
G1 X81.782 Y47.076 E2.72186
G1 X85.553 Y45.703 E3.04006
G1 X89.737 Y44.491 E3.38536
G1 X93.995 Y43.574 E3.73068
G1 X98.647 Y42.920 E4.10311
G1 X102.651 Y42.640 E4.42130
G1 X107.007 Y42.628 E4.76662
G1 X111.693 Y42.956 E5.13907
G1 X115.668 Y43.515 E5.45725
G1 X119.931 Y44.408 E5.80256
G1 X124.447 Y45.703 E6.17499
G1 X128.536 Y47.204 E6.52033
G1 X132.510 Y48.987 E6.86560
G1 X136.054 Y50.871 E7.18381
G1 X140.037 Y53.360 E7.55623
G1 X143.553 Y55.930 E7.90145
G1 X146.629 Y58.510 E8.21976
G1 X149.772 Y61.529 E8.56522
G1 X152.913 Y65.018 E8.93742
G1 X155.385 Y68.181 E9.25570
G1 X157.831 Y71.786 E9.60101
G1 X160.179 Y75.852 E9.97325
G1 X162.078 Y79.775 E10.31878
G1 X163.699 Y83.818 E10.66410
G1 X165.034 Y87.964 E11.00940
G1 X166.005 Y91.859 E11.32763
G1 X166.820 Y96.485 E11.70004
G1 X167.240 Y100.477 E12.01825
G1 X167.404 Y104.829 E12.36356
G1 X167.240 Y109.524 E12.73597
G1 X166.820 Y113.515 E13.05415
G1 X166.076 Y117.807 E13.39946
G1 X164.939 Y122.365 E13.77191
G1 X163.699 Y126.182 E14.09010
G1 X162.078 Y130.225 E14.43540
G1 X160.019 Y134.448 E14.80785
G1 X158.012 Y137.924 E15.12603
G1 X155.586 Y141.542 E15.47135
G1 X152.914 Y144.981 E15.81667
G1 X149.771 Y148.473 E16.18911
G1 X146.884 Y151.261 E16.50729
G1 X143.555 Y154.069 E16.85261
G1 X139.754 Y156.831 E17.22505
G1 X136.054 Y159.129 E17.57037
G1 X132.510 Y161.013 E17.88855
G1 X128.536 Y162.796 E18.23386
G1 X124.447 Y164.297 E18.57918
G1 X119.931 Y165.592 E18.95163
G1 X115.668 Y166.485 E19.29690
G1 X111.693 Y167.044 E19.61511
G1 X107.007 Y167.372 E19.98757
G1 X102.651 Y167.360 E20.33284
G1 X98.647 Y167.080 E20.65106
G1 X93.995 Y166.426 E21.02348
G1 X89.737 Y165.509 E21.36880
G1 X85.879 Y164.402 E21.68700
G1 X81.465 Y162.796 E22.05940
G1 X77.798 Y161.163 E22.37762
G1 X73.953 Y159.133 E22.72234
G1 X70.246 Y156.831 E23.06829
G1 X66.447 Y154.071 E23.44056
G1 X63.117 Y151.261 E23.78595
G1 X60.229 Y148.473 E24.10419
G1 X57.086 Y144.982 E24.47656
G1 X54.414 Y141.542 E24.82195
G1 X52.169 Y138.214 E25.14013
G1 X49.981 Y134.448 E25.48548
G1 X47.922 Y130.225 E25.85790
G1 X46.301 Y126.182 E26.20321
G1 X45.061 Y122.365 E26.52143
G1 X43.995 Y118.142 E26.86672
G1 X43.180 Y113.515 E27.23916
G1 X42.760 Y109.524 E27.55735
G1 X42.596 Y105.171 E27.90267
G1 X42.760 Y100.476 E28.27509
G1 X43.180 Y96.485 E28.59327
G1 X43.919 Y92.223 E28.93620
G1 X43.995 Y91.858 E28.96574
G1 X44.966 Y87.964 E29.28392
G1 X46.418 Y83.496 E29.65636
G1 X48.061 Y79.462 E30.00167
G1 X49.820 Y75.854 E30.31986
G1 X52.169 Y71.786 E30.69231
G1 X54.414 Y68.458 E31.01048
G1 X57.086 Y65.019 E31.35580
G1 X60.188 Y61.571 E31.72350
G1 X60.671 Y61.985 F4500.000
G1 F1920
G1 X63.779 Y58.997 E32.06529
G1 X66.854 Y56.417 E32.38347
G1 X70.583 Y53.708 E32.74888
G1 X74.245 Y51.432 E33.09068
G1 X77.788 Y49.548 E33.40887
G1 X81.999 Y47.673 E33.77427
G1 X85.771 Y46.301 E34.09246
G1 X89.912 Y45.102 E34.43426
G1 X94.127 Y44.196 E34.77606
G1 X98.691 Y43.554 E35.14146
G1 X102.695 Y43.274 E35.45965
G1 X107.007 Y43.264 E35.80145
G1 X111.605 Y43.585 E36.16687
G1 X115.579 Y44.144 E36.48505
G1 X119.798 Y45.030 E36.82685
G1 X124.229 Y46.301 E37.19225
G1 X128.277 Y47.785 E37.53407
G1 X132.211 Y49.548 E37.87583
G1 X135.755 Y51.432 E38.19404
G1 X139.664 Y53.875 E38.55943
G1 X143.145 Y56.417 E38.90115
G1 X146.220 Y58.997 E39.21944
G1 X149.330 Y61.986 E39.56137
G1 X152.413 Y65.409 E39.92657
G1 X154.884 Y68.573 E40.24483
G1 X157.304 Y72.141 E40.58663
G1 X159.607 Y76.131 E40.95187
G1 X161.489 Y80.013 E41.29386
G1 X163.095 Y84.014 E41.63565
G1 X164.335 Y87.831 E41.95384
G1 X165.388 Y92.012 E42.29567
G1 X166.188 Y96.551 E42.66105
G1 X166.608 Y100.543 E42.97926
G1 X166.769 Y104.851 E43.32105
G1 X166.608 Y109.457 E43.68644
G1 X166.188 Y113.449 E44.00462
G1 X165.450 Y117.697 E44.34642
G1 X164.335 Y122.169 E44.71183
G1 X163.094 Y125.986 E45.03002
G1 X161.489 Y129.987 E45.37181
G1 X159.469 Y134.130 E45.73723
G1 X157.462 Y137.606 E46.05541
G1 X155.060 Y141.186 E46.39721
G1 X152.413 Y144.590 E46.73901
G1 X149.329 Y148.015 E47.10443
G1 X146.442 Y150.803 E47.42261
G1 X143.146 Y153.583 E47.76441
G1 X139.417 Y156.292 E48.12982
G1 X135.755 Y158.568 E48.47163
G1 X132.211 Y160.452 E48.78981
G1 X128.277 Y162.215 E49.13160
G1 X124.229 Y163.699 E49.47340
G1 X119.798 Y164.970 E49.83882
G1 X115.580 Y165.856 E50.18059
G1 X111.605 Y166.415 E50.49879
G1 X107.007 Y166.736 E50.86421
G1 X102.696 Y166.726 E51.20598
G1 X98.692 Y166.446 E51.52419
G1 X94.127 Y165.804 E51.88959
G1 X89.912 Y164.898 E52.23139
G1 X86.054 Y163.791 E52.54959
G1 X81.723 Y162.215 E52.91497
G1 X78.056 Y160.583 E53.23318
G1 X74.251 Y158.571 E53.57441
G1 X70.583 Y156.292 E53.91681
G1 X66.855 Y153.584 E54.28208
G1 X63.558 Y150.804 E54.62394
G1 X60.671 Y148.015 E54.94217
G1 X57.587 Y144.591 E55.30752
G1 X54.928 Y141.167 E55.65118
G1 X52.538 Y137.606 E55.99119
G1 X50.531 Y134.130 E56.30939
G1 X48.511 Y129.987 E56.67479
G1 X46.905 Y125.986 E57.01658
G1 X45.665 Y122.169 E57.33479
G1 X44.612 Y117.988 E57.67657
G1 X43.812 Y113.449 E58.04198
G1 X43.392 Y109.457 E58.36017
G1 X43.231 Y105.149 E58.70197
G1 X43.392 Y100.543 E59.06737
G1 X43.812 Y96.551 E59.38555
G1 X44.545 Y92.333 E59.72496
G1 X45.583 Y88.118 E60.06915
G1 X47.007 Y83.734 E60.43456
G1 X48.632 Y79.740 E60.77635
G1 X50.392 Y76.133 E61.09454
G1 X52.696 Y72.141 E61.45996
G1 X54.940 Y68.814 E61.77814
G1 X57.587 Y65.410 E62.11994
G1 X60.629 Y62.028 E62.48061
G1 X61.113 Y62.442 F4500.000
G1 F1920
G1 X64.188 Y59.484 E62.81888
G1 X67.263 Y56.904 E63.13706
G1 X70.920 Y54.247 E63.49545
G1 X74.543 Y51.993 E63.83373
G1 X78.087 Y50.109 E64.15192
G1 X82.217 Y48.271 E64.51029
G1 X85.988 Y46.898 E64.82848
G1 X90.087 Y45.713 E65.16676
G1 X94.259 Y44.817 E65.50505
G1 X98.736 Y44.188 E65.86342
G1 X102.740 Y43.908 E66.18161
G1 X107.007 Y43.899 E66.51990
G1 X111.516 Y44.215 E66.87828
G1 X115.491 Y44.773 E67.19646
G1 X119.666 Y45.652 E67.53474
G1 X124.012 Y46.898 E67.89312
G1 X128.019 Y48.366 E68.23142
G1 X131.913 Y50.109 E68.56967
G1 X135.457 Y51.993 E68.88788
G1 X139.290 Y54.389 E69.24624
G1 X142.737 Y56.904 E69.58446
G1 X145.812 Y59.484 E69.90273
G1 X148.889 Y62.443 E70.24112
G1 X151.912 Y65.801 E70.59933
G1 X154.383 Y68.964 E70.91758
G1 X156.777 Y72.497 E71.25586
G1 X159.036 Y76.410 E71.61409
G1 X160.900 Y80.251 E71.95254
G1 X162.490 Y84.210 E72.29082
G1 X163.730 Y88.027 E72.60900
G1 X164.771 Y92.166 E72.94731
G1 X165.556 Y96.618 E73.30567
G1 X165.976 Y100.609 E73.62388
G1 X166.133 Y104.873 E73.96216
G1 X165.976 Y109.391 E74.32052
G1 X165.556 Y113.382 E74.63870
G1 X164.824 Y117.586 E74.97698
G1 X163.730 Y121.973 E75.33536
G1 X162.490 Y125.790 E75.65355
G1 X160.900 Y129.749 E75.99183
G1 X158.918 Y133.812 E76.35021
G1 X156.911 Y137.288 E76.66840
G1 X154.533 Y140.831 E77.00668
G1 X151.912 Y144.199 E77.34497
G1 X148.888 Y147.558 E77.70335
G1 X146.000 Y150.346 E78.02153
G1 X142.737 Y153.096 E78.35982
G1 X139.080 Y155.753 E78.71820
G1 X135.457 Y158.007 E79.05649
G1 X131.685 Y160.002 E79.39477
G1 X128.019 Y161.634 E79.71295
G1 X124.012 Y163.102 E80.05123
G1 X119.666 Y164.348 E80.40962
G1 X115.491 Y165.227 E80.74788
G1 X111.516 Y165.785 E81.06608
G1 X107.007 Y166.101 E81.42447
G1 X102.740 Y166.092 E81.76273
G1 X98.736 Y165.812 E82.08094
G1 X94.260 Y165.183 E82.43930
G1 X90.088 Y164.287 E82.77759
G1 X86.229 Y163.180 E83.09579
G1 X81.982 Y161.635 E83.45414
G1 X78.315 Y160.002 E83.77234
G1 X74.550 Y158.010 E84.11003
G1 X70.920 Y155.753 E84.44894
G1 X67.264 Y153.096 E84.80720
G1 X64.000 Y150.346 E85.14554
G1 X61.113 Y147.558 E85.46376
G1 X58.088 Y144.199 E85.82209
G1 X55.467 Y140.831 E86.16043
G1 X53.223 Y137.503 E86.47861
G1 X51.082 Y133.812 E86.81692
G1 X49.100 Y129.749 E87.17529
G1 X47.510 Y125.790 E87.51357
G1 X46.270 Y121.972 E87.83178
G1 X45.229 Y117.834 E88.17005
G1 X44.444 Y113.382 E88.52842
G1 X44.024 Y109.391 E88.84661
G1 X43.867 Y105.127 E89.18490
G1 X44.024 Y100.609 E89.54327
G1 X44.444 Y96.618 E89.86145
G1 X45.171 Y92.443 E90.19734
G1 X46.200 Y88.271 E90.53801
G1 X47.597 Y83.972 E90.89640
G1 X49.203 Y80.019 E91.23467
G1 X50.963 Y76.412 E91.55286
G1 X53.223 Y72.497 E91.91125
G1 X55.467 Y69.169 E92.22943
G1 X58.088 Y65.801 E92.56771
G1 X61.071 Y62.485 E92.92135
G1 E92.32135 F900.00000
G92 E0
G1 X138.039 Y140.417 F4500.000
G1 E0.65000 F900.00000
G1 F1920
G1 X137.424 Y141.011 E0.71776
G1 X134.833 Y143.185 E0.98590
G1 X132.097 Y145.173 E1.25404
G1 X129.229 Y146.965 E1.52218
G1 X126.242 Y148.553 E1.79032
G1 X123.152 Y149.929 E2.05845
G1 X119.974 Y151.085 E2.32659
G1 X116.723 Y152.018 E2.59473
G1 X113.414 Y152.721 E2.86287
G1 X110.065 Y153.192 E3.13101
G1 X106.698 Y153.427 E3.39861
G1 X107.013 Y153.838 E3.43966
G1 X107.245 Y154.398 E3.48775
G1 X107.324 Y155.000 E3.53586
G1 X107.245 Y155.602 E3.58397
G1 X107.013 Y156.162 E3.63206
G1 X106.644 Y156.644 E3.68017
G1 X106.162 Y157.013 E3.72829
G1 X105.602 Y157.245 E3.77639
G1 X105.000 Y157.324 E3.82450
G1 X104.398 Y157.245 E3.87260
G1 X103.838 Y157.013 E3.92071
G1 X103.356 Y156.644 E3.96882
G1 X102.987 Y156.162 E4.01693
G1 X102.755 Y155.602 E4.06502
G1 X102.675 Y154.994 E4.11362
G1 X102.764 Y154.377 E4.16306
G1 X102.987 Y153.838 E4.20929
G1 X103.302 Y153.427 E4.25034
G1 X99.935 Y153.192 E4.51794
G1 X96.586 Y152.721 E4.78608
G1 X93.277 Y152.018 E5.05422
G1 X90.026 Y151.085 E5.32236
G1 X86.848 Y149.929 E5.59049
G1 X83.758 Y148.553 E5.85863
G1 X80.771 Y146.965 E6.12677
G1 X77.903 Y145.173 E6.39491
G1 X75.167 Y143.185 E6.66305
G1 X72.576 Y141.011 E6.93119
G1 X71.961 Y140.417 E6.99895
G1 X71.890 Y140.957 E7.04214
G1 X71.658 Y141.518 E7.09024
G1 X71.288 Y141.999 E7.13835
G1 X70.807 Y142.368 E7.18645
G1 X70.246 Y142.601 E7.23455
G1 X69.645 Y142.680 E7.28266
G1 X69.043 Y142.601 E7.33076
G1 X68.504 Y142.377 E7.37700
G1 X68.005 Y142.004 E7.42644
G1 X67.632 Y141.518 E7.47504
G1 X67.399 Y140.957 E7.52315
G1 X67.319 Y140.349 E7.57174
G1 X67.408 Y139.732 E7.62118
G1 X67.632 Y139.193 E7.66742
G1 X68.001 Y138.712 E7.71552
G1 X68.482 Y138.342 E7.76363
G1 X69.043 Y138.110 E7.81173
G1 X69.583 Y138.039 E7.85489
G1 X67.880 Y136.148 E8.05666
G1 X65.797 Y133.482 E8.32480
G1 X63.906 Y130.678 E8.59294
G1 X62.215 Y127.749 E8.86108
G1 X60.732 Y124.709 E9.12922
G1 X59.465 Y121.573 E9.39735
G1 X58.420 Y118.357 E9.66550
G1 X57.602 Y115.075 E9.93363
G1 X57.014 Y111.742 E10.20190
G1 X56.655 Y108.213 E10.48314
G1 X56.601 Y106.676 E10.60506
G1 X56.162 Y107.013 E10.64897
G1 X55.602 Y107.245 E10.69706
G1 X55.000 Y107.324 E10.74517
G1 X54.398 Y107.245 E10.79328
G1 X53.838 Y107.013 E10.84137
G1 X53.356 Y106.644 E10.88948
G1 X52.987 Y106.162 E10.93759
G1 X52.755 Y105.602 E10.98570
G1 X52.675 Y104.994 E11.03429
G1 X52.764 Y104.377 E11.08373
G1 X52.987 Y103.838 E11.12997
G1 X53.356 Y103.356 E11.17808
G1 X53.838 Y102.987 E11.22619
G1 X54.398 Y102.755 E11.27429
G1 X54.977 Y102.679 E11.32053
G1 X55.596 Y102.752 E11.36997
G1 X56.162 Y102.987 E11.41855
G1 X56.601 Y103.324 E11.46246
G1 X56.661 Y101.620 E11.59764
G1 X57.014 Y98.256 E11.86578
G1 X57.602 Y94.925 E12.13392
G1 X58.420 Y91.643 E12.40206
G1 X59.465 Y88.427 E12.67020
G1 X60.732 Y85.291 E12.93833
G1 X62.215 Y82.251 E13.20647
G1 X63.906 Y79.322 E13.47461
G1 X65.797 Y76.518 E13.74275
G1 X67.880 Y73.852 E14.01089
G1 X69.583 Y71.961 E14.21266
G1 X69.043 Y71.890 E14.25582
G1 X68.482 Y71.658 E14.30392
G1 X68.001 Y71.288 E14.35203
G1 X67.632 Y70.807 E14.40013
G1 X67.399 Y70.246 E14.44824
G1 X67.320 Y69.645 E14.49634
G1 X67.399 Y69.043 E14.54444
G1 X67.632 Y68.482 E14.59255
G1 X68.001 Y68.001 E14.64066
G1 X68.482 Y67.632 E14.68876
G1 X69.043 Y67.399 E14.73688
G1 X69.621 Y67.323 E14.78311
G1 X70.241 Y67.397 E14.83255
G1 X70.807 Y67.632 E14.88114
G1 X71.288 Y68.001 E14.92924
G1 X71.658 Y68.482 E14.97735
G1 X71.890 Y69.043 E15.02545
G1 X71.961 Y69.583 E15.06864
G1 X72.576 Y68.989 E15.13641
G1 X75.167 Y66.815 E15.40454
G1 X77.903 Y64.827 E15.67268
G1 X80.771 Y63.035 E15.94082
G1 X83.758 Y61.447 E16.20896
G1 X86.848 Y60.071 E16.47710
G1 X90.026 Y58.915 E16.74524
G1 X93.277 Y57.982 E17.01338
G1 X96.586 Y57.279 E17.28151
G1 X99.935 Y56.808 E17.54965
G1 X103.302 Y56.573 E17.81725
G1 X102.987 Y56.162 E17.85830
G1 X102.755 Y55.602 E17.90640
G1 X102.675 Y54.994 E17.95500
G1 X102.764 Y54.377 E18.00444
G1 X102.987 Y53.838 E18.05067
G1 X103.356 Y53.356 E18.09877
G1 X103.838 Y52.987 E18.14689
G1 X104.398 Y52.755 E18.19499
G1 X104.977 Y52.679 E18.24123
G1 X105.596 Y52.752 E18.29066
G1 X106.162 Y52.987 E18.33926
G1 X106.644 Y53.356 E18.38737
G1 X107.013 Y53.838 E18.43548
G1 X107.245 Y54.398 E18.48358
G1 X107.325 Y55.006 E18.53218
G1 X107.236 Y55.623 E18.58162
G1 X107.013 Y56.162 E18.62785
G1 X106.698 Y56.573 E18.66890
G1 X110.065 Y56.808 E18.93650
G1 X113.414 Y57.279 E19.20464
G1 X116.723 Y57.982 E19.47277
G1 X119.974 Y58.915 E19.74091
G1 X123.152 Y60.071 E20.00905
G1 X126.242 Y61.447 E20.27719
G1 X129.229 Y63.035 E20.54533
G1 X132.097 Y64.827 E20.81347
G1 X134.833 Y66.815 E21.08161
G1 X137.424 Y68.989 E21.34974
G1 X138.039 Y69.583 E21.41751
G1 X138.110 Y69.043 E21.46070
G1 X138.342 Y68.482 E21.50880
G1 X138.712 Y68.001 E21.55690
G1 X139.193 Y67.632 E21.60501
G1 X139.754 Y67.399 E21.65311
G1 X140.332 Y67.323 E21.69935
G1 X140.951 Y67.397 E21.74878
G1 X141.518 Y67.632 E21.79738
G1 X141.999 Y68.001 E21.84549
G1 X142.368 Y68.482 E21.89360
G1 X142.601 Y69.043 E21.94171
G1 X142.680 Y69.645 E21.98981
G1 X142.601 Y70.246 E22.03791
G1 X142.368 Y70.807 E22.08602
G1 X141.999 Y71.288 E22.13412
G1 X141.518 Y71.658 E22.18223
G1 X140.957 Y71.890 E22.23033
G1 X140.417 Y71.961 E22.27349
G1 X142.120 Y73.852 E22.47526
G1 X144.203 Y76.518 E22.74340
G1 X146.095 Y79.323 E23.01167
G1 X147.858 Y82.401 E23.29291
G1 X149.268 Y85.291 E23.54779
G1 X150.535 Y88.427 E23.81592
G1 X151.580 Y91.643 E24.08406
G1 X152.398 Y94.925 E24.35220
G1 X152.986 Y98.256 E24.62034
G1 X153.339 Y101.620 E24.88848
G1 X153.399 Y103.324 E25.02366
G1 X153.838 Y102.987 E25.06756
G1 X154.398 Y102.755 E25.11566
G1 X154.977 Y102.679 E25.16190
G1 X155.596 Y102.752 E25.21134
G1 X156.162 Y102.987 E25.25993
G1 X156.644 Y103.356 E25.30804
G1 X157.013 Y103.838 E25.35615
G1 X157.245 Y104.398 E25.40426
G1 X157.324 Y105.000 E25.45236
G1 X157.245 Y105.602 E25.50046
G1 X157.013 Y106.162 E25.54857
G1 X156.644 Y106.644 E25.59668
G1 X156.162 Y107.013 E25.64479
G1 X155.602 Y107.245 E25.69289
G1 X155.000 Y107.324 E25.74099
G1 X154.398 Y107.245 E25.78910
G1 X153.838 Y107.013 E25.83720
G1 X153.399 Y106.676 E25.88110
G1 X153.339 Y108.380 E26.01629
G1 X152.985 Y111.746 E26.28455
G1 X152.358 Y115.237 E26.56580
G1 X151.580 Y118.357 E26.82067
G1 X150.535 Y121.573 E27.08881
G1 X149.268 Y124.709 E27.35694
G1 X147.785 Y127.749 E27.62508
G1 X146.094 Y130.678 E27.89322
G1 X144.203 Y133.482 E28.16136
G1 X142.120 Y136.148 E28.42950
G1 X140.413 Y138.044 E28.63176
G1 X140.951 Y138.108 E28.67473
G1 X141.518 Y138.342 E28.72332
G1 X141.999 Y138.712 E28.77143
G1 X142.368 Y139.193 E28.81953
G1 X142.601 Y139.754 E28.86764
G1 X142.680 Y140.355 E28.91574
G1 X142.601 Y140.957 E28.96384
G1 X142.368 Y141.518 E29.01195
G1 X141.999 Y141.999 E29.06006
G1 X141.518 Y142.368 E29.10817
G1 X140.957 Y142.601 E29.15628
G1 X140.355 Y142.680 E29.20438
G1 X139.754 Y142.601 E29.25248
G1 X139.193 Y142.368 E29.30059
G1 X138.712 Y141.999 E29.34869
G1 X138.342 Y141.518 E29.39680
G1 X138.110 Y140.957 E29.44490
