; generated by Slic3r 1.3.1-dev on 2019-11-17 at 08:54:41

; Print Config Notes: 
; DMF_3D_0.3mmThin222HC25%
; 
; external perimeters extrusion width = 0.60mm (4.82mm^3/s)
; perimeters extrusion width = 0.54mm (5.71mm^3/s)
; infill extrusion width = 0.70mm (7.63mm^3/s)
; solid infill extrusion width = 0.51mm (5.35mm^3/s)
; top infill extrusion width = 0.51mm (5.35mm^3/s)

M190 S90 ; set bed temperature and wait for it to be reached
M104 S250 ; set temperature
G28 ; home all axes
; Filament gcode

M109 S250 ; set temperature and wait for it to be reached
G21 ; set units to millimeters
G90 ; use absolute coordinates
M82 ; use absolute distances for extrusion
G92 E0
G1 Z0.300 F4500.000
G1 E-0.60000 F900.00000
G92 E0
G1 X90.769 Y87.720 F4500.000
G1 E0.65000 F900.00000
G1 F1920
G1 X92.379 Y86.583 E0.80627
G1 X94.860 Y86.198 E1.00533
G1 X119.867 Y88.826 E2.99874
G1 X121.746 Y89.422 E3.15501
G1 X123.239 Y90.709 E3.31128
G1 X124.213 Y93.023 E3.51035
G1 X125.501 Y102.185 E4.24379
G1 X125.519 Y103.407 E4.34075
G1 X123.808 Y118.866 E5.57380
G1 X123.202 Y120.742 E5.73006
G1 X121.906 Y122.228 E5.88633
G1 X119.613 Y123.186 E6.08333
G1 X117.156 Y123.519 E6.27995
G1 X112.548 Y123.829 E6.64605
G1 X107.930 Y123.817 E7.01213
G1 X103.665 Y123.519 E7.35112
G1 X98.753 Y122.829 E7.74435
G1 X94.238 Y121.857 E8.11047
G1 X90.128 Y120.678 E8.44944
G1 X87.794 Y119.841 E8.64606
G1 X86.115 Y118.809 E8.80233
G1 X84.977 Y117.199 E8.95860
G1 X84.595 Y114.690 E9.15976
G1 X86.306 Y99.231 E10.39281
G1 X86.572 Y98.093 E10.48548
G1 X89.737 Y89.399 E11.21893
G1 X90.738 Y87.771 E11.37045
G1 X91.319 Y88.066 F4500.000
G1 F1920
G1 X92.865 Y87.072 E11.51613
G1 X94.794 Y86.830 E11.67025
G1 X119.801 Y89.458 E13.66365
G1 X121.544 Y90.039 E13.80934
G1 X122.882 Y91.299 E13.95503
G1 X123.584 Y93.112 E14.10915
G1 X124.872 Y102.273 E14.84259
G1 X124.887 Y103.338 E14.92698
G1 X123.176 Y118.797 E16.16003
G1 X122.585 Y120.537 E16.30572
G1 X121.318 Y121.868 E16.45140
G1 X119.525 Y122.556 E16.60370
G1 X117.111 Y122.885 E16.79681
G1 X112.846 Y123.183 E17.13578
G1 X108.272 Y123.194 E17.49836
G1 X103.709 Y122.885 E17.86095
G1 X98.885 Y122.207 E18.24715
G1 X94.414 Y121.246 E18.60975
G1 X90.303 Y120.067 E18.94872
G1 X88.011 Y119.244 E19.14183
G1 X86.460 Y118.259 E19.28751
G1 X85.466 Y116.713 E19.43320
G1 X85.227 Y114.760 E19.58915
G1 X86.938 Y99.301 E20.82220
G1 X87.170 Y98.310 E20.90287
G1 X90.334 Y89.617 E21.63632
G1 X91.287 Y88.116 E21.77724
G1 X91.865 Y88.421 F4500.000
G1 F1920
G1 X93.338 Y87.585 E21.91151
G1 X94.728 Y87.462 E22.02210
G1 X119.734 Y90.090 E24.01551
G1 X121.331 Y90.655 E24.14978
G1 X122.499 Y91.882 E24.28405
G1 X122.955 Y93.200 E24.39464
G1 X124.242 Y102.362 E25.12808
G1 X124.255 Y103.268 E25.19991
G1 X122.544 Y118.727 E26.43296
G1 X121.971 Y120.320 E26.56723
G1 X120.738 Y121.481 E26.70150
G1 X119.436 Y121.927 E26.81053
G1 X117.319 Y122.224 E26.98002
G1 X112.802 Y122.549 E27.33909
G1 X108.019 Y122.549 E27.71825
G1 X103.501 Y122.224 E28.07734
G1 X99.017 Y121.585 E28.43640
G1 X94.589 Y120.635 E28.79549
G1 X90.479 Y119.456 E29.13446
G1 X88.228 Y118.647 E29.32405
G1 X86.816 Y117.713 E29.45832
G1 X85.979 Y116.240 E29.59259
G1 X85.858 Y114.830 E29.70475
G1 X87.570 Y99.371 E30.93780
G1 X87.767 Y98.528 E31.00646
G1 X90.931 Y89.834 E31.73991
G1 X91.832 Y88.471 E31.86942
G1 E31.26942 F900.00000
G92 E0
G1 X117.817 Y117.488 F4500.000
G1 E0.65000 F900.00000
G1 F1920
G1 X116.710 Y117.643 E0.73862
G1 X112.514 Y117.937 E1.07213
G1 X108.307 Y117.937 E1.40564
G1 X104.110 Y117.643 E1.73915
G1 X99.944 Y117.058 E2.07266
G1 X95.830 Y116.183 E2.40616
G1 X91.786 Y115.024 E2.73968
G1 X90.735 Y114.641 E2.82830
G1 X93.225 Y107.800 E3.40546
G1 X94.037 Y108.095 E3.47391
G1 X97.592 Y109.115 E3.76712
G1 X101.209 Y109.884 E4.06032
G1 X104.872 Y110.398 E4.35352
G1 X108.561 Y110.656 E4.64672
G1 X112.260 Y110.656 E4.93992
G1 X115.949 Y110.398 E5.23312
G1 X116.804 Y110.278 E5.30158
G1 X117.809 Y117.428 E5.87399
G1 X118.535 Y118.029 F4500.000
G1 F1440
G1 X116.777 Y118.276 E6.01475
G1 X112.536 Y118.572 E6.35178
G1 X108.285 Y118.572 E6.68881
G1 X104.044 Y118.276 E7.02584
G1 X99.834 Y117.684 E7.36287
G1 X95.676 Y116.800 E7.69990
G1 X91.589 Y115.628 E8.03693
G1 X89.921 Y115.021 E8.17770
G1 X92.845 Y106.985 E8.85564
G1 X94.233 Y107.491 E8.97273
G1 X97.746 Y108.498 E9.26242
G1 X101.320 Y109.257 E9.55209
G1 X104.938 Y109.766 E9.84178
G1 X108.583 Y110.021 E10.13146
G1 X112.237 Y110.021 E10.42114
G1 X115.882 Y109.766 E10.71082
G1 X117.345 Y109.560 E10.82791
G1 X118.527 Y117.969 E11.50110
G1 X118.156 Y117.900 F4500.000
G1 X117.054 Y116.992 F4500.000
G1 F1920
G1 X117.144 Y116.902 E11.51131
G1 X117.032 Y116.104 E11.57587
G1 X116.042 Y117.095 E11.68818
G1 X115.064 Y117.163 E11.76678
G1 X116.920 Y115.307 E11.97726
G1 X116.808 Y114.510 E12.04182
G1 X114.087 Y117.231 E12.35048
G1 X113.109 Y117.300 E12.42907
G1 X116.696 Y113.713 E12.83590
G1 X116.584 Y112.915 E12.90047
G1 X112.153 Y117.346 E13.40297
G1 X111.244 Y117.346 E13.47590
G1 X116.472 Y112.118 E14.06882
G1 X116.360 Y111.321 E14.13339
G1 X110.335 Y117.346 E14.81673
G1 X109.425 Y117.346 E14.88966
G1 X115.765 Y111.007 E15.60863
G1 X114.787 Y111.075 E15.68723
G1 X108.516 Y117.346 E16.39844
G1 X107.651 Y117.302 E16.46791
G1 X113.809 Y111.143 E17.16635
G1 X112.832 Y111.212 E17.24495
G1 X106.801 Y117.242 E17.92889
G1 X105.951 Y117.183 E17.99722
G1 X111.887 Y111.247 E18.67042
G1 X110.978 Y111.247 E18.74335
G1 X105.101 Y117.123 E19.40981
G1 X104.252 Y117.064 E19.47813
G1 X110.068 Y111.247 E20.13786
G1 X109.159 Y111.247 E20.21078
G1 X103.447 Y116.959 E20.85864
G1 X102.650 Y116.847 E20.92321
G1 X108.272 Y111.225 E21.56083
G1 X107.422 Y111.166 E21.62916
G1 X101.852 Y116.735 E22.26081
G1 X101.055 Y116.623 E22.32538
G1 X106.572 Y111.106 E22.95107
G1 X105.722 Y111.047 E23.01939
G1 X100.258 Y116.511 E23.63911
G1 X99.493 Y116.367 E23.70152
G1 X104.872 Y110.988 E24.31158
G1 X104.073 Y110.877 E24.37623
G1 X98.743 Y116.207 E24.98076
G1 X97.993 Y116.048 E25.04225
G1 X103.276 Y110.765 E25.64141
G1 X102.479 Y110.653 E25.70598
G1 X97.243 Y115.888 E26.29977
G1 X96.493 Y115.729 E26.36125
G1 X101.682 Y110.541 E26.94967
G1 X100.900 Y110.413 E27.01320
G1 X95.755 Y115.558 E27.59672
G1 X95.048 Y115.356 E27.65568
G1 X100.150 Y110.254 E28.23430
G1 X99.400 Y110.095 E28.29578
G1 X94.341 Y115.153 E28.86949
G1 X93.635 Y114.950 E28.92845
G1 X98.650 Y109.935 E29.49726
G1 X97.900 Y109.776 E29.55874
G1 X92.928 Y114.748 E30.12265
G1 X92.221 Y114.545 E30.18160
G1 X97.169 Y109.597 E30.74278
G1 X96.463 Y109.394 E30.80173
G1 X91.539 Y114.319 E31.36019
G1 X91.505 Y114.306 E31.36307
G1 X91.999 Y112.949 E31.47891
G1 X95.756 Y109.192 E31.90502
G1 X95.049 Y108.989 E31.96398
G1 X92.519 Y111.519 E32.25093
G1 X93.040 Y110.090 E32.37294
G1 X94.343 Y108.787 E32.52073
G1 X93.650 Y108.570 E32.57893
G1 X93.560 Y108.660 E32.58912
G1 E31.98912 F900.00000
G92 E0
G1 X119.529 Y102.029 F4500.000
G1 E0.65000 F900.00000
G1 F1920
G1 X118.422 Y102.184 E0.73862
G1 X114.225 Y102.478 E1.07213
G1 X110.018 Y102.478 E1.40564
G1 X105.822 Y102.184 E1.73915
G1 X101.656 Y101.599 E2.07266
G1 X97.541 Y100.724 E2.40616
G1 X93.497 Y99.564 E2.73968
G1 X92.447 Y99.182 E2.82830
G1 X94.937 Y92.341 E3.40546
G1 X95.748 Y92.636 E3.47391
G1 X99.303 Y93.656 E3.76712
G1 X102.921 Y94.425 E4.06032
G1 X106.583 Y94.939 E4.35352
G1 X110.273 Y95.197 E4.64672
G1 X113.971 Y95.197 E4.93992
G1 X117.660 Y94.939 E5.23312
G1 X118.516 Y94.819 E5.30158
G1 X119.520 Y101.969 E5.87399
G1 X120.247 Y102.570 F4500.000
G1 F1440
G1 X118.488 Y102.817 E6.01475
G1 X114.247 Y103.113 E6.35178
G1 X109.996 Y103.113 E6.68881
G1 X105.755 Y102.817 E7.02584
G1 X101.545 Y102.225 E7.36287
G1 X97.387 Y101.341 E7.69990
G1 X93.300 Y100.169 E8.03693
G1 X91.632 Y99.562 E8.17770
G1 X94.557 Y91.526 E8.85564
G1 X95.945 Y92.032 E8.97273
G1 X99.457 Y93.039 E9.26242
G1 X103.031 Y93.798 E9.55209
G1 X106.650 Y94.307 E9.84178
G1 X110.295 Y94.562 E10.13146
G1 X113.949 Y94.562 E10.42114
G1 X117.594 Y94.307 E10.71082
G1 X119.056 Y94.101 E10.82791
G1 X120.238 Y102.510 E11.50110
G1 X119.868 Y102.441 F4500.000
G1 X118.766 Y101.533 F4500.000
G1 F1920
G1 X118.856 Y101.443 E11.51131
G1 X118.744 Y100.645 E11.57587
G1 X117.753 Y101.636 E11.68818
G1 X116.776 Y101.704 E11.76678
G1 X118.632 Y99.848 E11.97726
G1 X118.520 Y99.051 E12.04182
G1 X115.798 Y101.772 E12.35048
G1 X114.820 Y101.841 E12.42907
G1 X118.408 Y98.254 E12.83590
G1 X118.296 Y97.456 E12.90047
G1 X113.865 Y101.887 E13.40297
G1 X112.956 Y101.887 E13.47590
G1 X118.183 Y96.659 E14.06882
G1 X118.071 Y95.862 E14.13339
G1 X112.046 Y101.887 E14.81673
G1 X111.137 Y101.887 E14.88966
G1 X117.476 Y95.548 E15.60863
G1 X116.499 Y95.616 E15.68723
G1 X110.228 Y101.887 E16.39844
G1 X109.363 Y101.843 E16.46791
G1 X115.521 Y95.684 E17.16635
G1 X114.543 Y95.753 E17.24495
G1 X108.513 Y101.783 E17.92889
G1 X107.663 Y101.724 E17.99722
G1 X113.599 Y95.788 E18.67042
G1 X112.689 Y95.788 E18.74335
G1 X106.813 Y101.664 E19.40981
G1 X105.963 Y101.605 E19.47813
G1 X111.780 Y95.788 E20.13786
G1 X110.871 Y95.788 E20.21078
G1 X105.158 Y101.500 E20.85864
G1 X104.361 Y101.388 E20.92321
G1 X109.983 Y95.766 E21.56083
G1 X109.133 Y95.707 E21.62916
G1 X103.564 Y101.276 E22.26081
G1 X102.767 Y101.164 E22.32538
G1 X108.283 Y95.647 E22.95107
G1 X107.433 Y95.588 E23.01939
G1 X101.969 Y101.052 E23.63911
G1 X101.205 Y100.907 E23.70152
G1 X106.584 Y95.529 E24.31158
G1 X105.785 Y95.418 E24.37623
G1 X100.455 Y100.748 E24.98076
G1 X99.705 Y100.589 E25.04225
G1 X104.988 Y95.306 E25.64141
G1 X104.190 Y95.194 E25.70598
G1 X98.955 Y100.429 E26.29977
G1 X98.205 Y100.270 E26.36125
G1 X103.393 Y95.082 E26.94967
G1 X102.611 Y94.954 E27.01320
G1 X97.466 Y100.099 E27.59672
G1 X96.760 Y99.897 E27.65568
G1 X101.861 Y94.795 E28.23430
G1 X101.111 Y94.635 E28.29578
G1 X96.053 Y99.694 E28.86949
G1 X95.346 Y99.491 E28.92845
G1 X100.361 Y94.476 E29.49726
G1 X99.612 Y94.317 E29.55874
G1 X94.640 Y99.289 E30.12265
G1 X93.933 Y99.086 E30.18160
G1 X98.881 Y94.138 E30.74278
G1 X98.174 Y93.935 E30.80173
G1 X93.250 Y98.860 E31.36019
G1 X93.216 Y98.847 E31.36307
G1 X93.710 Y97.490 E31.47891
G1 X97.468 Y93.733 E31.90502
G1 X96.761 Y93.530 E31.96398
G1 X94.231 Y96.060 E32.25093
G1 X94.751 Y94.631 E32.37294
G1 X96.054 Y93.328 E32.52073
G1 X95.362 Y93.111 E32.57893
G1 X95.272 Y93.201 E32.58912
G1 Z0.600 F4500.000
G1 E31.98912 F900.00000
G92 E0
G1 X118.021 Y117.641 F4500.000
G1 E0.65000 F900.00000
G1 F2400
G1 X116.729 Y117.822 E0.72736
G1 X112.520 Y118.117 E0.97766
G1 X108.301 Y118.117 E1.22797
G1 X104.091 Y117.822 E1.47827
G1 X99.913 Y117.235 E1.72858
G1 X95.786 Y116.358 E1.97888
G1 X91.730 Y115.195 E2.22918
G1 X90.504 Y114.749 E2.30655
G1 X93.118 Y107.569 E2.75978
G1 X94.092 Y107.924 E2.82131
G1 X97.635 Y108.940 E3.03996
G1 X101.241 Y109.706 E3.25861
G1 X104.891 Y110.219 E3.47726
G1 X108.567 Y110.476 E3.69591
G1 X112.253 Y110.476 E3.91455
G1 X115.918 Y110.221 E4.13249
G1 X116.957 Y110.075 E4.19474
G1 X118.012 Y117.581 E4.64441
G1 X118.592 Y118.071 F4500.000
G1 F1800
G1 X116.782 Y118.326 E4.76649
G1 X112.538 Y118.622 E5.05073
G1 X108.283 Y118.622 E5.33497
G1 X104.039 Y118.326 E5.61921
G1 X99.825 Y117.733 E5.90345
G1 X95.664 Y116.849 E6.18768
G1 X91.574 Y115.676 E6.47193
G1 X89.856 Y115.051 E6.59400
G1 X92.815 Y106.921 E7.17197
G1 X94.249 Y107.443 E7.27386
G1 X97.758 Y108.449 E7.51774
G1 X101.328 Y109.208 E7.76161
G1 X104.943 Y109.716 E8.00548
G1 X108.585 Y109.971 E8.24935
G1 X112.236 Y109.971 E8.49322
G1 X115.865 Y109.718 E8.73630
G1 X117.388 Y109.504 E8.83900
G1 X118.583 Y118.012 E9.41295
G1 X118.213 Y117.943 F4500.000
G1 X116.598 Y110.628 F4500.000
G1 F2400
G1 X116.533 Y110.563 E9.41815
G1 X115.973 Y110.641 E9.44993
G1 X116.702 Y111.370 E9.50795
G1 X116.806 Y112.113 E9.55013
G1 X115.379 Y110.685 E9.66369
G1 X114.783 Y110.727 E9.69734
G1 X116.911 Y112.855 E9.86667
G1 X117.015 Y113.597 E9.90885
G1 X114.186 Y110.769 E10.13395
G1 X113.590 Y110.810 E10.16759
G1 X117.119 Y114.340 E10.44845
G1 X117.224 Y115.082 E10.49063
G1 X112.994 Y110.852 E10.82725
G1 X112.397 Y110.893 E10.86089
G1 X117.328 Y115.824 E11.25328
G1 X117.432 Y116.567 E11.29546
G1 X111.770 Y110.905 E11.74603
G1 X111.132 Y110.905 E11.78193
G1 X117.512 Y117.284 E12.28961
G1 X116.953 Y117.363 E12.32140
G1 X110.494 Y110.905 E12.83533
G1 X109.856 Y110.905 E12.87123
G1 X116.372 Y117.420 E13.38974
G1 X115.776 Y117.462 E13.42338
G1 X109.218 Y110.905 E13.94521
G1 X108.580 Y110.905 E13.98111
G1 X115.180 Y117.504 E14.50625
G1 X114.583 Y117.546 E14.53989
G1 X107.899 Y110.861 E15.07180
G1 X107.213 Y110.813 E15.11050
G1 X113.987 Y117.587 E15.64954
G1 X113.391 Y117.629 E15.68318
G1 X106.527 Y110.765 E16.22936
G1 X105.841 Y110.717 E16.26805
G1 X112.794 Y117.671 E16.82137
G1 X112.174 Y117.689 E16.85627
G1 X105.155 Y110.669 E17.41484
G1 X104.810 Y110.645 E17.43431
G1 X104.441 Y110.593 E17.45527
G1 X111.536 Y117.689 E18.01988
G1 X110.898 Y117.689 E18.05578
G1 X103.699 Y110.489 E18.62870
G1 X102.956 Y110.385 E18.67088
G1 X110.260 Y117.689 E19.25209
G1 X109.622 Y117.689 E19.28799
G1 X102.214 Y110.280 E19.87751
G1 X101.472 Y110.176 E19.91969
G1 X108.984 Y117.689 E20.51751
G1 X108.346 Y117.688 E20.55342
G1 X100.693 Y110.035 E21.16243
G1 X99.883 Y109.863 E21.20904
G1 X107.660 Y117.640 E21.82793
G1 X106.974 Y117.592 E21.86662
G1 X99.073 Y109.691 E22.49540
G1 X98.262 Y109.519 E22.54201
G1 X106.288 Y117.545 E23.18068
G1 X105.602 Y117.497 E23.21937
G1 X97.448 Y109.342 E23.86825
G1 X96.553 Y109.086 E23.92061
G1 X104.916 Y117.449 E24.58609
G1 X104.230 Y117.401 E24.62478
G1 X95.659 Y108.829 E25.30686
G1 X94.764 Y108.573 E25.35922
G1 X103.493 Y117.301 E26.05378
G1 X102.750 Y117.197 E26.09596
G1 X93.864 Y108.311 E26.80309
G1 X93.360 Y108.127 E26.83326
G1 X93.276 Y108.360 E26.84720
G1 X102.008 Y117.092 E27.54209
G1 X101.266 Y116.988 E27.58427
G1 X93.105 Y108.828 E28.23364
G1 X92.935 Y109.295 E28.26165
G1 X100.523 Y116.884 E28.86549
G1 X99.759 Y116.757 E28.90911
G1 X92.765 Y109.763 E29.46564
G1 X92.595 Y110.231 E29.49365
G1 X98.948 Y116.585 E29.99926
G1 X98.138 Y116.413 E30.04587
G1 X92.424 Y110.699 E30.50056
G1 X92.254 Y111.166 E30.52857
G1 X97.328 Y116.240 E30.93233
G1 X96.518 Y116.068 E30.97894
G1 X92.084 Y111.634 E31.33177
G1 X91.914 Y112.102 E31.35978
G1 X95.684 Y115.873 E31.65985
G1 X94.790 Y115.616 E31.71221
G1 X91.743 Y112.570 E31.95465
G1 X91.573 Y113.038 E31.98266
G1 X93.895 Y115.360 E32.16746
G1 X93.001 Y115.103 E32.21982
G1 X91.403 Y113.505 E32.34699
G1 X91.233 Y113.973 E32.37500
G1 X92.106 Y114.847 E32.44453
G1 X91.128 Y114.506 E32.50284
G1 X91.062 Y114.441 E32.50804
G1 E31.90804 F900.00000
G92 E0
G1 X119.732 Y102.182 F4500.000
G1 E0.65000 F900.00000
G1 F2400
G1 X118.441 Y102.363 E0.72736
G1 X114.231 Y102.658 E0.97766
G1 X110.012 Y102.658 E1.22797
G1 X105.803 Y102.363 E1.47827
G1 X101.625 Y101.776 E1.72858
G1 X97.497 Y100.899 E1.97888
G1 X93.441 Y99.736 E2.22918
G1 X92.216 Y99.290 E2.30655
G1 X94.829 Y92.110 E2.75978
G1 X95.804 Y92.465 E2.82131
G1 X99.347 Y93.481 E3.03996
G1 X102.952 Y94.247 E3.25861
G1 X106.602 Y94.760 E3.47726
G1 X110.279 Y95.017 E3.69591
G1 X113.965 Y95.017 E3.91455
G1 X117.629 Y94.762 E4.13249
G1 X118.669 Y94.616 E4.19474
G1 X119.724 Y102.122 E4.64441
G1 X120.303 Y102.612 F4500.000
G1 F1800
G1 X118.494 Y102.866 E4.76649
G1 X114.249 Y103.163 E5.05073
G1 X109.994 Y103.163 E5.33497
G1 X105.750 Y102.866 E5.61921
G1 X101.537 Y102.274 E5.90345
G1 X97.375 Y101.390 E6.18768
G1 X93.285 Y100.217 E6.47193
G1 X91.568 Y99.592 E6.59400
G1 X94.527 Y91.462 E7.17197
G1 X95.960 Y91.984 E7.27386
G1 X99.469 Y92.990 E7.51774
G1 X103.040 Y93.749 E7.76161
G1 X106.655 Y94.257 E8.00548
G1 X110.297 Y94.512 E8.24935
G1 X113.947 Y94.512 E8.49322
G1 X117.577 Y94.259 E8.73630
G1 X119.099 Y94.045 E8.83900
G1 X120.295 Y102.553 E9.41295
G1 X119.924 Y102.484 F4500.000
G1 X118.309 Y95.169 F4500.000
G1 F2400
G1 X118.244 Y95.104 E9.41815
G1 X117.685 Y95.182 E9.44993
G1 X118.414 Y95.911 E9.50795
G1 X118.518 Y96.654 E9.55013
G1 X117.091 Y95.226 E9.66369
G1 X116.494 Y95.268 E9.69734
G1 X118.622 Y97.396 E9.86667
G1 X118.727 Y98.138 E9.90885
G1 X115.898 Y95.310 E10.13395
G1 X115.301 Y95.351 E10.16759
G1 X118.831 Y98.881 E10.44845
G1 X118.935 Y99.623 E10.49063
