; generated by Slic3r 1.3.1-dev on 2019-10-05 at 14:42:59

; Print Config Notes: 
; DMF_3D_0.3mmThin222HC25%
; 
; external perimeters extrusion width = 0.60mm (4.82mm^3/s)
; perimeters extrusion width = 0.54mm (5.71mm^3/s)
; infill extrusion width = 0.70mm (7.63mm^3/s)
; solid infill extrusion width = 0.51mm (5.35mm^3/s)
; top infill extrusion width = 0.51mm (5.35mm^3/s)

M190 S90 ; set bed temperature and wait for it to be reached
M104 S250 ; set temperature
G28 ; home all axes
; Filament gcode

M109 S250 ; set temperature and wait for it to be reached
G21 ; set units to millimeters
G90 ; use absolute coordinates
M82 ; use absolute distances for extrusion
G92 E0
G1 Z0.300 F4500.000
G1 E-0.60000 F900.00000
G92 E0
G1 X37.039 Y51.571 F4500.000
G1 E0.65000 F900.00000
G1 F1920
G1 X53.369 Y35.242 E2.48078
G1 X54.611 Y34.339 E2.60248
G1 X77.452 Y22.701 E4.63483
G1 X78.912 Y22.226 E4.75654
G1 X104.232 Y18.216 E6.78888
G1 X105.768 Y18.216 E6.91059
G1 X131.088 Y22.226 E8.94293
G1 X132.548 Y22.701 E9.06463
G1 X155.389 Y34.339 E11.09699
G1 X156.631 Y35.242 E11.21869
G1 X174.758 Y53.369 E13.25103
G1 X175.661 Y54.611 E13.37274
G1 X176.780 Y56.808 E13.56825
G1 X187.299 Y77.452 E15.40510
G1 X187.774 Y78.912 E15.52679
G1 X191.784 Y104.232 E17.55913
G1 X191.784 Y105.768 E17.68084
G1 X187.774 Y131.088 E19.71320
G1 X187.299 Y132.548 E19.83489
G1 X176.815 Y153.124 E21.66567
G1 X175.661 Y155.389 E21.86724
G1 X174.758 Y156.631 E21.98894
G1 X156.631 Y174.758 E24.02128
G1 X155.389 Y175.661 E24.14299
G1 X153.124 Y176.815 E24.34456
G1 X132.548 Y187.299 E26.17534
G1 X131.088 Y187.774 E26.29703
G1 X105.768 Y191.784 E28.32939
G1 X104.232 Y191.784 E28.45110
G1 X78.912 Y187.774 E30.48343
G1 X77.452 Y187.299 E30.60513
G1 X54.611 Y175.661 E32.63749
G1 X53.369 Y174.758 E32.75920
G1 X35.242 Y156.631 E34.79154
G1 X34.339 Y155.389 E34.91324
G1 X33.185 Y153.124 E35.11481
G1 X22.701 Y132.548 E36.94559
G1 X22.226 Y131.088 E37.06730
G1 X18.216 Y105.768 E39.09964
G1 X18.216 Y104.232 E39.22135
G1 X22.226 Y78.912 E41.25369
G1 X22.701 Y77.452 E41.37540
G1 X34.339 Y54.611 E43.40775
G1 X35.242 Y53.369 E43.52945
G1 X36.997 Y51.613 E43.72626
G1 X37.489 Y52.020 F4500.000
G1 F1920
G1 X53.818 Y35.691 E45.55704
G1 X54.899 Y34.906 E45.66297
G1 X77.741 Y23.267 E47.69532
G1 X79.012 Y22.854 E47.80127
G1 X104.332 Y18.844 E49.83361
G1 X105.668 Y18.844 E49.93955
G1 X130.988 Y22.854 E51.97189
G1 X132.259 Y23.267 E52.07783
G1 X155.101 Y34.906 E54.11018
G1 X156.182 Y35.691 E54.21612
G1 X174.309 Y53.818 E56.24846
G1 X175.094 Y54.899 E56.35440
G1 X176.214 Y57.097 E56.54992
G1 X186.733 Y77.741 E58.38676
G1 X187.146 Y79.012 E58.49269
G1 X191.156 Y104.332 E60.52503
G1 X191.156 Y105.668 E60.63097
G1 X187.146 Y130.988 E62.66333
G1 X186.733 Y132.259 E62.76926
G1 X176.249 Y152.835 E64.60004
G1 X175.094 Y155.101 E64.80161
G1 X174.309 Y156.182 E64.90755
G1 X156.182 Y174.309 E66.93989
G1 X155.101 Y175.094 E67.04583
G1 X152.835 Y176.249 E67.24739
G1 X132.259 Y186.733 E69.07818
G1 X130.988 Y187.146 E69.18410
G1 X105.668 Y191.156 E71.21646
G1 X104.332 Y191.156 E71.32240
G1 X79.012 Y187.146 E73.35474
G1 X77.741 Y186.733 E73.46067
G1 X54.899 Y175.094 E75.49303
G1 X53.818 Y174.309 E75.59897
G1 X35.691 Y156.182 E77.63132
G1 X34.906 Y155.101 E77.73725
G1 X33.751 Y152.835 E77.93882
G1 X23.267 Y132.259 E79.76960
G1 X22.854 Y130.988 E79.87554
G1 X18.844 Y105.668 E81.90788
G1 X18.844 Y104.332 E82.01383
G1 X22.854 Y79.012 E84.04616
G1 X23.267 Y77.741 E84.15211
G1 X34.906 Y54.899 E86.18446
G1 X35.691 Y53.818 E86.29040
G1 X37.446 Y52.063 E86.48720
G1 X37.938 Y52.470 F4500.000
G1 F1920
G1 X54.268 Y36.140 E88.31798
G1 X55.188 Y35.472 E88.40815
G1 X78.029 Y23.834 E90.44050
G1 X79.111 Y23.482 E90.53068
G1 X104.431 Y19.472 E92.56302
G1 X105.569 Y19.472 E92.65320
G1 X130.889 Y23.482 E94.68554
G1 X131.971 Y23.834 E94.77571
G1 X152.547 Y34.318 E96.60650
G1 X154.812 Y35.472 E96.80806
G1 X155.732 Y36.141 E96.89824
G1 X173.859 Y54.268 E98.93058
G1 X174.528 Y55.188 E99.02075
G1 X175.648 Y57.385 E99.21627
G1 X186.167 Y78.030 E101.05311
G1 X186.518 Y79.111 E101.14328
G1 X190.528 Y104.431 E103.17562
G1 X190.528 Y105.569 E103.26579
G1 X186.518 Y130.889 E105.29815
G1 X186.166 Y131.971 E105.38831
G1 X175.682 Y152.547 E107.21909
G1 X174.528 Y154.812 E107.42066
G1 X173.859 Y155.732 E107.51083
G1 X155.732 Y173.859 E109.54317
G1 X154.812 Y174.528 E109.63335
G1 X152.547 Y175.682 E109.83492
G1 X131.971 Y186.166 E111.66570
G1 X130.889 Y186.518 E111.75586
G1 X105.569 Y190.528 E113.78821
G1 X104.431 Y190.528 E113.87839
G1 X79.111 Y186.518 E115.91073
G1 X78.030 Y186.167 E116.00090
G1 X55.188 Y174.528 E118.03326
G1 X54.268 Y173.859 E118.12343
G1 X36.140 Y155.732 E120.15578
G1 X35.472 Y154.812 E120.24594
G1 X34.318 Y152.547 E120.44751
G1 X23.834 Y131.971 E122.27830
G1 X23.482 Y130.889 E122.36847
G1 X19.472 Y105.569 E124.40081
G1 X19.472 Y104.431 E124.49099
G1 X23.482 Y79.111 E126.52333
G1 X23.834 Y78.029 E126.61350
G1 X35.472 Y55.188 E128.64586
G1 X36.141 Y54.268 E128.73603
G1 X37.896 Y52.512 E128.93284
G1 E128.33284 F900.00000
G92 E0
G1 X114.984 Y171.883 F4500.000
G1 E0.65000 F900.00000
G1 F720
G1 X115.566 Y171.711 E0.69811
G1 X116.138 Y171.696 E0.74344
G1 X116.755 Y171.833 E0.79354
G1 X117.296 Y172.126 E0.84236
G1 X117.736 Y172.544 E0.89047
G1 X118.053 Y173.061 E0.93857
G1 X118.225 Y173.643 E0.98667
G1 X118.241 Y174.250 E1.03477
G1 X118.100 Y174.840 E1.08289
G1 X117.810 Y175.373 E1.13100
G1 X117.392 Y175.813 E1.17910
G1 X116.875 Y176.130 E1.22720
G1 X116.293 Y176.303 E1.27530
G1 X115.687 Y176.319 E1.32341
G1 X115.097 Y176.177 E1.37152
G1 X114.594 Y175.904 E1.41684
G1 X114.121 Y175.471 E1.46768
G1 X113.796 Y174.919 E1.51851
G1 X113.634 Y174.370 E1.56383
G1 X113.618 Y173.755 E1.61265
G1 X113.776 Y173.143 E1.66275
G1 X114.049 Y172.641 E1.70808
G1 X114.467 Y172.200 E1.75618
G1 X114.933 Y171.915 E1.79953
G1 X115.245 Y172.469 F4500.000
G1 F720
G1 X115.666 Y172.344 E1.83437
G1 X116.076 Y172.333 E1.86689
G1 X116.530 Y172.434 E1.90373
G1 X116.919 Y172.645 E1.93882
G1 X117.238 Y172.948 E1.97366
G1 X117.467 Y173.322 E2.00849
G1 X117.592 Y173.743 E2.04333
G1 X117.604 Y174.183 E2.07816
G1 X117.501 Y174.610 E2.11300
G1 X117.291 Y174.996 E2.14785
G1 X116.989 Y175.315 E2.18268
G1 X116.614 Y175.545 E2.21751
G1 X116.193 Y175.669 E2.25235
G1 X115.754 Y175.681 E2.28719
G1 X115.326 Y175.578 E2.32203
G1 X114.966 Y175.383 E2.35455
G1 X114.621 Y175.067 E2.39165
G1 X114.384 Y174.663 E2.42874
G1 X114.267 Y174.270 E2.46126
G1 X114.255 Y173.828 E2.49635
G1 X114.372 Y173.378 E2.53318
G1 X114.568 Y173.017 E2.56570
G1 X114.870 Y172.699 E2.60054
G1 X115.194 Y172.500 E2.63062
G1 X115.245 Y172.469 F4500.000
G1 E2.03062 F900.00000
G92 E0
G1 X123.530 Y170.934 F4500.000
G1 E0.65000 F900.00000
G1 F720
G1 X123.456 Y170.534 E0.68221
G1 X123.520 Y169.794 E0.74112
G1 X123.757 Y169.123 E0.79755
G1 X124.171 Y168.522 E0.85537
G1 X124.725 Y168.048 E0.91320
G1 X125.384 Y167.734 E0.97103
G1 X126.083 Y167.605 E1.02745
G1 X126.825 Y167.657 E1.08637
G1 X127.516 Y167.902 E1.14449
G1 X128.120 Y168.317 E1.20262
G1 X128.598 Y168.886 E1.26154
G1 X128.905 Y169.528 E1.31796
G1 X129.038 Y170.249 E1.37607
G1 X128.974 Y170.990 E1.43498
G1 X128.737 Y171.660 E1.49140
G1 X128.324 Y172.262 E1.54923
G1 X127.769 Y172.735 E1.60706
G1 X127.111 Y173.049 E1.66489
G1 X126.393 Y173.182 E1.72272
G1 X125.666 Y173.125 E1.78056
G1 X124.979 Y172.882 E1.83838
G1 X124.374 Y172.466 E1.89651
G1 X123.896 Y171.898 E1.95543
G1 X123.590 Y171.255 E2.01185
G1 X123.541 Y170.993 E2.03299
G1 X124.155 Y170.818 F4500.000
G1 F720
G1 X124.097 Y170.503 E2.05838
G1 X124.146 Y169.930 E2.10403
G1 X124.329 Y169.414 E2.14737
G1 X124.647 Y168.951 E2.19193
G1 X125.074 Y168.586 E2.23649
G1 X125.582 Y168.344 E2.28105
G1 X126.119 Y168.244 E2.32439
G1 X126.694 Y168.285 E2.37004
G1 X127.225 Y168.473 E2.41471
G1 X127.689 Y168.792 E2.45937
G1 X128.060 Y169.233 E2.50502
G1 X128.295 Y169.727 E2.54836
G1 X128.398 Y170.280 E2.59302
G1 X128.348 Y170.854 E2.63866
G1 X128.166 Y171.369 E2.68201
G1 X127.847 Y171.833 E2.72657
G1 X127.420 Y172.198 E2.77113
G1 X126.912 Y172.440 E2.81569
G1 X126.360 Y172.542 E2.86026
G1 X125.799 Y172.498 E2.90482
G1 X125.270 Y172.310 E2.94938
G1 X124.805 Y171.991 E2.99405
G1 X124.435 Y171.551 E3.03970
G1 X124.199 Y171.057 E3.08304
G1 X124.166 Y170.877 E3.09755
G1 X123.847 Y170.730 F4500.000
G1 E2.49755 F900.00000
G92 E0
G1 X134.445 Y167.735 F4500.000
G1 E0.65000 F900.00000
G1 F720
G1 X134.398 Y167.130 E0.69812
G1 X134.508 Y166.534 E0.74622
G1 X134.770 Y165.986 E0.79433
G1 X135.164 Y165.525 E0.84243
G1 X135.664 Y165.181 E0.89052
G1 X136.236 Y164.978 E0.93864
G1 X136.806 Y164.934 E0.98397
G1 X137.429 Y165.037 E1.03406
G1 X137.985 Y165.302 E1.08289
G1 X138.446 Y165.697 E1.13100
G1 X138.790 Y166.197 E1.17911
G1 X138.993 Y166.769 E1.22722
G1 X139.040 Y167.374 E1.27531
G1 X138.930 Y167.970 E1.32343
G1 X138.668 Y168.518 E1.37154
G1 X138.274 Y168.979 E1.41963
G1 X137.774 Y169.323 E1.46775
G1 X137.235 Y169.514 E1.51308
G1 X136.606 Y169.575 E1.56317
G1 X136.001 Y169.463 E1.61198
G1 X135.485 Y169.217 E1.65732
G1 X134.997 Y168.815 E1.70743
G1 X134.648 Y168.307 E1.75624
G1 X134.465 Y167.792 E1.79959
G1 X135.072 Y167.602 F4500.000
G1 F720
G1 X135.038 Y167.164 E1.83443
G1 X135.118 Y166.732 E1.86927
G1 X135.307 Y166.335 E1.90411
G1 X135.593 Y166.001 E1.93894
G1 X135.955 Y165.752 E1.97377
G1 X136.369 Y165.605 E2.00862
G1 X136.778 Y165.573 E2.04114
G1 X137.236 Y165.650 E2.07797
G1 X137.636 Y165.840 E2.11306
G1 X137.970 Y166.126 E2.14790
G1 X138.219 Y166.488 E2.18274
G1 X138.366 Y166.902 E2.21758
G1 X138.400 Y167.340 E2.25242
G1 X138.320 Y167.772 E2.28726
G1 X138.131 Y168.169 E2.32210
G1 X137.845 Y168.503 E2.35693
G1 X137.483 Y168.752 E2.39177
G1 X137.096 Y168.889 E2.42429
G1 X136.634 Y168.934 E2.46112
G1 X136.199 Y168.853 E2.49621
G1 X135.829 Y168.676 E2.52874
G1 X135.470 Y168.381 E2.56557
G1 X135.219 Y168.016 E2.60066
G1 X135.092 Y167.659 E2.63074
G1 X135.072 Y167.602 F4500.000
G1 E2.03074 F900.00000
G92 E0
G1 X152.390 Y155.566 F4500.000
G1 E0.65000 F900.00000
G1 F720
G1 X152.158 Y155.005 E0.69810
G1 X152.079 Y154.403 E0.74621
G1 X152.158 Y153.802 E0.79433
G1 X152.390 Y153.241 E0.84242
G1 X152.760 Y152.760 E0.89053
G1 X153.241 Y152.390 E0.93863
G1 X153.802 Y152.158 E0.98672
G1 X154.369 Y152.084 E1.03205
G1 X154.997 Y152.155 E1.08217
G1 X155.566 Y152.390 E1.13099
G1 X156.047 Y152.760 E1.17909
G1 X156.416 Y153.241 E1.22720
G1 X156.649 Y153.802 E1.27530
G1 X156.729 Y154.412 E1.32413
G1 X156.635 Y155.037 E1.37424
G1 X156.416 Y155.566 E1.41956
G1 X156.047 Y156.047 E1.46766
G1 X155.566 Y156.416 E1.51577
G1 X155.005 Y156.649 E1.56387
G1 X154.403 Y156.728 E1.61198
G1 X153.802 Y156.649 E1.66008
G1 X153.241 Y156.416 E1.70819
G1 X152.760 Y156.047 E1.75629
G1 X152.427 Y155.613 E1.79964
G1 X152.946 Y155.245 F4500.000
G1 F720
G1 X152.778 Y154.839 E1.83448
G1 X152.720 Y154.403 E1.86932
G1 X152.778 Y153.968 E1.90416
G1 X152.946 Y153.562 E1.93899
G1 X153.213 Y153.213 E1.97383
G1 X153.562 Y152.946 E2.00866
G1 X153.968 Y152.778 E2.04349
G1 X154.374 Y152.724 E2.07602
G1 X154.836 Y152.776 E2.11286
G1 X155.245 Y152.946 E2.14795
G1 X155.594 Y153.213 E2.18279
G1 X155.861 Y153.562 E2.21762
G1 X156.029 Y153.968 E2.25246
G1 X156.087 Y154.407 E2.28755
G1 X156.018 Y154.866 E2.32439
G1 X155.861 Y155.245 E2.35691
G1 X155.594 Y155.594 E2.39174
G1 X155.245 Y155.861 E2.42658
G1 X154.839 Y156.029 E2.46142
G1 X154.403 Y156.087 E2.49626
G1 X153.968 Y156.029 E2.53109
G1 X153.562 Y155.861 E2.56593
G1 X153.213 Y155.594 E2.60077
G1 X152.982 Y155.293 E2.63085
G1 X152.946 Y155.245 F4500.000
G1 E2.03085 F900.00000
G92 E0
G1 X158.999 Y147.684 F4500.000
G1 E0.65000 F900.00000
G1 F720
G1 X158.456 Y147.176 E0.70892
G1 X158.073 Y146.551 E0.76705
G1 X157.866 Y145.852 E0.82487
G1 X157.847 Y145.122 E0.88271
G1 X158.017 Y144.413 E0.94053
G1 X158.365 Y143.772 E0.99836
G1 X158.867 Y143.243 E1.05619
G1 X159.489 Y142.862 E1.11402
G1 X160.188 Y142.654 E1.17186
G1 X160.900 Y142.636 E1.22828
G1 X161.624 Y142.804 E1.28719
G1 X162.268 Y143.154 E1.34532
G1 X162.797 Y143.656 E1.40315
G1 X163.178 Y144.278 E1.46098
G1 X163.386 Y144.977 E1.51881
G1 X163.405 Y145.707 E1.57664
G1 X163.234 Y146.416 E1.63447
G1 X162.886 Y147.057 E1.69230
G1 X162.384 Y147.586 E1.75013
G1 X161.762 Y147.967 E1.80797
G1 X161.063 Y148.174 E1.86580
G1 X160.334 Y148.193 E1.92362
G1 X159.624 Y148.023 E1.98145
G1 X159.052 Y147.712 E2.03310
G1 X159.374 Y147.164 F4500.000
G1 F720
G1 X158.953 Y146.771 E2.07875
G1 X158.659 Y146.290 E2.12342
G1 X158.499 Y145.751 E2.16798
G1 X158.484 Y145.189 E2.21254
G1 X158.615 Y144.643 E2.25710
G1 X158.884 Y144.149 E2.30166
G1 X159.271 Y143.741 E2.34622
G1 X159.750 Y143.447 E2.39079
G1 X160.289 Y143.288 E2.43535
G1 X160.835 Y143.273 E2.47870
G1 X161.396 Y143.404 E2.52434
G1 X161.891 Y143.672 E2.56901
G1 X162.299 Y144.059 E2.61357
G1 X162.593 Y144.539 E2.65813
G1 X162.752 Y145.078 E2.70270
G1 X162.767 Y145.640 E2.74726
G1 X162.636 Y146.186 E2.79182
G1 X162.368 Y146.680 E2.83638
G1 X161.981 Y147.088 E2.88094
G1 X161.501 Y147.382 E2.92551
G1 X160.962 Y147.541 E2.97007
G1 X160.401 Y147.556 E3.01463
G1 X159.854 Y147.425 E3.05919
G1 X159.426 Y147.192 E3.09777
G1 X159.374 Y147.164 F4500.000
G1 E2.49777 F900.00000
G92 E0
G1 X165.689 Y138.441 F4500.000
G1 E0.65000 F900.00000
G1 F720
G1 X165.287 Y137.953 E0.70011
G1 X165.041 Y137.437 E0.74543
G1 X164.931 Y136.841 E0.79352
G1 X164.978 Y136.236 E0.84164
G1 X165.181 Y135.664 E0.88975
G1 X165.525 Y135.164 E0.93785
G1 X165.986 Y134.770 E0.98595
G1 X166.534 Y134.508 E1.03406
G1 X167.096 Y134.404 E1.07938
G1 X167.727 Y134.442 E1.12949
G1 X168.307 Y134.648 E1.17832
G1 X168.815 Y134.997 E1.22713
G1 X169.217 Y135.485 E1.27724
G1 X169.463 Y136.001 E1.32258
G1 X169.575 Y136.606 E1.37139
G1 X169.514 Y137.235 E1.42149
G1 X169.323 Y137.774 E1.46681
G1 X168.979 Y138.274 E1.51493
G1 X168.518 Y138.668 E1.56303
G1 X167.970 Y138.930 E1.61113
G1 X167.374 Y139.040 E1.65925
G1 X166.769 Y138.993 E1.70734
G1 X166.197 Y138.790 E1.75545
G1 X165.739 Y138.475 E1.79953
G1 X166.123 Y137.968 F4500.000
G1 F720
G1 X165.828 Y137.609 E1.83637
G1 X165.651 Y137.239 E1.86889
G1 X165.571 Y136.807 E1.90372
G1 X165.605 Y136.369 E1.93856
G1 X165.752 Y135.955 E1.97340
G1 X166.001 Y135.593 E2.00823
G1 X166.335 Y135.307 E2.04307
G1 X166.732 Y135.118 E2.07791
G1 X167.135 Y135.043 E2.11042
G1 X167.599 Y135.071 E2.14727
G1 X168.016 Y135.219 E2.18236
G1 X168.381 Y135.470 E2.21744
G1 X168.676 Y135.829 E2.25428
G1 X168.853 Y136.199 E2.28681
G1 X168.934 Y136.634 E2.32189
G1 X168.889 Y137.096 E2.35873
G1 X168.752 Y137.483 E2.39125
G1 X168.503 Y137.845 E2.42609
G1 X168.169 Y138.131 E2.46092
G1 X167.772 Y138.320 E2.49576
G1 X167.340 Y138.400 E2.53060
G1 X166.902 Y138.366 E2.56543
G1 X166.488 Y138.219 E2.60027
G1 X166.172 Y138.002 E2.63061
G1 X166.123 Y137.968 F4500.000
G1 E2.03061 F900.00000
G92 E0
G1 X173.061 Y118.053 F4500.000
G1 E0.65000 F900.00000
G1 F720
G1 X172.536 Y117.731 E0.69882
G1 X172.110 Y117.265 E0.74893
G1 X171.837 Y116.763 E0.79425
G1 X171.695 Y116.173 E0.84235
G1 X171.711 Y115.566 E0.89046
G1 X171.883 Y114.984 E0.93857
G1 X172.200 Y114.467 E0.98668
G1 X172.641 Y114.049 E1.03478
G1 X173.174 Y113.760 E1.08289
G1 X173.730 Y113.626 E1.12821
G1 X174.362 Y113.631 E1.17831
G1 X174.952 Y113.806 E1.22714
G1 X175.477 Y114.128 E1.27596
G1 X175.904 Y114.594 E1.32608
G1 X176.177 Y115.097 E1.37140
G1 X176.319 Y115.687 E1.41950
G1 X176.303 Y116.293 E1.46761
G1 X176.130 Y116.875 E1.51572
G1 X175.813 Y117.392 E1.56382
G1 X175.373 Y117.810 E1.61192
G1 X174.840 Y118.100 E1.66003
G1 X174.250 Y118.241 E1.70814
G1 X173.643 Y118.225 E1.75625
G1 X173.119 Y118.070 E1.79959
G1 X173.322 Y117.467 F4500.000
G1 F720
G1 X172.945 Y117.236 E1.83468
G1 X172.631 Y116.893 E1.87152
G1 X172.435 Y116.533 E1.90404
G1 X172.333 Y116.106 E1.93887
G1 X172.344 Y115.666 E1.97371
G1 X172.469 Y115.245 E2.00855
G1 X172.699 Y114.870 E2.04339
G1 X173.017 Y114.568 E2.07823
G1 X173.404 Y114.358 E2.11307
G1 X173.802 Y114.262 E2.14558
G1 X174.267 Y114.266 E2.18242
G1 X174.691 Y114.392 E2.21751
G1 X175.069 Y114.623 E2.25260
G1 X175.383 Y114.966 E2.28945
G1 X175.578 Y115.326 E2.32197
G1 X175.681 Y115.754 E2.35680
