; generated by Slic3r 1.3.1-dev on 2021-02-13 at 12:10:13

; Print Config Notes: 
; DMF_3D_0.3mmThin333HC30%PET
; 
; Filament notes: 
; DMF_3D_1.75x1.00NatPETG250 B95
; 
; Printer Config Notes: 
; DMF_3D2
; 
; external perimeters extrusion width = 0.70mm (2.86mm^3/s)
; perimeters extrusion width = 0.70mm (3.81mm^3/s)
; infill extrusion width = 0.85mm (7.07mm^3/s)
; solid infill extrusion width = 0.60mm (4.82mm^3/s)
; top infill extrusion width = 0.60mm (4.82mm^3/s)

M190 S95 ; set bed temperature and wait for it to be reached
M104 S250 ; set temperature
G28 ; home all axes
; Filament gcode

M109 S250 ; set temperature and wait for it to be reached
G21 ; set units to millimeters
G90 ; use absolute coordinates
M82 ; use absolute distances for extrusion
G92 E0
G1 Z0.300 F3000.000
G1 E-0.60000 F900.00000
G92 E0
G1 X36.925 Y51.685 F3000.000
G1 E0.65000 F900.00000
G1 F1440
G1 X53.369 Y35.242 E2.49357
G1 X54.611 Y34.339 E2.61528
G1 X77.452 Y22.701 E4.64762
G1 X78.912 Y22.226 E4.76932
G1 X104.232 Y18.216 E6.80167
G1 X105.803 Y18.222 E6.92620
G1 X131.088 Y22.226 E8.95568
G1 X132.548 Y22.701 E9.07738
G1 X155.389 Y34.339 E11.10973
G1 X156.631 Y35.242 E11.23144
G1 X174.758 Y53.369 E13.26378
G1 X175.661 Y54.611 E13.38549
G1 X186.202 Y75.298 E15.22619
G1 X187.299 Y77.452 E15.41784
G1 X187.774 Y78.912 E15.53954
G1 X191.784 Y104.232 E17.57188
G1 X191.784 Y105.768 E17.69359
G1 X187.773 Y131.089 E19.72601
G1 X187.299 Y132.548 E19.84764
G1 X175.677 Y155.357 E21.87711
G1 X174.758 Y156.631 E22.00166
G1 X156.631 Y174.758 E24.03400
G1 X155.389 Y175.661 E24.15571
G1 X134.702 Y186.202 E25.99640
G1 X132.548 Y187.299 E26.18805
G1 X131.089 Y187.773 E26.30969
G1 X105.768 Y191.784 E28.34210
G1 X104.232 Y191.784 E28.46381
G1 X78.912 Y187.774 E30.49615
G1 X77.452 Y187.299 E30.61786
G1 X54.611 Y175.661 E32.65021
G1 X53.369 Y174.758 E32.77191
G1 X35.242 Y156.631 E34.80425
G1 X34.339 Y155.389 E34.92596
G1 X22.717 Y132.580 E36.95543
G1 X22.226 Y131.088 E37.07998
G1 X18.216 Y105.767 E39.11234
G1 X18.216 Y104.232 E39.23403
G1 X22.226 Y78.912 E41.26637
G1 X22.701 Y77.452 E41.38808
G1 X34.339 Y54.611 E43.42043
G1 X35.242 Y53.369 E43.54213
G1 X36.883 Y51.727 E43.72615
G1 X37.375 Y52.134 F3000.000
G1 F1440
G1 X53.818 Y35.691 E45.56972
G1 X54.899 Y34.906 E45.67566
G1 X77.741 Y23.267 E47.70800
G1 X79.012 Y22.854 E47.81394
G1 X104.332 Y18.844 E49.84628
G1 X105.704 Y18.850 E49.95505
G1 X130.988 Y22.854 E51.98454
G1 X132.259 Y23.267 E52.09047
G1 X155.101 Y34.906 E54.12282
G1 X156.182 Y35.691 E54.22876
G1 X174.309 Y53.818 E56.26110
G1 X175.094 Y54.899 E56.36705
G1 X185.635 Y75.587 E58.20774
G1 X186.733 Y77.741 E58.39939
G1 X187.146 Y79.012 E58.50533
G1 X191.156 Y104.332 E60.53767
G1 X191.156 Y105.668 E60.64362
G1 X187.146 Y130.989 E62.67602
G1 X186.733 Y132.259 E62.78190
G1 X175.111 Y155.068 E64.81137
G1 X174.309 Y156.182 E64.92015
G1 X156.182 Y174.309 E66.95249
G1 X155.101 Y175.094 E67.05843
G1 X134.413 Y185.635 E68.89913
G1 X132.259 Y186.733 E69.09078
G1 X130.989 Y187.146 E69.19666
G1 X105.668 Y191.156 E71.22906
G1 X104.332 Y191.156 E71.33501
G1 X79.012 Y187.146 E73.36735
G1 X77.741 Y186.733 E73.47329
G1 X54.899 Y175.094 E75.50563
G1 X53.818 Y174.309 E75.61157
G1 X35.691 Y156.182 E77.64392
G1 X34.906 Y155.101 E77.74986
G1 X23.284 Y132.291 E79.77933
G1 X22.854 Y130.988 E79.88811
G1 X18.844 Y105.668 E81.92047
G1 X18.844 Y104.332 E82.02639
G1 X22.854 Y79.012 E84.05874
G1 X23.267 Y77.741 E84.16468
G1 X34.906 Y54.899 E86.19703
G1 X35.691 Y53.818 E86.30296
G1 X37.332 Y52.177 E86.48698
G1 X37.824 Y52.584 F3000.000
G1 F1440
G1 X54.268 Y36.141 E88.33055
G1 X55.188 Y35.472 E88.42073
G1 X78.029 Y23.834 E90.45307
G1 X79.111 Y23.482 E90.54325
G1 X104.431 Y19.472 E92.57559
G1 X105.604 Y19.477 E92.66859
G1 X130.889 Y23.482 E94.69807
G1 X131.971 Y23.834 E94.78824
G1 X154.812 Y35.472 E96.82059
G1 X155.732 Y36.141 E96.91077
G1 X173.859 Y54.268 E98.94311
G1 X174.528 Y55.188 E99.03329
G1 X185.069 Y75.875 E100.87398
G1 X186.166 Y78.029 E101.06563
G1 X186.518 Y79.111 E101.15581
G1 X190.528 Y104.431 E103.18815
G1 X190.528 Y105.569 E103.27832
G1 X186.518 Y130.889 E105.31072
G1 X186.166 Y131.971 E105.40084
G1 X174.545 Y154.780 E107.43031
G1 X173.859 Y155.732 E107.52333
G1 X155.732 Y173.859 E109.55567
G1 X154.812 Y174.528 E109.64585
G1 X134.125 Y185.069 E111.48654
G1 X131.971 Y186.166 E111.67819
G1 X130.889 Y186.518 E111.76831
G1 X105.569 Y190.528 E113.80071
G1 X104.431 Y190.528 E113.89089
G1 X79.111 Y186.518 E115.92323
G1 X78.029 Y186.166 E116.01341
G1 X55.188 Y174.528 E118.04575
G1 X54.268 Y173.859 E118.13592
G1 X36.141 Y155.732 E120.16827
G1 X35.472 Y154.812 E120.25844
G1 X23.850 Y132.003 E122.28792
G1 X23.482 Y130.889 E122.38093
G1 X19.472 Y105.569 E124.41328
G1 X19.472 Y104.431 E124.50345
G1 X23.482 Y79.111 E126.53579
G1 X23.834 Y78.029 E126.62597
G1 X35.472 Y55.188 E128.65831
G1 X36.141 Y54.268 E128.74849
G1 X37.782 Y52.626 E128.93250
G1 E128.33250 F900.00000
G92 E0
G1 X93.008 Y171.238 F3000.000
G1 E0.65000 F900.00000
G1 F720
G1 X93.721 Y171.067 E0.70813
G1 X94.520 Y171.074 E0.77151
G1 X95.277 Y171.298 E0.83407
G1 X95.937 Y171.702 E0.89544
G1 X96.470 Y172.264 E0.95681
G1 X96.839 Y172.944 E1.01819
G1 X97.020 Y173.697 E1.07956
G1 X96.999 Y174.471 E1.14094
G1 X96.780 Y175.213 E1.20231
G1 X96.375 Y175.873 E1.26368
G1 X95.814 Y176.406 E1.32505
G1 X95.133 Y176.775 E1.38643
G1 X94.380 Y176.956 E1.44781
G1 X93.606 Y176.936 E1.50918
G1 X92.864 Y176.716 E1.57055
G1 X92.204 Y176.311 E1.63192
G1 X91.671 Y175.750 E1.69330
G1 X91.302 Y175.070 E1.75467
G1 X91.121 Y174.317 E1.81605
G1 X91.141 Y173.543 E1.87742
G1 X91.361 Y172.801 E1.93879
G1 X91.766 Y172.141 E2.00017
G1 X92.327 Y171.608 E2.06154
G1 X92.955 Y171.267 E2.11815
G1 X93.237 Y171.837 F3000.000
G1 F720
G1 X93.793 Y171.703 E2.16347
G1 X94.425 Y171.708 E2.21358
G1 X95.016 Y171.883 E2.26241
G1 X95.533 Y172.200 E2.31052
G1 X95.951 Y172.641 E2.35862
G1 X96.240 Y173.174 E2.40673
G1 X96.382 Y173.764 E2.45483
G1 X96.366 Y174.370 E2.50294
G1 X96.194 Y174.952 E2.55104
G1 X95.877 Y175.470 E2.59915
G1 X95.437 Y175.887 E2.64725
G1 X94.903 Y176.177 E2.69536
G1 X94.313 Y176.319 E2.74347
G1 X93.707 Y176.303 E2.79157
G1 X93.125 Y176.130 E2.83967
G1 X92.608 Y175.813 E2.88778
G1 X92.190 Y175.373 E2.93589
G1 X91.900 Y174.840 E2.98399
G1 X91.759 Y174.250 E3.03210
G1 X91.775 Y173.643 E3.08020
G1 X91.947 Y173.061 E3.12831
G1 X92.264 Y172.544 E3.17642
G1 X92.704 Y172.126 E3.22452
G1 X93.185 Y171.865 E3.26787
G1 X93.467 Y172.435 F3000.000
G1 F720
G1 X93.866 Y172.340 E3.30038
G1 X94.331 Y172.343 E3.33722
G1 X94.755 Y172.469 E3.37232
G1 X95.130 Y172.699 E3.40715
G1 X95.432 Y173.017 E3.44199
G1 X95.642 Y173.404 E3.47683
G1 X95.744 Y173.831 E3.51167
G1 X95.733 Y174.270 E3.54650
G1 X95.608 Y174.692 E3.58134
G1 X95.379 Y175.066 E3.61618
G1 X95.060 Y175.369 E3.65102
G1 X94.674 Y175.578 E3.68585
G1 X94.246 Y175.681 E3.72069
G1 X93.807 Y175.669 E3.75553
G1 X93.386 Y175.545 E3.79036
G1 X93.011 Y175.315 E3.82520
G1 X92.709 Y174.996 E3.86004
G1 X92.499 Y174.610 E3.89488
G1 X92.396 Y174.183 E3.92972
G1 X92.408 Y173.744 E3.96455
G1 X92.533 Y173.322 E3.99939
G1 X92.762 Y172.947 E4.03423
G1 X93.081 Y172.645 E4.06906
G1 X93.414 Y172.464 E4.09914
G1 X93.530 Y172.040 F3000.000
G1 E3.49914 F900.00000
G92 E0
G1 X76.182 Y167.869 F3000.000
G1 E0.65000 F900.00000
G1 F720
G1 X75.923 Y168.598 E0.71137
G1 X75.485 Y169.236 E0.77275
G1 X74.896 Y169.739 E0.83412
G1 X74.197 Y170.072 E0.89550
G1 X73.436 Y170.213 E0.95687
G1 X72.664 Y170.153 E1.01824
G1 X71.935 Y169.894 E1.07962
G1 X71.284 Y169.447 E1.14217
G1 X70.776 Y168.830 E1.20555
G1 X70.461 Y168.168 E1.26368
G1 X70.317 Y167.392 E1.32624
G1 X70.394 Y166.597 E1.38961
G1 X70.639 Y165.906 E1.44774
G1 X71.077 Y165.268 E1.50911
G1 X71.666 Y164.765 E1.57049
G1 X72.365 Y164.432 E1.63186
G1 X73.086 Y164.298 E1.68999
G1 X73.884 Y164.346 E1.75336
G1 X74.627 Y164.610 E1.81592
G1 X75.265 Y165.048 E1.87729
G1 X75.768 Y165.637 E1.93867
G1 X76.101 Y166.336 E2.00004
G1 X76.242 Y167.097 E2.06142
G1 X76.186 Y167.809 E2.11803
G1 X75.555 Y167.735 F3000.000
G1 F720
G1 X75.352 Y168.307 E2.16614
G1 X75.008 Y168.807 E2.21424
G1 X74.547 Y169.201 E2.26235
G1 X73.999 Y169.463 E2.31046
G1 X73.403 Y169.573 E2.35856
G1 X72.798 Y169.526 E2.40667
G1 X72.226 Y169.323 E2.45477
G1 X71.718 Y168.974 E2.50360
G1 X71.316 Y168.486 E2.55370
G1 X71.070 Y167.970 E2.59903
G1 X70.958 Y167.365 E2.64785
G1 X71.019 Y166.736 E2.69796
G1 X71.210 Y166.197 E2.74328
G1 X71.554 Y165.697 E2.79139
G1 X72.015 Y165.303 E2.83949
G1 X72.563 Y165.041 E2.88760
G1 X73.125 Y164.937 E2.93292
G1 X73.756 Y164.975 E2.98303
G1 X74.336 Y165.181 E3.03185
G1 X74.836 Y165.525 E3.07996
G1 X75.230 Y165.986 E3.12806
G1 X75.492 Y166.534 E3.17617
G1 X75.602 Y167.130 E3.22428
G1 X75.559 Y167.675 E3.26762
G1 X74.928 Y167.602 F3000.000
G1 F720
G1 X74.781 Y168.016 E3.30246
G1 X74.532 Y168.378 E3.33730
G1 X74.198 Y168.664 E3.37214
G1 X73.801 Y168.853 E3.40697
G1 X73.369 Y168.933 E3.44181
G1 X72.931 Y168.899 E3.47665
G1 X72.517 Y168.752 E3.51149
G1 X72.152 Y168.501 E3.54658
G1 X71.857 Y168.142 E3.58342
G1 X71.680 Y167.772 E3.61593
G1 X71.599 Y167.337 E3.65103
G1 X71.644 Y166.874 E3.68787
G1 X71.781 Y166.488 E3.72038
G1 X72.030 Y166.126 E3.75522
G1 X72.364 Y165.840 E3.79006
G1 X72.761 Y165.651 E3.82489
G1 X73.164 Y165.576 E3.85741
G1 X73.628 Y165.604 E3.89425
G1 X74.045 Y165.752 E3.92934
G1 X74.407 Y166.001 E3.96418
G1 X74.693 Y166.335 E3.99902
G1 X74.882 Y166.732 E4.03385
G1 X74.962 Y167.164 E4.06869
G1 X74.932 Y167.542 E4.09877
G1 X74.928 Y167.602 F3000.000
G1 E3.49877 F900.00000
G92 E0
G1 X58.165 Y155.886 F3000.000
G1 E0.65000 F900.00000
G1 F720
G1 X57.694 Y156.500 E0.71137
G1 X57.079 Y156.972 E0.77275
G1 X56.364 Y157.268 E0.83412
G1 X55.597 Y157.369 E0.89549
G1 X54.829 Y157.268 E0.95687
G1 X54.114 Y156.972 E1.01824
G1 X53.500 Y156.500 E1.07962
G1 X53.028 Y155.886 E1.14099
G1 X52.732 Y155.171 E1.20236
G1 X52.631 Y154.403 E1.26374
G1 X52.732 Y153.636 E1.32511
G1 X53.028 Y152.921 E1.38648
G1 X53.500 Y152.306 E1.44786
G1 X54.114 Y151.835 E1.50923
G1 X54.829 Y151.539 E1.57061
G1 X55.556 Y151.443 E1.62873
G1 X56.350 Y151.533 E1.69211
G1 X57.079 Y151.835 E1.75467
G1 X57.693 Y152.306 E1.81604
G1 X58.165 Y152.921 E1.87741
G1 X58.461 Y153.636 E1.93879
G1 X58.562 Y154.403 E2.00016
G1 X58.461 Y155.171 E2.06153
G1 X58.188 Y155.831 E2.11815
G1 X57.610 Y155.566 F3000.000
G1 F720
G1 X57.240 Y156.047 E2.16625
G1 X56.759 Y156.416 E2.21436
G1 X56.198 Y156.649 E2.26247
G1 X55.597 Y156.728 E2.31057
G1 X54.995 Y156.649 E2.35868
G1 X54.434 Y156.416 E2.40678
G1 X53.953 Y156.047 E2.45489
G1 X53.584 Y155.566 E2.50299
G1 X53.351 Y155.005 E2.55110
G1 X53.272 Y154.403 E2.59921
G1 X53.351 Y153.802 E2.64731
G1 X53.584 Y153.241 E2.69542
G1 X53.953 Y152.760 E2.74352
G1 X54.434 Y152.390 E2.79163
G1 X54.995 Y152.158 E2.83973
G1 X55.562 Y152.084 E2.88506
G1 X56.190 Y152.155 E2.93516
G1 X56.759 Y152.390 E2.98399
G1 X57.240 Y152.760 E3.03209
G1 X57.610 Y153.241 E3.08020
G1 X57.842 Y153.802 E3.12830
G1 X57.921 Y154.403 E3.17641
G1 X57.842 Y155.005 E3.22452
G1 X57.633 Y155.510 E3.26787
G1 X57.054 Y155.245 F3000.000
G1 F720
G1 X56.787 Y155.594 E3.30270
G1 X56.438 Y155.861 E3.33754
G1 X56.032 Y156.029 E3.37238
G1 X55.597 Y156.087 E3.40722
G1 X55.161 Y156.029 E3.44205
G1 X54.755 Y155.861 E3.47689
G1 X54.406 Y155.594 E3.51173
G1 X54.139 Y155.245 E3.54657
G1 X53.971 Y154.839 E3.58140
G1 X53.913 Y154.403 E3.61624
G1 X53.971 Y153.968 E3.65108
G1 X54.139 Y153.562 E3.68592
G1 X54.406 Y153.213 E3.72075
G1 X54.755 Y152.946 E3.75559
G1 X55.161 Y152.777 E3.79043
G1 X55.568 Y152.724 E3.82295
G1 X56.029 Y152.776 E3.85978
G1 X56.438 Y152.946 E3.89488
G1 X56.787 Y153.213 E3.92971
G1 X57.054 Y153.562 E3.96455
G1 X57.223 Y153.968 E3.99939
G1 X57.280 Y154.403 E4.03423
G1 X57.223 Y154.839 E4.06906
G1 X57.077 Y155.190 E4.09914
G1 X57.054 Y155.245 F3000.000
G1 E3.49914 F900.00000
G92 E0
G1 X44.732 Y138.923 F3000.000
G1 E0.65000 F900.00000
G1 F720
G1 X44.094 Y139.361 E0.71137
G1 X43.365 Y139.620 E0.77275
G1 X42.593 Y139.680 E0.83412
G1 X41.832 Y139.539 E0.89549
G1 X41.133 Y139.206 E0.95687
G1 X40.549 Y138.707 E1.01778
G1 X40.111 Y138.079 E1.07845
G1 X39.847 Y137.336 E1.14102
G1 X39.785 Y136.549 E1.20357
G1 X39.945 Y135.766 E1.26695
G1 X40.261 Y135.104 E1.32508
G1 X40.764 Y134.515 E1.38645
G1 X41.402 Y134.077 E1.44782
G1 X42.131 Y133.818 E1.50920
G1 X42.862 Y133.761 E1.56732
G1 X43.651 Y133.892 E1.63070
G1 X44.363 Y134.232 E1.69326
G1 X44.952 Y134.735 E1.75463
G1 X45.390 Y135.373 E1.81601
G1 X45.649 Y136.102 E1.87738
G1 X45.711 Y136.889 E1.93994
G1 X45.551 Y137.672 E2.00332
G1 X45.235 Y138.334 E2.06144
G1 X44.771 Y138.877 E2.11806
G1 X44.303 Y138.446 F3000.000
G1 F720
G1 X43.803 Y138.790 E2.16616
G1 X43.231 Y138.993 E2.21427
G1 X42.626 Y139.040 E2.26237
G1 X42.030 Y138.930 E2.31048
G1 X41.482 Y138.668 E2.35859
G1 X41.023 Y138.277 E2.40641
G1 X40.681 Y137.786 E2.45381
G1 X40.474 Y137.202 E2.50293
G1 X40.426 Y136.588 E2.55175
G1 X40.552 Y135.969 E2.60186
G1 X40.799 Y135.453 E2.64718
G1 X41.193 Y134.992 E2.69529
G1 X41.693 Y134.648 E2.74339
G1 X42.265 Y134.445 E2.79150
G1 X42.835 Y134.400 E2.83682
G1 X43.458 Y134.504 E2.88693
G1 X44.014 Y134.770 E2.93575
G1 X44.475 Y135.164 E2.98386
G1 X44.819 Y135.664 E3.03197
G1 X45.022 Y136.236 E3.08007
G1 X45.070 Y136.850 E3.12890
G1 X44.944 Y137.469 E3.17900
G1 X44.697 Y137.985 E3.22433
G1 X44.342 Y138.401 E3.26767
G1 X43.874 Y137.970 F3000.000
G1 F720
G1 X43.512 Y138.219 E3.30251
G1 X43.098 Y138.365 E3.33735
G1 X42.660 Y138.400 E3.37219
G1 X42.228 Y138.320 E3.40702
G1 X41.831 Y138.131 E3.44186
G1 X41.498 Y137.846 E3.47660
G1 X41.252 Y137.493 E3.51073
G1 X41.101 Y137.069 E3.54640
G1 X41.067 Y136.628 E3.58149
G1 X41.160 Y136.172 E3.61833
G1 X41.336 Y135.802 E3.65085
G1 X41.622 Y135.468 E3.68568
G1 X41.984 Y135.219 E3.72052
G1 X42.398 Y135.072 E3.75536
G1 X42.807 Y135.040 E3.78788
G1 X43.265 Y135.117 E3.82472
G1 X43.665 Y135.307 E3.85981
G1 X43.999 Y135.593 E3.89465
G1 X44.248 Y135.955 E3.92948
G1 X44.395 Y136.369 E3.96432
G1 X44.429 Y136.810 E3.99941
G1 X44.336 Y137.266 E4.03625
G1 X44.160 Y137.636 E4.06877
G1 X43.913 Y137.924 E4.09885
G1 X43.874 Y137.970 F3000.000
G1 E3.49885 F900.00000
G92 E0
G1 X37.199 Y118.639 F3000.000
G1 E0.65000 F900.00000
G1 F720
G1 X36.457 Y118.859 E0.71137
G1 X35.683 Y118.879 E0.77275
G1 X34.930 Y118.698 E0.83412
G1 X34.286 Y118.348 E0.89225
G1 X33.696 Y117.809 E0.95563
G1 X33.284 Y117.136 E1.01818
G1 X33.064 Y116.394 E1.07956
G1 X33.043 Y115.605 E1.14211
G1 X33.244 Y114.831 E1.20549
G1 X33.594 Y114.187 E1.26362
G1 X34.127 Y113.625 E1.32499
G1 X34.787 Y113.220 E1.38636
G1 X35.529 Y113.001 E1.44774
G1 X36.262 Y112.981 E1.50586
G1 X37.043 Y113.154 E1.56924
G1 X37.736 Y113.530 E1.63180
G1 X38.298 Y114.063 E1.69317
G1 X38.702 Y114.723 E1.75455
G1 X38.922 Y115.466 E1.81592
G1 X38.942 Y116.240 E1.87729
G1 X38.762 Y116.992 E1.93867
G1 X38.392 Y117.673 E2.00004
G1 X37.859 Y118.234 E2.06141
G1 X37.251 Y118.607 E2.11803
G1 X36.939 Y118.053 F3000.000
G1 F720
G1 X36.357 Y118.225 E2.16614
G1 X35.750 Y118.241 E2.21424
G1 X35.160 Y118.100 E2.26235
G1 X34.658 Y117.827 E2.30767
G1 X34.191 Y117.400 E2.35778
G1 X33.870 Y116.875 E2.40660
G1 X33.697 Y116.293 E2.45471
G1 X33.681 Y115.678 E2.50353
G1 X33.840 Y115.066 E2.55364
G1 X34.113 Y114.563 E2.59896
G1 X34.530 Y114.123 E2.64707
G1 X35.048 Y113.806 E2.69517
G1 X35.630 Y113.634 E2.74328
G1 X36.201 Y113.619 E2.78860
G1 X36.818 Y113.755 E2.83871
G1 X37.359 Y114.049 E2.88753
G1 X37.800 Y114.467 E2.93564
G1 X38.117 Y114.984 E2.98374
G1 X38.289 Y115.566 E3.03185
G1 X38.305 Y116.173 E3.07996
G1 X38.163 Y116.763 E3.12806
G1 X37.874 Y117.296 E3.17617
G1 X37.456 Y117.736 E3.22427
G1 X36.990 Y118.022 E3.26762
G1 X36.678 Y117.467 F3000.000
G1 F720
G1 X36.256 Y117.592 E3.30246
G1 X35.817 Y117.604 E3.33730
G1 X35.390 Y117.501 E3.37213
G1 X35.029 Y117.305 E3.40465
G1 X34.687 Y116.992 E3.44149
G1 X34.455 Y116.614 E3.47658
G1 X34.331 Y116.193 E3.51142
G1 X34.319 Y115.750 E3.54651
G1 X34.436 Y115.301 E3.58335
G1 X34.631 Y114.940 E3.61587
G1 X34.934 Y114.621 E3.65070
G1 X35.308 Y114.392 E3.68554
G1 X35.730 Y114.267 E3.72038
G1 X36.140 Y114.256 E3.75290
G1 X36.594 Y114.357 E3.78973
