; generated by Slic3r 1.3.1-dev on 2019-10-08 at 16:46:22

; Print Config Notes: 
; DMF_3D_0.3mmThin222HC25%
; 
; external perimeters extrusion width = 0.60mm (4.82mm^3/s)
; perimeters extrusion width = 0.54mm (5.71mm^3/s)
; infill extrusion width = 0.70mm (7.63mm^3/s)
; solid infill extrusion width = 0.51mm (5.35mm^3/s)
; top infill extrusion width = 0.51mm (5.35mm^3/s)

M190 S90 ; set bed temperature and wait for it to be reached
M104 S250 ; set temperature
G28 ; home all axes
; Filament gcode

M109 S250 ; set temperature and wait for it to be reached
G21 ; set units to millimeters
G90 ; use absolute coordinates
M82 ; use absolute distances for extrusion
G92 E0
G1 Z0.300 F4500.000
G1 E-0.60000 F900.00000
G92 E0
G1 X52.784 Y37.586 F4500.000
G1 E0.65000 F900.00000
G1 F1920
G1 X53.175 Y37.102 E0.69933
G1 X53.598 Y36.647 E0.74860
G1 X54.051 Y36.223 E0.79778
G1 X54.535 Y35.830 E0.84720
G1 X55.333 Y35.292 E0.92352
G1 X55.876 Y34.991 E0.97276
G1 X56.442 Y34.729 E1.02218
G1 X57.021 Y34.508 E1.07132
G1 X102.381 Y19.770 E4.85244
G1 X102.982 Y19.607 E4.90177
G1 X103.930 Y19.440 E4.97806
G1 X104.548 Y19.387 E5.02727
G1 X105.172 Y19.377 E5.07676
G1 X105.792 Y19.411 E5.12597
G1 X106.409 Y19.488 E5.17527
G1 X107.018 Y19.607 E5.22443
G1 X107.618 Y19.769 E5.27374
G1 X152.979 Y34.508 E9.05492
G1 X153.558 Y34.729 E9.10402
G1 X154.123 Y34.991 E9.15347
G1 X154.667 Y35.292 E9.20272
G1 X155.464 Y35.829 E9.27889
G1 X155.949 Y36.223 E9.32847
G1 X156.403 Y36.647 E9.37769
G1 X156.825 Y37.102 E9.42694
G1 X157.216 Y37.586 E9.47624
G1 X185.251 Y76.174 E13.25751
G1 X185.590 Y76.694 E13.30674
G1 X185.892 Y77.236 E13.35597
G1 X186.157 Y77.803 E13.40553
G1 X186.380 Y78.380 E13.45455
G1 X186.562 Y78.974 E13.50386
G1 X186.762 Y79.914 E13.58005
G1 X186.837 Y80.534 E13.62951
G1 X186.868 Y81.153 E13.67868
G1 X186.868 Y128.847 E17.45976
G1 X186.837 Y129.466 E17.50893
G1 X186.762 Y130.089 E17.55862
G1 X186.644 Y130.700 E17.60795
G1 X186.379 Y131.622 E17.68403
G1 X186.155 Y132.202 E17.73331
G1 X185.892 Y132.763 E17.78247
G1 X185.589 Y133.308 E17.83189
G1 X185.250 Y133.828 E17.88112
G1 X157.216 Y172.414 E21.66221
G1 X156.824 Y172.899 E21.71164
G1 X156.403 Y173.353 E21.76075
G1 X155.949 Y173.777 E21.80998
G1 X155.465 Y174.170 E21.85940
G1 X154.667 Y174.708 E21.93571
G1 X154.123 Y175.009 E21.98497
G1 X153.558 Y175.271 E22.03442
G1 X152.713 Y175.578 E22.10567
G1 X107.619 Y190.230 E25.86462
G1 X106.687 Y190.463 E25.94075
G1 X106.073 Y190.559 E25.99002
G1 X105.451 Y190.613 E26.03950
G1 X104.831 Y190.623 E26.08872
G1 X104.208 Y190.589 E26.13815
G1 X103.591 Y190.512 E26.18746
G1 X102.987 Y190.394 E26.23621
G1 X102.381 Y190.230 E26.28598
G1 X57.021 Y175.492 E30.06709
G1 X56.442 Y175.271 E30.11621
G1 X55.877 Y175.009 E30.16566
G1 X55.333 Y174.708 E30.21492
G1 X54.538 Y174.172 E30.29092
G1 X54.051 Y173.777 E30.34061
G1 X53.597 Y173.353 E30.38987
G1 X53.175 Y172.897 E30.43913
G1 X52.784 Y172.414 E30.48842
G1 X24.750 Y133.828 E34.26957
G1 X24.411 Y133.308 E34.31875
G1 X24.108 Y132.764 E34.36814
G1 X23.845 Y132.202 E34.41731
G1 X23.621 Y131.622 E34.46658
G1 X23.438 Y131.027 E34.51598
G1 X23.238 Y130.086 E34.59225
G1 X23.163 Y129.466 E34.64169
G1 X23.132 Y128.847 E34.69086
G1 X23.132 Y81.153 E38.47195
G1 X23.163 Y80.533 E38.52116
G1 X23.238 Y79.914 E38.57056
G1 X23.356 Y79.304 E38.61986
G1 X23.515 Y78.705 E38.66899
G1 X23.717 Y78.115 E38.71840
G1 X23.959 Y77.542 E38.76773
G1 X24.411 Y76.692 E38.84406
G1 X24.750 Y76.172 E38.89331
G1 X52.749 Y37.635 E42.66963
G1 X53.298 Y37.960 F4500.000
G1 F1920
G1 X53.662 Y37.511 E42.71544
G1 X54.055 Y37.088 E42.76119
G1 X54.476 Y36.695 E42.80686
G1 X54.926 Y36.331 E42.85274
G1 X55.651 Y35.842 E42.92205
G1 X56.155 Y35.563 E42.96778
G1 X56.680 Y35.318 E43.01366
G1 X57.217 Y35.112 E43.05930
G1 X102.578 Y20.374 E46.84042
G1 X103.136 Y20.224 E46.88623
G1 X103.996 Y20.072 E46.95550
G1 X104.570 Y20.022 E47.00121
G1 X105.150 Y20.013 E47.04715
G1 X105.726 Y20.043 E47.09285
G1 X106.299 Y20.114 E47.13863
G1 X106.864 Y20.224 E47.18429
G1 X107.422 Y20.374 E47.23008
G1 X152.783 Y35.112 E51.01125
G1 X153.320 Y35.318 E51.05686
G1 X153.845 Y35.563 E51.10276
G1 X154.349 Y35.842 E51.14850
G1 X155.073 Y36.330 E51.21767
G1 X155.524 Y36.695 E51.26370
G1 X155.945 Y37.089 E51.30941
G1 X156.339 Y37.511 E51.35515
G1 X156.702 Y37.960 E51.40092
G1 X184.737 Y76.547 E55.18217
G1 X185.051 Y77.030 E55.22789
G1 X185.331 Y77.535 E55.27361
G1 X185.576 Y78.061 E55.31962
G1 X185.782 Y78.597 E55.36515
G1 X185.951 Y79.149 E55.41094
G1 X186.133 Y80.003 E55.48013
G1 X186.203 Y80.578 E55.52605
G1 X186.233 Y81.153 E55.57172
G1 X186.233 Y128.847 E59.35280
G1 X186.203 Y129.422 E59.39846
G1 X186.132 Y130.000 E59.44459
G1 X186.022 Y130.567 E59.49039
G1 X185.782 Y131.405 E59.55948
G1 X185.574 Y131.943 E59.60525
G1 X185.331 Y132.465 E59.65090
G1 X185.050 Y132.971 E59.69679
G1 X184.735 Y133.455 E59.74251
G1 X156.702 Y172.040 E63.52360
G1 X156.338 Y172.490 E63.56949
G1 X155.945 Y172.911 E63.61511
G1 X155.524 Y173.305 E63.66082
G1 X155.074 Y173.669 E63.70671
G1 X154.350 Y174.158 E63.77601
G1 X153.845 Y174.437 E63.82175
G1 X153.320 Y174.682 E63.86766
G1 X152.517 Y174.974 E63.93539
G1 X107.422 Y189.626 E67.69437
G1 X106.576 Y189.837 E67.76350
G1 X106.006 Y189.927 E67.80925
G1 X105.429 Y189.978 E67.85519
G1 X104.853 Y189.987 E67.90090
G1 X104.275 Y189.957 E67.94679
G1 X103.701 Y189.886 E67.99259
G1 X103.140 Y189.777 E68.03788
G1 X102.578 Y189.626 E68.08408
G1 X57.218 Y174.888 E71.86518
G1 X56.680 Y174.682 E71.91081
G1 X56.155 Y174.437 E71.95671
G1 X55.650 Y174.158 E72.00246
G1 X54.928 Y173.671 E72.07149
G1 X54.476 Y173.305 E72.11761
G1 X54.055 Y172.911 E72.16335
G1 X53.661 Y172.489 E72.20909
G1 X53.298 Y172.040 E72.25487
G1 X25.264 Y133.454 E76.03601
G1 X24.950 Y132.971 E76.08168
G1 X24.669 Y132.465 E76.12755
G1 X24.426 Y131.943 E76.17321
G1 X24.218 Y131.405 E76.21897
G1 X24.049 Y130.851 E76.26484
G1 X23.867 Y129.997 E76.33409
G1 X23.797 Y129.422 E76.37999
G1 X23.767 Y128.847 E76.42566
G1 X23.767 Y81.153 E80.20674
G1 X23.797 Y80.577 E80.25245
G1 X23.867 Y80.003 E80.29832
G1 X23.977 Y79.436 E80.34410
G1 X24.126 Y78.880 E80.38973
G1 X24.314 Y78.333 E80.43561
G1 X24.540 Y77.801 E80.48142
G1 X24.950 Y77.029 E80.55073
G1 X25.264 Y76.545 E80.59646
G1 X53.263 Y38.009 E84.37278
G1 X53.813 Y38.334 F4500.000
G1 F1920
G1 X54.149 Y37.919 E84.41506
G1 X54.512 Y37.530 E84.45730
G1 X54.902 Y37.168 E84.49947
G1 X55.317 Y36.832 E84.54182
G1 X55.968 Y36.392 E84.60411
G1 X56.434 Y36.134 E84.64632
G1 X56.918 Y35.908 E84.68867
G1 X57.414 Y35.717 E84.73081
G1 X102.774 Y20.979 E88.51193
G1 X103.289 Y20.841 E88.55421
G1 X104.063 Y20.705 E88.61647
G1 X104.593 Y20.658 E88.65867
G1 X105.128 Y20.648 E88.70106
G1 X105.659 Y20.675 E88.74326
G1 X106.188 Y20.740 E88.78552
G1 X106.710 Y20.841 E88.82768
G1 X107.225 Y20.978 E88.86994
G1 X152.586 Y35.717 E92.65110
G1 X153.082 Y35.908 E92.69322
G1 X153.566 Y36.134 E92.73558
G1 X154.032 Y36.392 E92.77781
G1 X154.682 Y36.831 E92.83998
G1 X155.098 Y37.168 E92.88245
G1 X155.488 Y37.530 E92.92465
G1 X155.852 Y37.920 E92.96688
G1 X156.187 Y38.334 E93.00914
G1 X184.222 Y76.920 E96.79036
G1 X184.512 Y77.367 E96.83256
G1 X184.769 Y77.833 E96.87477
G1 X184.995 Y78.319 E96.91723
G1 X185.185 Y78.814 E96.95928
G1 X185.340 Y79.324 E97.00155
G1 X185.503 Y80.091 E97.06374
G1 X185.569 Y80.622 E97.10612
G1 X185.597 Y81.153 E97.14828
G1 X185.597 Y128.847 E100.92936
G1 X185.569 Y129.378 E100.97152
G1 X185.503 Y129.911 E101.01408
G1 X185.400 Y130.434 E101.05636
G1 X185.184 Y131.187 E101.11847
G1 X184.994 Y131.685 E101.16071
G1 X184.769 Y132.167 E101.20287
G1 X184.511 Y132.634 E101.24522
G1 X184.221 Y133.081 E101.28743
G1 X156.187 Y171.666 E105.06852
G1 X155.851 Y172.081 E105.11087
G1 X155.488 Y172.470 E105.15299
G1 X155.098 Y172.832 E105.19520
G1 X154.683 Y173.168 E105.23755
G1 X154.032 Y173.607 E105.29983
G1 X153.566 Y173.866 E105.34206
G1 X153.082 Y174.092 E105.38443
G1 X152.320 Y174.369 E105.44869
G1 X107.226 Y189.021 E109.20764
G1 X106.466 Y189.211 E109.26977
G1 X105.939 Y189.295 E109.31201
G1 X105.407 Y189.342 E109.35441
G1 X104.874 Y189.352 E109.39661
G1 X104.341 Y189.325 E109.43896
G1 X103.812 Y189.260 E109.48124
G1 X103.293 Y189.160 E109.52309
G1 X102.774 Y189.021 E109.56570
G1 X57.414 Y174.283 E113.34680
G1 X56.918 Y174.092 E113.38893
G1 X56.434 Y173.866 E113.43130
G1 X55.968 Y173.607 E113.47353
G1 X55.319 Y173.170 E113.53558
G1 X54.902 Y172.833 E113.57813
G1 X54.512 Y172.470 E113.62036
G1 X54.148 Y172.080 E113.66259
G1 X53.813 Y171.666 E113.70485
G1 X25.778 Y133.081 E117.48598
G1 X25.489 Y132.634 E117.52815
G1 X25.231 Y132.167 E117.57048
G1 X25.006 Y131.685 E117.61264
G1 X24.816 Y131.187 E117.65488
G1 X24.660 Y130.676 E117.69722
G1 X24.497 Y129.909 E117.75946
G1 X24.431 Y129.378 E117.80182
G1 X24.403 Y128.847 E117.84399
G1 X24.403 Y81.153 E121.62507
G1 X24.431 Y80.621 E121.66727
G1 X24.497 Y80.091 E121.70961
G1 X24.599 Y79.568 E121.75187
G1 X24.737 Y79.055 E121.79400
G1 X24.911 Y78.550 E121.83634
G1 X25.120 Y78.059 E121.87863
G1 X25.489 Y77.366 E121.94092
G1 X25.779 Y76.919 E121.98314
G1 X53.777 Y38.382 E125.75946
G1 E125.15946 F900.00000
G92 E0
G1 X104.443 Y179.639 F4500.000
G1 E0.65000 F900.00000
G1 F720
G1 X104.987 Y179.567 E0.69354
G1 X105.556 Y179.638 E0.73901
G1 X106.077 Y179.854 E0.78366
G1 X106.523 Y180.197 E0.82831
G1 X106.870 Y180.654 E0.87377
G1 X107.080 Y181.161 E0.91731
G1 X107.153 Y181.719 E0.96188
G1 X107.080 Y182.276 E1.00644
G1 X106.865 Y182.795 E1.05101
G1 X106.523 Y183.241 E1.09557
G1 X106.077 Y183.584 E1.14013
G1 X105.557 Y183.799 E1.18469
G1 X105.000 Y183.872 E1.22926
G1 X104.443 Y183.799 E1.27382
G1 X103.923 Y183.584 E1.31838
G1 X103.477 Y183.241 E1.36303
G1 X103.130 Y182.784 E1.40849
G1 X102.920 Y182.276 E1.45204
G1 X102.847 Y181.719 E1.49660
G1 X102.920 Y181.161 E1.54116
G1 X103.135 Y180.642 E1.58573
G1 X103.477 Y180.196 E1.63029
G1 X103.923 Y179.854 E1.67485
G1 X104.387 Y179.662 E1.71465
G1 X104.546 Y179.253 F4500.000
G1 E1.11465 F900.00000
G92 E0
G1 X148.084 Y167.838 F4500.000
G1 E0.65000 F900.00000
G1 F720
G1 X147.952 Y167.291 E0.69465
G1 X147.971 Y166.718 E0.74011
G1 X148.127 Y166.191 E0.78365
G1 X148.421 Y165.712 E0.82821
G1 X148.828 Y165.325 E0.87278
G1 X149.322 Y165.057 E0.91734
G1 X149.857 Y164.928 E0.96089
G1 X150.430 Y164.940 E1.00635
G1 X150.970 Y165.100 E1.05101
G1 X151.449 Y165.393 E1.09557
G1 X151.836 Y165.801 E1.14012
G1 X152.104 Y166.295 E1.18469
G1 X152.236 Y166.843 E1.22934
G1 X152.217 Y167.416 E1.27480
G1 X152.061 Y167.943 E1.31835
G1 X151.768 Y168.422 E1.36291
G1 X151.360 Y168.809 E1.40747
G1 X150.866 Y169.077 E1.45204
G1 X150.319 Y169.208 E1.49660
G1 X149.757 Y169.193 E1.54116
G1 X149.218 Y169.034 E1.58572
G1 X148.739 Y168.740 E1.63029
G1 X148.352 Y168.332 E1.67484
G1 X148.113 Y167.891 E1.71465
G1 X148.084 Y167.838 F4500.000
G1 E1.11465 F900.00000
G92 E0
G1 X176.791 Y130.513 F4500.000
G1 E0.65000 F900.00000
G1 F720
G1 X176.364 Y130.148 E0.69456
G1 X176.045 Y129.685 E0.73912
G1 X175.858 Y129.155 E0.78369
G1 X175.814 Y128.595 E0.82825
G1 X175.916 Y128.042 E0.87282
G1 X176.158 Y127.535 E0.91738
G1 X176.523 Y127.107 E0.96194
G1 X176.986 Y126.789 E1.00650
G1 X177.516 Y126.601 E1.05107
G1 X178.064 Y126.558 E1.09461
G1 X178.628 Y126.659 E1.14007
G1 X179.137 Y126.902 E1.18472
G1 X179.565 Y127.267 E1.22937
G1 X179.887 Y127.742 E1.27484
G1 X180.070 Y128.260 E1.31838
G1 X180.114 Y128.821 E1.36302
G1 X180.006 Y129.384 E1.40849
G1 X179.770 Y129.880 E1.45204
G1 X179.405 Y130.308 E1.49660
G1 X178.941 Y130.626 E1.54116
G1 X178.424 Y130.809 E1.58470
G1 X177.852 Y130.858 E1.63016
G1 X177.299 Y130.755 E1.67481
G1 X176.845 Y130.539 E1.71462
G1 X176.791 Y130.513 F4500.000
G1 E1.11462 F900.00000
G92 E0
G1 X178.078 Y83.443 F4500.000
G1 E0.65000 F900.00000
G1 F720
G1 X177.516 Y83.399 E0.69465
G1 X176.986 Y83.211 E0.73922
G1 X176.523 Y82.893 E0.78378
G1 X176.158 Y82.465 E0.82834
G1 X175.916 Y81.958 E0.87290
G1 X175.813 Y81.404 E0.91756
G1 X175.862 Y80.833 E0.96302
G1 X176.045 Y80.315 E1.00656
G1 X176.364 Y79.852 E1.05113
G1 X176.791 Y79.487 E1.09569
G1 X177.299 Y79.245 E1.14025
G1 X177.839 Y79.145 E1.18379
G1 X178.411 Y79.186 E1.22926
G1 X178.941 Y79.374 E1.27390
G1 X179.405 Y79.692 E1.31847
G1 X179.770 Y80.120 E1.36302
G1 X180.012 Y80.627 E1.40759
G1 X180.114 Y81.180 E1.45216
G1 X180.070 Y81.740 E1.49672
G1 X179.882 Y82.270 E1.54128
G1 X179.564 Y82.733 E1.58584
G1 X179.137 Y83.098 E1.63041
G1 X178.641 Y83.335 E1.67394
G1 X178.137 Y83.432 E1.71465
G1 X178.078 Y83.443 F4500.000
G1 E1.11465 F900.00000
G92 E0
G1 X151.449 Y44.607 F4500.000
G1 E0.65000 F900.00000
G1 F720
G1 X150.970 Y44.900 E0.69456
G1 X150.443 Y45.056 E0.73811
G1 X149.870 Y45.075 E0.78357
G1 X149.322 Y44.943 E0.82823
G1 X148.828 Y44.675 E0.87279
G1 X148.421 Y44.288 E0.91736
G1 X148.127 Y43.809 E0.96192
G1 X147.967 Y43.270 E1.00648
G1 X147.953 Y42.708 E1.05104
G1 X148.084 Y42.162 E1.09560
G1 X148.352 Y41.668 E1.14017
G1 X148.739 Y41.260 E1.18472
G1 X149.218 Y40.966 E1.22929
G1 X149.757 Y40.807 E1.27385
G1 X150.306 Y40.792 E1.31739
G1 X150.865 Y40.922 E1.36285
G1 X151.360 Y41.191 E1.40751
G1 X151.768 Y41.578 E1.45207
G1 X152.061 Y42.057 E1.49663
G1 X152.221 Y42.596 E1.54119
G1 X152.236 Y43.158 E1.58576
G1 X152.104 Y43.705 E1.63033
G1 X151.836 Y44.199 E1.67489
G1 X151.491 Y44.563 E1.71468
G1 X151.449 Y44.607 F4500.000
G1 E1.11468 F900.00000
G92 E0
G1 X107.080 Y28.839 F4500.000
G1 E0.65000 F900.00000
G1 F720
G1 X106.865 Y29.358 E0.69457
G1 X106.523 Y29.804 E0.73913
G1 X106.077 Y30.146 E0.78369
G1 X105.557 Y30.361 E0.82825
G1 X105.000 Y30.435 E0.87281
G1 X104.443 Y30.361 E0.91738
G1 X103.923 Y30.146 E0.96194
G1 X103.477 Y29.803 E1.00659
G1 X103.130 Y29.346 E1.05205
G1 X102.920 Y28.839 E1.09559
G1 X102.847 Y28.281 E1.14016
G1 X102.920 Y27.724 E1.18472
G1 X103.135 Y27.205 E1.22929
G1 X103.477 Y26.759 E1.27385
G1 X103.923 Y26.416 E1.31841
G1 X104.443 Y26.201 E1.36297
G1 X104.987 Y26.130 E1.40651
G1 X105.556 Y26.201 E1.45198
G1 X106.077 Y26.416 E1.49663
G1 X106.523 Y26.759 E1.54119
G1 X106.865 Y27.205 E1.58575
G1 X107.080 Y27.724 E1.63031
G1 X107.153 Y28.281 E1.67487
G1 X107.088 Y28.779 E1.71469
G1 X107.080 Y28.839 F4500.000
G1 E1.11469 F900.00000
G92 E0
G1 X107.080 Y36.306 F4500.000
G1 E0.65000 F900.00000
G1 F1920
G1 X107.399 Y36.306 E0.67529
G1 X112.185 Y36.640 E1.05564
G1 X116.936 Y37.308 E1.43600
G1 X121.629 Y38.306 E1.81635
G1 X126.241 Y39.628 E2.19670
G1 X130.749 Y41.269 E2.57706
G1 X135.132 Y43.220 E2.95741
G1 X139.368 Y45.473 E3.33776
G1 X143.437 Y48.015 E3.71812
G1 X147.318 Y50.835 E4.09847
G1 X150.994 Y53.919 E4.47882
G1 X154.445 Y57.252 E4.85918
G1 X157.655 Y60.817 E5.23953
G1 X160.609 Y64.598 E5.61989
G1 X163.292 Y68.575 E6.00024
G1 X165.690 Y72.730 E6.38059
G1 X167.794 Y77.042 E6.76094
G1 X169.591 Y81.491 E7.14130
G1 X171.074 Y86.054 E7.52165
G1 X172.234 Y90.709 E7.90201
G1 X173.067 Y95.435 E8.28242
G1 X173.573 Y100.324 E8.67213
G1 X173.736 Y105.000 E9.04304
G1 X173.569 Y109.795 E9.42339
G1 X173.067 Y114.566 E9.80375
G1 X172.234 Y119.291 E10.18410
G1 X171.074 Y123.946 E10.56445
G1 X169.591 Y128.509 E10.94481
G1 X167.794 Y132.958 E11.32516
G1 X165.690 Y137.270 E11.70552
G1 X163.292 Y141.425 E12.08587
G1 X160.609 Y145.402 E12.46622
G1 X157.655 Y149.183 E12.84658
G1 X154.445 Y152.748 E13.22693
G1 X150.994 Y156.081 E13.60729
G1 X147.318 Y159.165 E13.98763
G1 X143.437 Y161.985 E14.36799
G1 X139.368 Y164.527 E14.74834
G1 X135.132 Y166.780 E15.12870
G1 X130.858 Y168.683 E15.49961
G1 X126.241 Y170.372 E15.88932
G1 X121.629 Y171.694 E16.26974
G1 X116.936 Y172.692 E16.65008
G1 X112.303 Y173.343 E17.02100
G1 X107.400 Y173.694 E17.41071
G1 X102.601 Y173.694 E17.79113
G1 X97.815 Y173.360 E18.17148
G1 X93.064 Y172.692 E18.55184
G1 X88.371 Y171.694 E18.93219
G1 X83.759 Y170.372 E19.31254
G1 X79.251 Y168.731 E19.69289
G1 X74.868 Y166.780 E20.07324
G1 X70.632 Y164.527 E20.45360
G1 X66.563 Y161.985 E20.83395
G1 X62.682 Y159.165 E21.21431
G1 X59.006 Y156.081 E21.59466
G1 X55.555 Y152.748 E21.97501
G1 X52.345 Y149.183 E22.35536
G1 X49.391 Y145.402 E22.73572
G1 X46.708 Y141.424 E23.11614
G1 X44.257 Y137.163 E23.50584
G1 X42.206 Y132.958 E23.87676
G1 X40.409 Y128.509 E24.25711
