; generated by Slic3r 1.3.1-dev on 2019-10-03 at 16:02:56

; Print Config Notes: 
; DMF_3D_0.3mmThin222HC25%
; 
; external perimeters extrusion width = 0.60mm (4.82mm^3/s)
; perimeters extrusion width = 0.54mm (5.71mm^3/s)
; infill extrusion width = 0.70mm (7.63mm^3/s)
; solid infill extrusion width = 0.51mm (5.35mm^3/s)
; top infill extrusion width = 0.51mm (5.35mm^3/s)

M190 S90 ; set bed temperature and wait for it to be reached
M104 S250 ; set temperature
G28 ; home all axes
; Filament gcode

M109 S250 ; set temperature and wait for it to be reached
G21 ; set units to millimeters
G90 ; use absolute coordinates
M82 ; use absolute distances for extrusion
G92 E0
G1 Z0.300 F4500.000
G1 E-0.60000 F900.00000
G92 E0
G1 X86.306 Y54.629 F4500.000
G1 E0.65000 F900.00000
G1 F1920
G1 X86.888 Y53.900 E0.72391
G1 X87.406 Y53.342 E0.78429
G1 X87.961 Y52.822 E0.84460
G1 X88.552 Y52.343 E0.90492
G1 X89.175 Y51.905 E0.96529
G1 X89.827 Y51.511 E1.02566
G1 X90.505 Y51.164 E1.08602
G1 X91.203 Y50.866 E1.14623
G1 X91.924 Y50.617 E1.20668
G1 X92.658 Y50.419 E1.26700
G1 X93.405 Y50.272 E1.32735
G1 X94.161 Y50.178 E1.38770
G1 X94.921 Y50.137 E1.44805
G1 X95.681 Y50.149 E1.50834
G1 X96.100 Y50.178 E1.54158
G1 X96.855 Y50.272 E1.60195
G1 X97.602 Y50.419 E1.66230
G1 X98.501 Y50.667 E1.73620
G1 X150.342 Y67.514 E6.05761
G1 X151.051 Y67.785 E6.11784
G1 X151.742 Y68.106 E6.17820
G1 X152.409 Y68.474 E6.23858
G1 X153.048 Y68.888 E6.29895
G1 X153.656 Y69.344 E6.35927
G1 X154.231 Y69.842 E6.41956
G1 X154.533 Y70.133 E6.45276
G1 X155.051 Y70.691 E6.51318
G1 X155.529 Y71.283 E6.57343
G1 X155.965 Y71.909 E6.63393
G1 X156.355 Y72.561 E6.69418
G1 X156.700 Y73.240 E6.75451
G1 X156.996 Y73.941 E6.81486
G1 X157.337 Y74.990 E6.90227
G1 X157.510 Y75.732 E6.96271
G1 X157.630 Y76.484 E7.02310
G1 X157.698 Y77.240 E7.08329
G1 X157.715 Y77.831 E7.13016
G1 X157.712 Y132.341 E11.45157
G1 X157.698 Y132.760 E11.48479
G1 X157.630 Y133.516 E11.54497
G1 X157.438 Y134.604 E11.63257
G1 X157.243 Y135.339 E11.69285
G1 X156.996 Y136.059 E11.75321
G1 X156.839 Y136.448 E11.78648
G1 X156.516 Y137.137 E11.84679
G1 X155.965 Y138.091 E11.93415
G1 X155.529 Y138.717 E11.99462
G1 X155.271 Y139.047 E12.02782
G1 X154.533 Y139.867 E12.11527
G1 X153.977 Y140.386 E12.17558
G1 X153.388 Y140.866 E12.23581
G1 X152.747 Y141.315 E12.29788
G1 X152.112 Y141.697 E12.35659
G1 X151.742 Y141.894 E12.38984
G1 X151.051 Y142.215 E12.45020
G1 X150.179 Y142.542 E12.52407
G1 X98.501 Y159.333 E16.83184
G1 X97.602 Y159.581 E16.90574
G1 X96.855 Y159.728 E16.96609
G1 X96.101 Y159.822 E17.02637
G1 X95.340 Y159.863 E17.08679
G1 X94.579 Y159.851 E17.14711
G1 X93.821 Y159.786 E17.20745
G1 X93.069 Y159.669 E17.26777
G1 X92.327 Y159.499 E17.32809
G1 X91.597 Y159.277 E17.38859
G1 X90.888 Y159.006 E17.44875
G1 X90.197 Y158.685 E17.50918
G1 X89.530 Y158.317 E17.56955
G1 X88.891 Y157.904 E17.62992
G1 X88.282 Y157.447 E17.69025
G1 X87.961 Y157.178 E17.72345
G1 X87.406 Y156.658 E17.78373
G1 X86.887 Y156.100 E17.84413
G1 X86.410 Y155.508 E17.90441
G1 X54.270 Y111.271 E22.23937
G1 X53.854 Y110.633 E22.29972
G1 X53.484 Y109.968 E22.36006
G1 X53.161 Y109.279 E22.42040
G1 X52.887 Y108.568 E22.48077
G1 X52.663 Y107.841 E22.54112
G1 X52.490 Y107.099 E22.60147
G1 X52.370 Y106.348 E22.66177
G1 X52.326 Y105.932 E22.69498
G1 X52.288 Y105.171 E22.75539
G1 X52.302 Y104.410 E22.81568
G1 X52.370 Y103.652 E22.87607
G1 X52.562 Y102.566 E22.96348
G1 X52.757 Y101.830 E23.02383
G1 X53.004 Y101.110 E23.08420
G1 X53.300 Y100.408 E23.14454
G1 X53.644 Y99.730 E23.20488
G1 X54.035 Y99.077 E23.26523
G1 X54.368 Y98.589 E23.31200
G1 X86.271 Y54.678 E27.61500
G1 X86.821 Y55.003 F4500.000
G1 F1920
G1 X87.360 Y54.325 E27.68365
G1 X87.847 Y53.799 E27.74050
G1 X88.370 Y53.309 E27.79729
G1 X88.926 Y52.857 E27.85410
G1 X89.512 Y52.444 E27.91095
G1 X90.125 Y52.072 E27.96780
G1 X90.763 Y51.745 E28.02464
G1 X91.421 Y51.464 E28.08136
G1 X92.099 Y51.228 E28.13828
G1 X92.791 Y51.040 E28.19508
G1 X93.494 Y50.902 E28.25191
G1 X94.205 Y50.812 E28.30875
G1 X94.921 Y50.772 E28.36558
G1 X95.637 Y50.783 E28.42236
G1 X96.055 Y50.812 E28.45559
G1 X96.767 Y50.902 E28.51245
G1 X97.470 Y51.040 E28.56928
G1 X98.304 Y51.272 E28.63791
G1 X150.124 Y68.112 E32.95755
G1 X150.793 Y68.366 E33.01428
G1 X151.444 Y68.667 E33.07112
G1 X152.072 Y69.013 E33.12798
G1 X152.674 Y69.402 E33.18483
G1 X153.248 Y69.831 E33.24163
G1 X153.790 Y70.300 E33.29842
G1 X154.091 Y70.591 E33.33162
G1 X154.579 Y71.117 E33.38851
G1 X155.028 Y71.674 E33.44526
G1 X155.438 Y72.264 E33.50222
G1 X155.805 Y72.879 E33.55897
G1 X156.250 Y73.791 E33.63940
G1 X156.509 Y74.459 E33.69624
G1 X156.720 Y75.143 E33.75300
G1 X156.884 Y75.842 E33.80992
G1 X156.998 Y76.550 E33.86677
G1 X157.042 Y76.967 E33.89999
G1 X157.077 Y77.681 E33.95668
G1 X157.077 Y132.319 E38.28821
G1 X157.062 Y132.737 E38.32143
G1 X156.998 Y133.450 E38.37812
G1 X156.822 Y134.450 E38.45867
G1 X156.638 Y135.142 E38.51544
G1 X156.407 Y135.821 E38.57229
G1 X156.250 Y136.210 E38.60554
G1 X155.945 Y136.858 E38.66234
G1 X155.438 Y137.736 E38.74269
G1 X155.204 Y138.083 E38.77589
G1 X154.770 Y138.656 E38.83283
G1 X154.091 Y139.409 E38.91325
G1 X153.569 Y139.900 E38.97005
G1 X153.014 Y140.352 E39.02678
G1 X152.410 Y140.776 E39.08532
G1 X151.814 Y141.136 E39.14051
G1 X151.444 Y141.333 E39.17375
G1 X150.793 Y141.634 E39.23059
G1 X149.982 Y141.937 E39.29919
G1 X98.304 Y158.728 E43.60696
G1 X97.470 Y158.960 E43.67559
G1 X96.767 Y159.098 E43.73242
G1 X96.056 Y159.188 E43.78920
G1 X95.340 Y159.228 E43.84609
G1 X94.623 Y159.217 E43.90290
G1 X93.909 Y159.157 E43.95972
G1 X93.201 Y159.047 E44.01652
G1 X92.502 Y158.888 E44.07333
G1 X91.815 Y158.680 E44.13030
G1 X91.146 Y158.425 E44.18697
G1 X90.495 Y158.124 E44.24386
G1 X89.867 Y157.778 E44.30072
G1 X89.264 Y157.389 E44.35756
G1 X88.691 Y156.960 E44.41438
G1 X88.370 Y156.691 E44.44758
G1 X87.848 Y156.201 E44.50436
G1 X87.360 Y155.675 E44.56123
G1 X86.911 Y155.117 E44.61800
G1 X54.797 Y110.915 E48.94944
G1 X54.404 Y110.315 E49.00627
G1 X54.055 Y109.689 E49.06310
G1 X53.750 Y109.041 E49.11992
G1 X53.491 Y108.372 E49.17677
G1 X53.280 Y107.687 E49.23360
G1 X53.116 Y106.989 E49.29043
G1 X53.002 Y106.282 E49.34722
G1 X52.958 Y105.865 E49.38044
G1 X52.923 Y105.148 E49.43732
G1 X52.938 Y104.432 E49.49410
G1 X53.002 Y103.718 E49.55096
G1 X53.178 Y102.719 E49.63136
G1 X53.362 Y102.026 E49.68818
G1 X53.593 Y101.348 E49.74504
G1 X53.871 Y100.687 E49.80186
G1 X54.055 Y100.311 E49.83506
G1 X54.394 Y99.703 E49.89023
G1 X54.797 Y99.085 E49.94872
G1 X86.785 Y55.051 E54.26353
G1 X87.335 Y55.376 F4500.000
G1 F1920
G1 X87.832 Y54.751 E54.32690
G1 X88.289 Y54.257 E54.38023
G1 X88.779 Y53.796 E54.43352
G1 X89.299 Y53.371 E54.48681
G1 X89.849 Y52.983 E54.54014
G1 X90.424 Y52.634 E54.59347
G1 X91.022 Y52.326 E54.64679
G1 X91.638 Y52.061 E54.70001
G1 X92.274 Y51.839 E54.75340
G1 X92.923 Y51.662 E54.80669
G1 X93.582 Y51.531 E54.86000
G1 X94.250 Y51.446 E54.91332
G1 X94.921 Y51.408 E54.96664
G1 X95.593 Y51.417 E55.01990
G1 X96.011 Y51.446 E55.05313
G1 X96.678 Y51.531 E55.10647
G1 X97.338 Y51.662 E55.15978
G1 X98.108 Y51.876 E55.22314
G1 X149.907 Y68.709 E59.54102
G1 X150.534 Y68.947 E59.59424
G1 X151.145 Y69.228 E59.64757
G1 X151.735 Y69.552 E59.70090
G1 X152.301 Y69.916 E59.75423
G1 X152.839 Y70.318 E59.80752
G1 X153.348 Y70.757 E59.86080
G1 X153.650 Y71.048 E59.89400
G1 X154.107 Y71.542 E59.94736
G1 X154.527 Y72.066 E60.00061
G1 X154.911 Y72.619 E60.05403
G1 X155.374 Y73.421 E60.12736
G1 X155.660 Y74.029 E60.18068
G1 X155.904 Y74.656 E60.23400
G1 X156.103 Y75.297 E60.28726
G1 X156.258 Y75.953 E60.34064
G1 X156.366 Y76.617 E60.39398
G1 X156.409 Y77.033 E60.42720
G1 X156.442 Y77.704 E60.48039
G1 X156.442 Y132.296 E64.80838
G1 X156.427 Y132.715 E64.84160
G1 X156.366 Y133.383 E64.89479
G1 X156.205 Y134.296 E64.96830
G1 X156.103 Y134.703 E65.00154
G1 X155.904 Y135.345 E65.05481
G1 X155.660 Y135.972 E65.10813
G1 X155.374 Y136.580 E65.16142
G1 X154.911 Y137.381 E65.23475
G1 X154.677 Y137.728 E65.26795
G1 X154.269 Y138.264 E65.32136
G1 X153.650 Y138.952 E65.39475
G1 X153.160 Y139.413 E65.44804
G1 X152.640 Y139.837 E65.50127
G1 X152.072 Y140.237 E65.55632
G1 X151.515 Y140.575 E65.60795
G1 X151.145 Y140.772 E65.64119
G1 X150.534 Y141.053 E65.69451
G1 X149.786 Y141.333 E65.75785
G1 X98.108 Y158.124 E70.06561
G1 X97.338 Y158.338 E70.12897
G1 X96.678 Y158.469 E70.18229
G1 X96.012 Y158.554 E70.23555
G1 X95.340 Y158.592 E70.28892
G1 X94.668 Y158.583 E70.34221
G1 X93.997 Y158.527 E70.39552
G1 X93.333 Y158.425 E70.44881
G1 X92.677 Y158.277 E70.50210
G1 X92.032 Y158.082 E70.55553
G1 X91.405 Y157.845 E70.60871
G1 X90.793 Y157.563 E70.66208
G1 X90.204 Y157.239 E70.71541
G1 X89.638 Y156.875 E70.76874
G1 X89.099 Y156.473 E70.82204
G1 X88.779 Y156.204 E70.85524
G1 X88.289 Y155.743 E70.90851
G1 X87.832 Y155.249 E70.96186
G1 X87.412 Y154.725 E71.01512
G1 X55.323 Y110.560 E75.34304
G1 X54.955 Y109.997 E75.39635
G1 X54.626 Y109.411 E75.44966
G1 X54.339 Y108.802 E75.50297
G1 X54.096 Y108.175 E75.55630
G1 X53.896 Y107.533 E75.60961
G1 X53.742 Y106.879 E75.66293
G1 X53.634 Y106.215 E75.71621
G1 X53.591 Y105.799 E75.74942
G1 X53.558 Y105.126 E75.80277
G1 X53.573 Y104.455 E75.85605
G1 X53.634 Y103.785 E75.90939
G1 X53.795 Y102.873 E75.98276
G1 X53.966 Y102.223 E76.03607
G1 X54.183 Y101.586 E76.08940
G1 X54.443 Y100.966 E76.14271
G1 X54.626 Y100.589 E76.17591
G1 X54.944 Y100.021 E76.22756
G1 X55.324 Y99.440 E76.28254
G1 X87.300 Y55.425 E80.59559
G1 E79.99559 F900.00000
G92 E0
G1 X122.651 Y139.706 F4500.000
G1 E0.65000 F900.00000
G1 F720
G1 X123.016 Y140.134 E0.69456
G1 X123.258 Y140.641 E0.73912
G1 X123.361 Y141.194 E0.78369
G1 X123.317 Y141.754 E0.82825
G1 X123.129 Y142.284 E0.87282
G1 X122.811 Y142.747 E0.91738
G1 X122.383 Y143.112 E0.96194
G1 X121.876 Y143.354 E1.00650
G1 X121.323 Y143.457 E1.05107
G1 X120.763 Y143.413 E1.09563
G1 X120.233 Y143.225 E1.14019
G1 X119.769 Y142.906 E1.18485
G1 X119.398 Y142.465 E1.23050
G1 X119.163 Y141.972 E1.27384
G1 X119.060 Y141.419 E1.31840
G1 X119.104 Y140.859 E1.36296
G1 X119.292 Y140.329 E1.40752
G1 X119.610 Y139.866 E1.45209
G1 X120.038 Y139.501 E1.49665
G1 X120.545 Y139.259 E1.54121
G1 X121.083 Y139.159 E1.58455
G1 X121.657 Y139.200 E1.63019
G1 X122.188 Y139.388 E1.67486
G1 X122.602 Y139.672 E1.71467
G1 X122.651 Y139.706 F4500.000
G1 E1.11467 F900.00000
G92 E0
G1 X80.656 Y127.776 F4500.000
G1 E0.65000 F900.00000
G1 F720
G1 X80.497 Y128.314 E0.69456
G1 X80.203 Y128.794 E0.73912
G1 X79.795 Y129.181 E0.78369
G1 X79.301 Y129.449 E0.82825
G1 X78.755 Y129.580 E0.87281
G1 X78.193 Y129.565 E0.91737
G1 X77.654 Y129.406 E0.96193
G1 X77.175 Y129.112 E1.00650
G1 X76.788 Y128.704 E1.05106
G1 X76.519 Y128.210 E1.09562
G1 X76.388 Y127.662 E1.14029
G1 X76.407 Y127.087 E1.18593
G1 X76.563 Y126.563 E1.22927
G1 X76.856 Y126.084 E1.27384
G1 X77.264 Y125.697 E1.31839
G1 X77.758 Y125.429 E1.36296
G1 X78.289 Y125.301 E1.40630
G1 X78.865 Y125.312 E1.45194
G1 X79.405 Y125.472 E1.49661
G1 X79.885 Y125.765 E1.54117
G1 X80.272 Y126.173 E1.58574
G1 X80.540 Y126.667 E1.63030
G1 X80.671 Y127.214 E1.67486
G1 X80.658 Y127.716 E1.71466
G1 X80.656 Y127.776 F4500.000
G1 E1.11466 F900.00000
G92 E0
G1 X78.866 Y84.688 F4500.000
G1 E0.65000 F900.00000
G1 F720
G1 X78.305 Y84.703 E0.69456
G1 X77.758 Y84.571 E0.73912
G1 X77.264 Y84.303 E0.78369
G1 X76.856 Y83.916 E0.82825
G1 X76.563 Y83.437 E0.87281
G1 X76.403 Y82.898 E0.91737
G1 X76.388 Y82.335 E0.96204
G1 X76.527 Y81.776 E1.00768
G1 X76.788 Y81.296 E1.05102
G1 X77.175 Y80.888 E1.09559
G1 X77.654 Y80.594 E1.14015
G1 X78.193 Y80.435 E1.18471
G1 X78.739 Y80.420 E1.22804
G1 X79.300 Y80.550 E1.27369
G1 X79.795 Y80.819 E1.31836
G1 X80.203 Y81.206 E1.36292
G1 X80.497 Y81.686 E1.40748
G1 X80.656 Y82.224 E1.45205
G1 X80.671 Y82.786 E1.49661
G1 X80.540 Y83.333 E1.54117
G1 X80.272 Y83.827 E1.58573
G1 X79.885 Y84.235 E1.63029
G1 X79.405 Y84.528 E1.67486
G1 X78.924 Y84.671 E1.71466
G1 X78.866 Y84.688 F4500.000
G1 E1.11466 F900.00000
G92 E0
G1 X94.549 Y146.227 F4500.000
G1 E0.65000 F900.00000
G1 F720
G1 X95.239 Y146.172 E0.70481
G1 X95.987 Y146.299 E0.76496
G1 X96.652 Y146.616 E0.82341
G1 X97.207 Y147.090 E0.88126
G1 X97.620 Y147.691 E0.93908
G1 X97.864 Y148.379 E0.99691
G1 X97.921 Y149.106 E1.05474
G1 X97.788 Y149.823 E1.11257
G1 X97.474 Y150.482 E1.17039
G1 X97.000 Y151.037 E1.22823
G1 X96.399 Y151.450 E1.28606
G1 X95.711 Y151.693 E1.34389
G1 X94.984 Y151.750 E1.40173
G1 X94.267 Y151.617 E1.45955
G1 X93.609 Y151.303 E1.51737
G1 X93.054 Y150.830 E1.57522
G1 X92.641 Y150.228 E1.63304
G1 X92.397 Y149.541 E1.69087
G1 X92.340 Y148.814 E1.74871
G1 X92.473 Y148.096 E1.80653
G1 X92.787 Y147.438 E1.86435
G1 X93.261 Y146.883 E1.92220
G1 X93.862 Y146.470 E1.98002
G1 X94.493 Y146.247 E2.03309
G1 X94.683 Y146.854 F4500.000
G1 F720
G1 X95.210 Y146.812 E2.07503
G1 X95.793 Y146.911 E2.12192
G1 X96.303 Y147.154 E2.16670
G1 X96.731 Y147.519 E2.21127
G1 X97.049 Y147.982 E2.25583
G1 X97.237 Y148.512 E2.30039
G1 X97.281 Y149.073 E2.34495
G1 X97.178 Y149.625 E2.38951
G1 X96.936 Y150.133 E2.43407
G1 X96.571 Y150.560 E2.47864
G1 X96.108 Y150.878 E2.52320
G1 X95.578 Y151.066 E2.56776
G1 X95.018 Y151.110 E2.61232
G1 X94.465 Y151.008 E2.65688
G1 X93.958 Y150.766 E2.70144
G1 X93.530 Y150.401 E2.74601
G1 X93.212 Y149.937 E2.79057
G1 X93.024 Y149.408 E2.83513
G1 X92.980 Y148.847 E2.87970
G1 X93.083 Y148.295 E2.92425
G1 X93.325 Y147.787 E2.96881
G1 X93.690 Y147.360 E3.01338
G1 X94.153 Y147.041 E3.05794
G1 X94.626 Y146.874 E3.09775
G1 X94.806 Y146.473 F4500.000
G1 E2.49775 F900.00000
G92 E0
G1 X64.589 Y107.420 F4500.000
G1 E0.65000 F900.00000
G1 F720
G1 X63.915 Y107.699 E0.70783
G1 X63.192 Y107.794 E0.76566
G1 X62.468 Y107.699 E0.82349
G1 X61.794 Y107.420 E0.88132
G1 X61.216 Y106.976 E0.93916
G1 X60.772 Y106.397 E0.99698
G1 X60.492 Y105.723 E1.05481
G1 X60.397 Y105.000 E1.11265
G1 X60.492 Y104.277 E1.17048
G1 X60.772 Y103.603 E1.22831
G1 X61.216 Y103.024 E1.28613
G1 X61.794 Y102.580 E1.34397
G1 X62.468 Y102.301 E1.40180
G1 X63.154 Y102.211 E1.45660
G1 X63.907 Y102.298 E1.51676
G1 X64.589 Y102.580 E1.57522
G1 X65.167 Y103.024 E1.63305
G1 X65.612 Y103.603 E1.69088
G1 X65.891 Y104.277 E1.74870
G1 X65.986 Y105.000 E1.80654
G1 X65.891 Y105.723 E1.86437
G1 X65.612 Y106.397 E1.92220
G1 X65.167 Y106.976 E1.98003
G1 X64.636 Y107.383 E2.03310
G1 X64.268 Y106.865 F4500.000
G1 F720
G1 X63.749 Y107.080 E2.07766
G1 X63.192 Y107.153 E2.12222
G1 X62.634 Y107.080 E2.16678
G1 X62.115 Y106.865 E2.21135
G1 X61.669 Y106.523 E2.25592
G1 X61.327 Y106.077 E2.30047
G1 X61.112 Y105.557 E2.34504
G1 X61.038 Y105.000 E2.38960
G1 X61.112 Y104.443 E2.43416
G1 X61.327 Y103.923 E2.47872
G1 X61.669 Y103.477 E2.52328
G1 X62.115 Y103.135 E2.56785
G1 X62.634 Y102.920 E2.61241
G1 X63.159 Y102.851 E2.65435
G1 X63.746 Y102.919 E2.70124
G1 X64.268 Y103.135 E2.74602
G1 X64.714 Y103.477 E2.79058
G1 X65.056 Y103.923 E2.83515
G1 X65.271 Y104.443 E2.87971
G1 X65.345 Y105.000 E2.92427
G1 X65.271 Y105.557 E2.96883
G1 X65.056 Y106.077 E3.01339
G1 X64.714 Y106.523 E3.05796
G1 X64.316 Y106.828 E3.09776
G1 X64.268 Y106.865 F4500.000
G1 E2.49776 F900.00000
G92 E0
G1 X79.199 Y106.343 F4500.000
G1 E0.65000 F900.00000
G1 F1920
G1 X79.153 Y105.000 E0.75657
G1 X79.226 Y102.889 E0.92402
G1 X79.447 Y100.788 E1.09147
G1 X79.814 Y98.708 E1.25892
G1 X80.325 Y96.659 E1.42637
G1 X80.978 Y94.650 E1.59382
G1 X81.769 Y92.692 E1.76127
G1 X82.695 Y90.793 E1.92873
G1 X83.751 Y88.964 E2.09618
G1 X84.932 Y87.213 E2.26362
G1 X86.232 Y85.548 E2.43108
G1 X87.646 Y83.979 E2.59853
G1 X89.165 Y82.511 E2.76598
G1 X90.783 Y81.154 E2.93343
G1 X92.492 Y79.912 E3.10088
G1 X94.283 Y78.793 E3.26834
G1 X96.148 Y77.801 E3.43579
G1 X98.078 Y76.942 E3.60324
G1 X100.063 Y76.220 E3.77069
G1 X102.093 Y75.638 E3.93814
G1 X104.159 Y75.199 E4.10559
G1 X106.199 Y74.912 E4.26889
G1 X108.357 Y74.757 E4.44042
G1 X110.470 Y74.757 E4.60794
G1 X112.577 Y74.905 E4.77539
G1 X114.669 Y75.199 E4.94284
G1 X116.735 Y75.638 E5.11029
G1 X118.765 Y76.220 E5.27774
G1 X120.750 Y76.942 E5.44519
G1 X122.679 Y77.801 E5.61264
G1 X124.544 Y78.793 E5.78009
G1 X126.336 Y79.912 E5.94754
G1 X128.044 Y81.154 E6.11500
G1 X129.663 Y82.511 E6.28244
