; generated by Slic3r 1.3.1-dev on 2019-10-03 at 16:03:17

; Print Config Notes: 
; DMF_3D_0.3mmThin222HC25%
; 
; external perimeters extrusion width = 0.60mm (4.82mm^3/s)
; perimeters extrusion width = 0.54mm (5.71mm^3/s)
; infill extrusion width = 0.70mm (7.63mm^3/s)
; solid infill extrusion width = 0.51mm (5.35mm^3/s)
; top infill extrusion width = 0.51mm (5.35mm^3/s)

M190 S90 ; set bed temperature and wait for it to be reached
M104 S250 ; set temperature
G28 ; home all axes
; Filament gcode

M109 S250 ; set temperature and wait for it to be reached
G21 ; set units to millimeters
G90 ; use absolute coordinates
M82 ; use absolute distances for extrusion
G92 E0
G1 Z0.300 F4500.000
G1 E-0.60000 F900.00000
G92 E0
G1 X89.643 Y63.458 F4500.000
G1 E0.65000 F900.00000
G1 F1920
G1 X90.138 Y62.839 E0.71281
G1 X90.563 Y62.385 E0.76212
G1 X91.018 Y61.962 E0.81137
G1 X91.502 Y61.571 E0.86072
G1 X92.011 Y61.217 E0.90989
G1 X92.545 Y60.897 E0.95921
G1 X93.101 Y60.615 E1.00862
G1 X93.671 Y60.374 E1.05774
G1 X94.259 Y60.173 E1.10700
G1 X94.861 Y60.013 E1.15638
G1 X95.469 Y59.895 E1.20547
G1 X96.090 Y59.820 E1.25503
G1 X96.709 Y59.789 E1.30420
G1 X97.608 Y59.820 E1.37549
G1 X98.227 Y59.895 E1.42493
G1 X98.836 Y60.012 E1.47408
G1 X99.601 Y60.222 E1.53700
G1 X142.444 Y74.146 E5.10834
G1 X143.022 Y74.369 E5.15751
G1 X143.586 Y74.633 E5.20685
G1 X144.129 Y74.935 E5.25609
G1 X144.651 Y75.276 E5.30556
G1 X145.360 Y75.830 E5.37687
G1 X145.816 Y76.253 E5.42615
G1 X146.240 Y76.706 E5.47537
G1 X146.633 Y77.190 E5.52477
G1 X146.990 Y77.698 E5.57397
G1 X147.312 Y78.231 E5.62338
G1 X147.733 Y79.096 E5.69962
G1 X147.955 Y79.676 E5.74890
G1 X148.136 Y80.273 E5.79832
G1 X148.274 Y80.877 E5.84747
G1 X148.371 Y81.492 E5.89678
G1 X148.424 Y82.112 E5.94611
G1 X148.436 Y82.561 E5.98178
G1 X148.433 Y127.609 E9.55310
G1 X148.371 Y128.508 E9.62454
G1 X148.274 Y129.124 E9.67396
G1 X148.136 Y129.727 E9.72300
G1 X147.838 Y130.646 E9.79955
G1 X147.472 Y131.467 E9.87087
G1 X146.990 Y132.302 E9.94732
G1 X146.461 Y133.030 E10.01864
G1 X145.816 Y133.747 E10.09510
G1 X145.361 Y134.170 E10.14433
G1 X144.880 Y134.558 E10.19335
G1 X144.366 Y134.917 E10.24301
G1 X143.587 Y135.366 E10.31430
G1 X143.023 Y135.631 E10.36370
G1 X142.282 Y135.910 E10.42646
G1 X99.601 Y149.778 E13.98425
G1 X98.836 Y149.987 E14.04711
G1 X98.227 Y150.105 E14.09631
G1 X97.608 Y150.180 E14.14576
G1 X96.988 Y150.211 E14.19493
G1 X96.372 Y150.199 E14.24383
G1 X95.749 Y150.144 E14.29338
G1 X95.135 Y150.046 E14.34270
G1 X94.530 Y149.905 E14.39189
G1 X93.934 Y149.722 E14.44137
G1 X93.356 Y149.498 E14.49050
G1 X92.788 Y149.232 E14.54020
G1 X92.011 Y148.784 E14.61132
G1 X91.502 Y148.429 E14.66053
G1 X91.018 Y148.038 E14.70984
G1 X90.563 Y147.615 E14.75911
G1 X90.138 Y147.161 E14.80843
G1 X89.745 Y146.678 E14.85775
G1 X63.166 Y110.095 E18.44264
G1 X62.829 Y109.573 E18.49188
G1 X62.528 Y109.029 E18.54117
G1 X62.267 Y108.465 E18.59044
G1 X62.045 Y107.883 E18.63982
G1 X61.797 Y107.019 E18.71109
G1 X61.677 Y106.409 E18.76038
G1 X61.600 Y105.792 E18.80966
G1 X61.566 Y105.170 E18.85909
G1 X61.576 Y104.549 E18.90826
G1 X61.629 Y103.930 E18.95757
G1 X61.726 Y103.315 E19.00692
G1 X61.958 Y102.382 E19.08311
G1 X62.162 Y101.794 E19.13249
G1 X62.406 Y101.222 E19.18176
G1 X62.689 Y100.669 E19.23105
G1 X63.010 Y100.137 E19.28029
G1 X63.265 Y99.765 E19.31603
G1 X89.608 Y63.507 E22.86906
G1 X90.157 Y63.832 F4500.000
G1 F1920
G1 X90.610 Y63.265 E22.92660
G1 X91.004 Y62.842 E22.97239
G1 X91.426 Y62.449 E23.01813
G1 X91.876 Y62.086 E23.06395
G1 X92.348 Y61.756 E23.10962
G1 X92.843 Y61.458 E23.15542
G1 X93.359 Y61.196 E23.20130
G1 X93.889 Y60.971 E23.24692
G1 X94.434 Y60.784 E23.29267
G1 X94.993 Y60.634 E23.33852
G1 X95.558 Y60.525 E23.38411
G1 X96.134 Y60.454 E23.43011
G1 X96.709 Y60.425 E23.47578
G1 X97.564 Y60.454 E23.54357
G1 X98.138 Y60.525 E23.58947
G1 X98.704 Y60.634 E23.63512
G1 X99.405 Y60.827 E23.69276
G1 X142.226 Y74.743 E27.26234
G1 X142.764 Y74.950 E27.30801
G1 X143.288 Y75.194 E27.35383
G1 X143.792 Y75.474 E27.39955
G1 X144.278 Y75.790 E27.44548
G1 X144.952 Y76.317 E27.51329
G1 X145.374 Y76.710 E27.55905
G1 X145.768 Y77.132 E27.60476
G1 X146.132 Y77.581 E27.65063
G1 X146.463 Y78.053 E27.69632
G1 X146.761 Y78.549 E27.74220
G1 X147.144 Y79.334 E27.81143
G1 X147.350 Y79.873 E27.85719
G1 X147.519 Y80.426 E27.90308
G1 X147.697 Y81.262 E27.97084
G1 X147.768 Y81.838 E28.01685
G1 X147.798 Y82.413 E28.06244
G1 X147.798 Y127.587 E31.64379
G1 X147.739 Y128.442 E31.71171
G1 X147.648 Y129.014 E31.75759
G1 X147.519 Y129.574 E31.80315
G1 X147.248 Y130.407 E31.87265
G1 X146.900 Y131.189 E31.94046
G1 X146.463 Y131.947 E32.00987
G1 X145.960 Y132.639 E32.07768
G1 X145.374 Y133.290 E32.14710
G1 X144.952 Y133.683 E32.19283
G1 X144.506 Y134.044 E32.23836
G1 X144.029 Y134.378 E32.28446
G1 X143.289 Y134.805 E32.35225
G1 X142.764 Y135.050 E32.39811
G1 X142.086 Y135.305 E32.45560
G1 X99.405 Y149.173 E36.01340
G1 X98.704 Y149.366 E36.07099
G1 X98.138 Y149.475 E36.11668
G1 X97.564 Y149.546 E36.16258
G1 X96.988 Y149.575 E36.20825
G1 X96.415 Y149.565 E36.25369
G1 X95.837 Y149.515 E36.29969
G1 X95.267 Y149.424 E36.34548
G1 X94.705 Y149.294 E36.39117
G1 X94.151 Y149.124 E36.43711
G1 X93.614 Y148.918 E36.48274
G1 X93.086 Y148.671 E36.52891
G1 X92.348 Y148.245 E36.59650
G1 X91.876 Y147.914 E36.64221
G1 X91.427 Y147.551 E36.68799
G1 X91.004 Y147.158 E36.73375
G1 X90.610 Y146.735 E36.77955
G1 X90.246 Y146.287 E36.82535
G1 X63.693 Y109.739 E40.40673
G1 X63.379 Y109.255 E40.45246
G1 X63.100 Y108.750 E40.49822
G1 X62.856 Y108.227 E40.54398
G1 X62.649 Y107.687 E40.58983
G1 X62.414 Y106.865 E40.65760
G1 X62.303 Y106.299 E40.70337
G1 X62.232 Y105.726 E40.74913
G1 X62.202 Y105.148 E40.79502
G1 X62.211 Y104.572 E40.84069
G1 X62.262 Y103.996 E40.88648
G1 X62.352 Y103.425 E40.93231
G1 X62.563 Y102.579 E41.00150
G1 X62.751 Y102.032 E41.04735
G1 X62.977 Y101.501 E41.09310
G1 X63.240 Y100.986 E41.13887
G1 X63.693 Y100.261 E41.20672
G1 X90.122 Y63.880 E44.77159
G1 X90.671 Y64.205 F4500.000
G1 F1920
G1 X91.082 Y63.690 E44.82386
G1 X91.446 Y63.300 E44.86612
G1 X91.835 Y62.936 E44.90836
G1 X92.249 Y62.600 E44.95065
G1 X92.922 Y62.146 E45.01496
G1 X93.388 Y61.888 E45.05720
G1 X93.872 Y61.663 E45.09955
G1 X94.369 Y61.473 E45.14169
G1 X94.878 Y61.318 E45.18393
G1 X95.399 Y61.198 E45.22627
G1 X95.924 Y61.115 E45.26842
G1 X96.456 Y61.069 E45.31078
G1 X97.240 Y61.069 E45.37288
G1 X97.773 Y61.115 E45.41532
G1 X98.298 Y61.198 E45.45747
G1 X98.819 Y61.318 E45.49985
G1 X142.009 Y75.341 E49.09980
G1 X142.506 Y75.531 E49.14196
G1 X142.989 Y75.756 E49.18425
G1 X143.455 Y76.013 E49.22646
G1 X143.904 Y76.304 E49.26885
G1 X144.543 Y76.804 E49.33315
G1 X144.933 Y77.167 E49.37540
G1 X145.295 Y77.557 E49.41760
G1 X145.631 Y77.972 E49.45994
G1 X145.936 Y78.408 E49.50212
G1 X146.210 Y78.866 E49.54446
G1 X146.555 Y79.572 E49.60669
G1 X146.746 Y80.069 E49.64893
G1 X146.903 Y80.580 E49.69129
G1 X147.071 Y81.373 E49.75554
G1 X147.136 Y81.905 E49.79800
G1 X147.163 Y82.435 E49.84010
G1 X147.163 Y127.565 E53.41794
G1 X147.106 Y128.375 E53.48234
G1 X147.022 Y128.903 E53.52469
G1 X146.903 Y129.420 E53.56676
G1 X146.659 Y130.169 E53.62921
G1 X146.329 Y130.910 E53.69351
G1 X145.936 Y131.592 E53.75589
G1 X145.459 Y132.248 E53.82019
G1 X144.932 Y132.833 E53.88258
G1 X144.543 Y133.196 E53.92479
G1 X144.132 Y133.530 E53.96684
G1 X143.692 Y133.838 E54.00937
G1 X142.990 Y134.244 E54.07365
G1 X142.506 Y134.469 E54.11599
G1 X141.889 Y134.701 E54.16822
G1 X99.208 Y148.568 E57.72601
G1 X98.572 Y148.744 E57.77832
G1 X98.050 Y148.846 E57.82051
G1 X97.519 Y148.912 E57.86288
G1 X96.988 Y148.940 E57.90504
G1 X96.459 Y148.931 E57.94701
G1 X95.926 Y148.885 E57.98946
G1 X95.399 Y148.802 E58.03173
G1 X94.880 Y148.683 E58.07391
G1 X94.369 Y148.527 E58.11631
G1 X93.872 Y148.337 E58.15844
G1 X93.385 Y148.110 E58.20110
G1 X92.685 Y147.706 E58.26515
G1 X92.249 Y147.400 E58.30735
G1 X91.835 Y147.064 E58.34961
G1 X91.446 Y146.700 E58.39186
G1 X91.082 Y146.310 E58.43413
G1 X90.747 Y145.895 E58.47641
G1 X64.220 Y109.384 E62.05428
G1 X63.930 Y108.938 E62.09650
G1 X63.671 Y108.472 E62.13874
G1 X63.445 Y107.989 E62.18099
G1 X63.254 Y107.491 E62.22331
G1 X63.032 Y106.717 E62.28716
G1 X62.929 Y106.188 E62.32983
G1 X62.864 Y105.659 E62.37208
G1 X62.837 Y105.126 E62.41443
G1 X62.847 Y104.594 E62.45659
G1 X62.894 Y104.063 E62.49887
G1 X62.978 Y103.536 E62.54116
G1 X63.167 Y102.775 E62.60335
G1 X63.341 Y102.270 E62.64567
G1 X63.549 Y101.779 E62.68791
G1 X63.790 Y101.304 E62.73016
G1 X64.220 Y100.616 E62.79449
G1 X90.636 Y64.254 E66.35760
G1 E65.75760 F900.00000
G92 E0
G1 X135.248 Y118.223 F4500.000
G1 E0.65000 F900.00000
G1 F1440
G1 X134.891 Y118.955 E0.71457
G1 X133.854 Y120.752 E0.87906
G1 X132.694 Y122.472 E1.04355
G1 X131.416 Y124.107 E1.20803
G1 X130.028 Y125.649 E1.37252
G1 X128.535 Y127.090 E1.53700
G1 X126.946 Y128.424 E1.70148
G1 X125.293 Y129.625 E1.86346
G1 X123.508 Y130.743 E2.03044
G1 X121.676 Y131.717 E2.19493
G1 X119.781 Y132.561 E2.35942
G1 X117.831 Y133.270 E2.52391
G1 X115.837 Y133.842 E2.68839
G1 X113.807 Y134.274 E2.85288
G1 X111.753 Y134.562 E3.01736
G1 X109.683 Y134.707 E3.18185
G1 X107.608 Y134.707 E3.34633
G1 X105.538 Y134.562 E3.51082
G1 X103.484 Y134.274 E3.67530
G1 X101.462 Y133.844 E3.83912
G1 X99.460 Y133.270 E4.00427
G1 X97.510 Y132.561 E4.16876
G1 X95.615 Y131.717 E4.33324
G1 X93.783 Y130.743 E4.49774
G1 X91.998 Y129.625 E4.66472
G1 X90.345 Y128.424 E4.82670
G1 X88.755 Y127.090 E4.99118
G1 X87.263 Y125.649 E5.15566
G1 X85.882 Y124.116 E5.31924
G1 X84.597 Y122.472 E5.48463
G1 X83.437 Y120.752 E5.64911
G1 X82.400 Y118.955 E5.81360
G1 X81.490 Y117.090 E5.97808
G1 X80.713 Y115.167 E6.14258
G1 X80.074 Y113.201 E6.30642
G1 X79.570 Y111.180 E6.47154
G1 X79.209 Y109.137 E6.63602
G1 X78.993 Y107.074 E6.80051
G1 X78.920 Y105.000 E6.96499
G1 X78.993 Y102.926 E7.12948
G1 X79.209 Y100.863 E7.29396
G1 X79.570 Y98.820 E7.45845
G1 X80.072 Y96.807 E7.62293
G1 X80.713 Y94.833 E7.78742
G1 X81.490 Y92.910 E7.95191
G1 X82.400 Y91.045 E8.11639
G1 X83.437 Y89.248 E8.28088
G1 X84.597 Y87.528 E8.44536
G1 X85.875 Y85.893 E8.60984
G1 X87.263 Y84.351 E8.77433
G1 X88.755 Y82.910 E8.93883
G1 X90.356 Y81.568 E9.10444
G1 X92.023 Y80.357 E9.26778
G1 X93.783 Y79.257 E9.43227
G1 X95.615 Y78.283 E9.59675
G1 X97.510 Y77.439 E9.76124
G1 X99.460 Y76.730 E9.92573
G1 X101.454 Y76.158 E10.09021
G1 X103.484 Y75.726 E10.25469
G1 X105.538 Y75.438 E10.41918
G1 X107.608 Y75.293 E10.58367
G1 X109.683 Y75.293 E10.74815
G1 X111.709 Y75.435 E10.90921
G1 X113.807 Y75.726 E11.07709
G1 X115.837 Y76.158 E11.24160
G1 X117.824 Y76.728 E11.40549
G1 X119.781 Y77.439 E11.57057
G1 X121.685 Y78.288 E11.73581
G1 X123.508 Y79.257 E11.89953
G1 X125.268 Y80.357 E12.06402
G1 X126.946 Y81.576 E12.22851
G1 X128.535 Y82.910 E12.39299
G1 X129.703 Y84.037 E12.52166
G1 X130.028 Y84.351 E12.55748
G1 X131.416 Y85.893 E12.72196
G1 X132.694 Y87.528 E12.88645
G1 X133.854 Y89.248 E13.05093
G1 X134.891 Y91.045 E13.21542
G1 X135.801 Y92.910 E13.37990
G1 X136.578 Y94.833 E13.54439
G1 X137.219 Y96.807 E13.70887
G1 X137.721 Y98.820 E13.87336
G1 X138.081 Y100.863 E14.03784
G1 X138.298 Y102.926 E14.20233
G1 X138.371 Y105.000 E14.36681
G1 X138.298 Y107.074 E14.53130
G1 X138.081 Y109.137 E14.69578
G1 X137.721 Y111.180 E14.86027
G1 X137.219 Y113.193 E15.02476
G1 X136.578 Y115.167 E15.18924
G1 X135.801 Y117.090 E15.35372
G1 X135.275 Y118.169 E15.44887
G1 X135.477 Y118.551 F4500.000
G1 E14.84887 F900.00000
G92 E0
G1 X98.115 Y70.643 F4500.000
G1 E0.65000 F900.00000
G1 F720
G1 X97.567 Y70.904 E0.69810
G1 X96.970 Y71.015 E0.74621
G1 X96.365 Y70.967 E0.79431
G1 X95.793 Y70.764 E0.84242
G1 X95.293 Y70.421 E0.89052
G1 X94.899 Y69.959 E0.93863
G1 X94.638 Y69.412 E0.98674
G1 X94.527 Y68.815 E1.03484
G1 X94.575 Y68.210 E1.08295
G1 X94.778 Y67.638 E1.13106
G1 X95.121 Y67.138 E1.17915
G1 X95.583 Y66.744 E1.22725
G1 X96.130 Y66.483 E1.27537
G1 X96.727 Y66.372 E1.32348
G1 X97.332 Y66.420 E1.37159
G1 X97.904 Y66.622 E1.41968
G1 X98.404 Y66.966 E1.46779
G1 X98.798 Y67.427 E1.51589
G1 X99.059 Y67.975 E1.56400
G1 X99.170 Y68.572 E1.61211
G1 X99.122 Y69.177 E1.66022
G1 X98.920 Y69.749 E1.70832
G1 X98.576 Y70.249 E1.75643
G1 X98.160 Y70.604 E1.79978
G1 X97.765 Y70.105 F4500.000
G1 F720
G1 X97.369 Y70.294 E1.83461
G1 X96.937 Y70.374 E1.86946
G1 X96.499 Y70.340 E1.90429
G1 X96.084 Y70.193 E1.93913
G1 X95.722 Y69.944 E1.97397
G1 X95.437 Y69.610 E2.00880
G1 X95.248 Y69.214 E2.04364
G1 X95.168 Y68.782 E2.07848
G1 X95.202 Y68.343 E2.11332
G1 X95.349 Y67.929 E2.14816
G1 X95.598 Y67.567 E2.18299
G1 X95.932 Y67.282 E2.21782
G1 X96.329 Y67.092 E2.25267
G1 X96.761 Y67.012 E2.28751
G1 X97.199 Y67.047 E2.32235
G1 X97.613 Y67.194 E2.35718
G1 X97.975 Y67.442 E2.39201
G1 X98.260 Y67.777 E2.42686
G1 X98.450 Y68.173 E2.46169
G1 X98.530 Y68.605 E2.49653
G1 X98.495 Y69.043 E2.53137
G1 X98.349 Y69.458 E2.56621
G1 X98.100 Y69.820 E2.60105
G1 X97.811 Y70.066 E2.63113
G1 X97.765 Y70.105 F4500.000
G1 E2.03113 F900.00000
G92 E0
G1 X102.803 Y75.221 F4500.000
G1 E0.65000 F900.00000
G1 F720
G1 X101.300 Y75.541 E0.77181
G1 X99.263 Y76.125 E0.93981
G1 X97.272 Y76.850 E1.10782
G1 X95.869 Y77.474 E1.22952
G1 X95.708 Y77.143 E1.25872
G1 X95.934 Y77.023 E1.27903
G1 X93.904 Y69.330 E1.90977
G1 X93.842 Y68.886 E1.94528
G1 X93.842 Y68.500 E1.97589
G1 X93.903 Y68.067 E2.01057
G1 X94.018 Y67.663 E2.04389
G1 X94.196 Y67.264 E2.07857
G1 X94.293 Y67.096 E2.09388
G1 X94.401 Y66.936 E2.10918
G1 X94.682 Y66.601 E2.14387
G1 X94.994 Y66.320 E2.17718
G1 X95.357 Y66.075 E2.21187
G1 X95.512 Y65.993 E2.22581
G1 X95.934 Y65.822 E2.26186
G1 X96.103 Y65.774 E2.27581
G1 X96.533 Y65.698 E2.31045
G1 X96.958 Y65.684 E2.34416
G1 X97.372 Y65.727 E2.37710
G1 X97.779 Y65.829 E2.41043
G1 X98.185 Y65.993 E2.44511
G1 X98.519 Y66.186 E2.47571
G1 X98.864 Y66.455 E2.51039
G1 X99.156 Y66.757 E2.54371
G1 X99.413 Y67.111 E2.57839
G1 X99.501 Y67.264 E2.59233
G1 X99.697 Y67.704 E2.63055
G1 X102.484 Y74.894 E3.24191
G1 X102.739 Y74.859 E3.26235
G1 X102.793 Y75.162 E3.28679
G1 E2.68679 F900.00000
G92 E0
G1 X72.114 Y103.356 F4500.000
G1 E0.65000 F900.00000
G1 F720
G1 X72.483 Y103.838 E0.69810
G1 X72.716 Y104.398 E0.74621
G1 X72.795 Y105.000 E0.79431
G1 X72.716 Y105.602 E0.84242
G1 X72.483 Y106.162 E0.89052
G1 X72.114 Y106.644 E0.93863
G1 X71.633 Y107.013 E0.98674
G1 X71.072 Y107.245 E1.03485
G1 X70.470 Y107.324 E1.08295
G1 X69.869 Y107.245 E1.13106
G1 X69.308 Y107.013 E1.17915
G1 X68.827 Y106.644 E1.22726
G1 X68.457 Y106.162 E1.27537
G1 X68.225 Y105.602 E1.32348
G1 X68.146 Y105.000 E1.37158
G1 X68.225 Y104.398 E1.41969
G1 X68.457 Y103.838 E1.46779
G1 X68.827 Y103.356 E1.51591
G1 X69.308 Y102.987 E1.56401
G1 X69.869 Y102.755 E1.61211
G1 X70.470 Y102.676 E1.66022
G1 X71.072 Y102.755 E1.70832
G1 X71.633 Y102.987 E1.75643
G1 X72.066 Y103.320 E1.79978
G1 X71.661 Y103.810 F4500.000
G1 F720
G1 X71.928 Y104.158 E1.83462
G1 X72.096 Y104.564 E1.86946
G1 X72.154 Y105.000 E1.90429
G1 X72.096 Y105.436 E1.93913
G1 X71.928 Y105.842 E1.97397
G1 X71.661 Y106.190 E2.00880
G1 X71.312 Y106.458 E2.04364
G1 X70.906 Y106.626 E2.07848
G1 X70.470 Y106.683 E2.11332
G1 X70.035 Y106.626 E2.14816
G1 X69.629 Y106.458 E2.18299
G1 X69.280 Y106.190 E2.21783
G1 X69.013 Y105.842 E2.25267
G1 X68.844 Y105.436 E2.28751
G1 X68.787 Y105.000 E2.32235
G1 X68.844 Y104.564 E2.35718
G1 X69.013 Y104.158 E2.39202
G1 X69.280 Y103.810 E2.42686
G1 X69.629 Y103.542 E2.46170
G1 X70.035 Y103.374 E2.49653
G1 X70.470 Y103.317 E2.53137
G1 X70.906 Y103.374 E2.56621
G1 X71.312 Y103.542 E2.60105
G1 X71.613 Y103.773 E2.63113
G1 X71.661 Y103.810 F4500.000
G1 E2.03113 F900.00000
G92 E0
G1 X78.519 Y101.355 F4500.000
G1 E0.65000 F900.00000
G1 F720
G1 X78.358 Y102.882 E0.77174
G1 X78.284 Y105.000 E0.93974
G1 X78.358 Y107.118 E1.10775
G1 X78.519 Y108.645 E1.22948
G1 X78.154 Y108.696 E1.25868
G1 X78.109 Y108.444 E1.27902
G1 X70.166 Y107.997 E1.90976
G1 X69.742 Y107.923 E1.94391
G1 X69.342 Y107.793 E1.97722
G1 X68.964 Y107.608 E2.01053
G1 X68.616 Y107.373 E2.04385
G1 X68.304 Y107.092 E2.07717
G1 X68.034 Y106.770 E2.11047
G1 X67.811 Y106.414 E2.14379
G1 X67.640 Y106.030 E2.17710
G1 X67.519 Y105.610 E2.21178
