; generated by Slic3r 1.3.1-dev on 2019-10-09 at 14:52:23

; Print Config Notes: 
; DMF_3D_0.3mm333HC25%
; 
; external perimeters extrusion width = 0.70mm (5.72mm^3/s)
; perimeters extrusion width = 0.70mm (7.63mm^3/s)
; infill extrusion width = 0.75mm (8.23mm^3/s)
; solid infill extrusion width = 0.65mm (7.03mm^3/s)
; top infill extrusion width = 0.65mm (7.03mm^3/s)

M190 S90 ; set bed temperature and wait for it to be reached
M104 S250 ; set temperature
G28 ; home all axes
; Filament gcode

M109 S250 ; set temperature and wait for it to be reached
G21 ; set units to millimeters
G90 ; use absolute coordinates
M82 ; use absolute distances for extrusion
G92 E0
G1 Z0.300 F3000.000
G1 E-0.60000 F900.00000
G92 E0
G1 X55.937 Y57.397 F3000.000
G1 E0.65000 F900.00000
G1 F1920
G1 X59.138 Y54.305 E0.94729
G1 X62.786 Y51.230 E1.26605
G1 X66.640 Y48.416 E1.58482
G1 X70.959 Y45.717 E1.92505
G1 X74.888 Y43.628 E2.22234
G1 X79.242 Y41.677 E2.54112
G1 X83.722 Y40.034 E2.85988
G1 X88.618 Y38.631 E3.20012
G1 X93.287 Y37.650 E3.51887
G1 X97.694 Y37.030 E3.81617
G1 X102.775 Y36.675 E4.15641
G1 X107.546 Y36.686 E4.47517
G1 X111.986 Y36.997 E4.77247
G1 X117.029 Y37.705 E5.11270
G1 X121.694 Y38.708 E5.43146
G1 X125.972 Y39.935 E5.72876
G1 X130.757 Y41.677 E6.06899
G1 X135.112 Y43.628 E6.38777
G1 X139.041 Y45.717 E6.68507
G1 X143.094 Y48.236 E7.00382
G1 X147.214 Y51.230 E7.34406
G1 X150.862 Y54.305 E7.66281
G1 X154.063 Y57.397 E7.96011
G1 X157.471 Y61.181 E8.30035
G1 X160.211 Y64.688 E8.59765
G1 X162.814 Y68.527 E8.90749
G1 X163.059 Y68.911 E8.93790
G1 X165.284 Y72.765 E9.23519
G1 X167.516 Y77.342 E9.57543
G1 X169.183 Y81.468 E9.87272
G1 X170.627 Y85.876 E10.18256
G1 X170.757 Y86.312 E10.21296
G1 X171.834 Y90.630 E10.51026
G1 X172.718 Y95.645 E10.85048
G1 X173.183 Y100.071 E11.14778
G1 X173.361 Y104.839 E11.46655
G1 X173.183 Y109.929 E11.80678
G1 X172.718 Y114.355 E12.10409
G1 X171.901 Y119.056 E12.42285
G1 X170.669 Y123.997 E12.76308
G1 X169.183 Y128.532 E13.08184
G1 X167.516 Y132.658 E13.37913
G1 X165.435 Y136.952 E13.69791
G1 X162.888 Y141.362 E14.03814
G1 X160.400 Y145.052 E14.33544
G1 X157.471 Y148.819 E14.65420
G1 X154.063 Y152.603 E14.99443
G1 X150.862 Y155.695 E15.29173
G1 X147.214 Y158.770 E15.61049
G1 X143.360 Y161.584 E15.92926
G1 X139.041 Y164.283 E16.26948
G1 X134.823 Y166.513 E16.58825
G1 X130.758 Y168.323 E16.88556
G1 X125.972 Y170.065 E17.22578
G1 X121.694 Y171.292 E17.52308
G1 X117.029 Y172.295 E17.84185
G1 X111.986 Y173.003 E18.18208
G1 X107.225 Y173.325 E18.50084
G1 X102.775 Y173.325 E18.79814
G1 X97.694 Y172.970 E19.13838
G1 X92.971 Y172.295 E19.45713
G1 X88.618 Y171.369 E19.75443
G1 X83.722 Y169.966 E20.09467
G1 X79.242 Y168.323 E20.41343
G1 X75.177 Y166.513 E20.71072
G1 X70.959 Y164.283 E21.02950
G1 X66.640 Y161.584 E21.36973
G1 X62.786 Y158.770 E21.68850
G1 X59.138 Y155.695 E22.00725
G1 X55.937 Y152.603 E22.30455
G1 X52.529 Y148.819 E22.64478
G1 X49.789 Y145.312 E22.94208
G1 X47.112 Y141.362 E23.26084
G1 X44.716 Y137.235 E23.57962
G1 X42.484 Y132.658 E23.91985
G1 X40.817 Y128.532 E24.21714
G1 X39.373 Y124.124 E24.52699
G1 X39.243 Y123.688 E24.55739
G1 X38.166 Y119.370 E24.85468
G1 X37.282 Y114.355 E25.19491
G1 X36.817 Y109.929 E25.49221
G1 X36.639 Y105.161 E25.81098
G1 X36.817 Y100.071 E26.15121
G1 X37.327 Y95.327 E26.46998
G1 X38.099 Y90.944 E26.76727
G1 X39.243 Y86.312 E27.08604
G1 X40.817 Y81.468 E27.42626
G1 X42.614 Y77.048 E27.74503
G1 X44.565 Y73.048 E28.04234
G1 X47.112 Y68.638 E28.38256
G1 X49.600 Y64.948 E28.67987
G1 X52.529 Y61.181 E28.99863
G1 X55.895 Y57.440 E29.33485
G1 X56.309 Y57.782 F3000.000
G1 F1920
G1 X59.510 Y54.691 E29.63215
G1 X63.130 Y51.640 E29.94841
G1 X67.190 Y48.690 E30.28366
G1 X70.964 Y46.332 E30.58096
G1 X75.139 Y44.101 E30.89721
G1 X79.460 Y42.166 E31.21350
G1 X84.176 Y40.450 E31.54874
G1 X88.729 Y39.155 E31.86500
G1 X93.362 Y38.180 E32.18126
G1 X97.769 Y37.561 E32.47856
G1 X102.775 Y37.211 E32.81381
G1 X107.509 Y37.220 E33.13007
G1 X111.948 Y37.531 E33.42737
G1 X116.918 Y38.229 E33.76261
G1 X121.546 Y39.223 E34.07888
G1 X125.824 Y40.450 E34.37617
G1 X130.540 Y42.166 E34.71141
G1 X134.861 Y44.101 E35.02769
G1 X138.790 Y46.190 E35.32499
G1 X142.810 Y48.690 E35.64125
G1 X146.870 Y51.640 E35.97650
G1 X150.490 Y54.691 E36.29275
G1 X153.691 Y57.782 E36.59005
G1 X157.049 Y61.511 E36.92529
G1 X159.789 Y65.018 E37.22259
G1 X162.370 Y68.827 E37.52995
G1 X162.595 Y69.178 E37.55785
G1 X164.820 Y73.032 E37.85515
G1 X167.020 Y77.543 E38.19039
G1 X168.687 Y81.669 E38.48768
G1 X170.118 Y86.041 E38.79503
G1 X170.238 Y86.441 E38.82293
G1 X171.314 Y90.759 E39.12023
G1 X172.186 Y95.701 E39.45546
G1 X172.651 Y100.127 E39.75276
G1 X172.826 Y104.858 E40.06903
G1 X172.651 Y109.873 E40.40427
G1 X172.186 Y114.299 E40.70158
G1 X171.373 Y118.963 E41.01784
G1 X170.159 Y123.832 E41.35307
G1 X168.784 Y128.064 E41.65037
G1 X167.020 Y132.457 E41.96663
G1 X164.953 Y136.717 E42.28292
G1 X162.444 Y141.063 E42.61815
G1 X159.956 Y144.752 E42.91545
G1 X157.049 Y148.489 E43.23172
G1 X153.691 Y152.218 E43.56696
G1 X150.279 Y155.499 E43.88322
G1 X146.870 Y158.360 E44.18052
G1 X143.046 Y161.151 E44.49679
G1 X138.790 Y163.810 E44.83202
G1 X134.605 Y166.024 E45.14830
G1 X130.540 Y167.834 E45.44560
G1 X125.824 Y169.550 E45.78084
G1 X121.271 Y170.845 E46.09711
G1 X116.638 Y171.820 E46.41337
G1 X112.231 Y172.439 E46.71067
G1 X107.225 Y172.789 E47.04591
G1 X102.775 Y172.789 E47.34321
G1 X98.052 Y172.469 E47.65948
G1 X93.082 Y171.771 E47.99471
G1 X88.454 Y170.777 E48.31098
G1 X84.176 Y169.550 E48.60828
G1 X79.460 Y167.834 E48.94352
G1 X75.139 Y165.899 E49.25980
G1 X70.964 Y163.668 E49.57606
G1 X67.190 Y161.310 E49.87336
G1 X63.130 Y158.360 E50.20860
G1 X59.510 Y155.309 E50.52486
G1 X56.309 Y152.218 E50.82216
G1 X52.951 Y148.489 E51.15740
G1 X50.211 Y144.982 E51.45470
G1 X47.556 Y141.063 E51.77097
G1 X45.180 Y136.968 E52.08725
G1 X42.980 Y132.457 E52.42249
G1 X41.313 Y128.331 E52.71978
G1 X39.882 Y123.959 E53.02713
G1 X39.762 Y123.559 E53.05503
G1 X38.686 Y119.241 E53.35233
G1 X37.814 Y114.299 E53.68756
G1 X37.349 Y109.873 E53.98486
G1 X37.174 Y105.142 E54.30113
G1 X37.329 Y100.410 E54.61740
G1 X37.854 Y95.420 E54.95264
G1 X38.627 Y91.037 E55.24993
G1 X39.762 Y86.441 E55.56620
G1 X41.313 Y81.669 E55.90144
G1 X42.980 Y77.543 E56.19873
G1 X45.047 Y73.283 E56.51501
G1 X47.556 Y68.937 E56.85025
G1 X50.044 Y65.248 E57.14755
G1 X52.951 Y61.511 E57.46382
G1 X56.267 Y57.825 E57.79505
G1 X56.681 Y58.167 F3000.000
G1 F1920
G1 X59.882 Y55.076 E58.09235
G1 X63.475 Y52.050 E58.40611
G1 X67.269 Y49.283 E58.71989
G1 X71.462 Y46.663 E59.05014
G1 X75.391 Y44.574 E59.34743
G1 X79.678 Y42.656 E59.66121
G1 X84.089 Y41.041 E59.97498
G1 X88.841 Y39.678 E60.30523
G1 X93.437 Y38.710 E60.61900
G1 X97.843 Y38.091 E60.91630
G1 X102.775 Y37.746 E61.24655
G1 X107.472 Y37.755 E61.56032
G1 X111.911 Y38.065 E61.85762
G1 X116.806 Y38.753 E62.18786
G1 X121.399 Y39.738 E62.50163
G1 X125.677 Y40.965 E62.79893
G1 X130.322 Y42.656 E63.12918
G1 X134.609 Y44.574 E63.44296
G1 X138.538 Y46.663 E63.74026
G1 X142.526 Y49.145 E64.05402
G1 X146.525 Y52.050 E64.38428
G1 X150.118 Y55.076 E64.69804
G1 X153.319 Y58.167 E64.99534
G1 X156.627 Y61.841 E65.32559
G1 X159.367 Y65.348 E65.62289
G1 X161.926 Y69.126 E65.92774
G1 X162.131 Y69.446 E65.95315
G1 X164.356 Y73.300 E66.25045
G1 X166.523 Y77.743 E66.58069
G1 X168.190 Y81.869 E66.87799
G1 X169.609 Y86.207 E67.18284
G1 X169.718 Y86.571 E67.20824
G1 X170.794 Y90.889 E67.50554
G1 X171.653 Y95.757 E67.83578
G1 X172.118 Y100.183 E68.13308
G1 X172.291 Y104.877 E68.44686
G1 X172.118 Y109.817 E68.77710
G1 X171.653 Y114.243 E69.07441
G1 X170.846 Y118.870 E69.38817
G1 X169.650 Y123.666 E69.71842
G1 X168.275 Y127.899 E70.01572
G1 X166.523 Y132.257 E70.32948
G1 X164.472 Y136.482 E70.64327
G1 X162.000 Y140.763 E70.97351
G1 X159.512 Y144.453 E71.27081
G1 X156.627 Y148.159 E71.58458
G1 X153.319 Y151.833 E71.91483
G1 X149.934 Y155.089 E72.22860
G1 X146.525 Y157.950 E72.52589
G1 X142.731 Y160.717 E72.83967
G1 X138.539 Y163.337 E73.16991
G1 X134.387 Y165.534 E73.48369
G1 X130.322 Y167.344 E73.78099
G1 X125.677 Y169.035 E74.11124
G1 X121.159 Y170.322 E74.42501
G1 X116.563 Y171.290 E74.73878
G1 X112.157 Y171.909 E75.03608
G1 X107.225 Y172.254 E75.36633
G1 X102.775 Y172.254 E75.66362
G1 X98.089 Y171.935 E75.97739
G1 X93.194 Y171.247 E76.30764
G1 X88.841 Y170.322 E76.60494
G1 X84.323 Y169.035 E76.91871
G1 X79.678 Y167.344 E77.24896
G1 X75.613 Y165.534 E77.54626
G1 X71.462 Y163.337 E77.86004
G1 X67.269 Y160.717 E78.19028
G1 X63.475 Y157.950 E78.50406
G1 X59.882 Y154.924 E78.81782
G1 X56.681 Y151.833 E79.11512
G1 X53.373 Y148.159 E79.44537
G1 X50.633 Y144.652 E79.74267
G1 X48.000 Y140.763 E80.05644
G1 X45.644 Y136.700 E80.37022
G1 X43.477 Y132.257 E80.70047
G1 X41.810 Y128.131 E80.99776
G1 X40.350 Y123.666 E81.31153
G1 X39.154 Y118.870 E81.64178
G1 X38.381 Y114.487 E81.93907
G1 X37.896 Y109.950 E82.24393
G1 X37.865 Y109.571 E82.26933
G1 X37.709 Y105.123 E82.56663
G1 X37.882 Y100.183 E82.89688
G1 X38.381 Y95.513 E83.21065
G1 X39.154 Y91.130 E83.50794
G1 X40.282 Y86.571 E83.82172
G1 X41.810 Y81.869 E84.15196
G1 X43.577 Y77.518 E84.46574
G1 X45.528 Y73.518 E84.76304
G1 X48.000 Y69.237 E85.09328
G1 X50.488 Y65.547 E85.39059
G1 X53.373 Y61.841 E85.70436
G1 X56.639 Y58.210 E86.03060
G1 E85.43060 F900.00000
G92 E0
G1 X104.983 Y162.116 F3000.000
G1 E0.65000 F900.00000
G1 F720
G1 X105.681 Y162.203 E0.69700
G1 X106.321 Y162.468 E0.74331
G1 X106.869 Y162.888 E0.78941
G1 X107.289 Y163.436 E0.83550
G1 X107.553 Y164.073 E0.88159
G1 X107.643 Y164.757 E0.92769
G1 X107.553 Y165.441 E0.97378
G1 X107.289 Y166.079 E1.01988
G1 X106.869 Y166.626 E1.06597
G1 X106.321 Y167.046 E1.11207
G1 X105.684 Y167.310 E1.15815
G1 X105.000 Y167.400 E1.20425
G1 X104.316 Y167.310 E1.25034
G1 X103.679 Y167.046 E1.29643
G1 X103.129 Y166.624 E1.34274
G1 X102.704 Y166.063 E1.38975
G1 X102.447 Y165.441 E1.43469
G1 X102.357 Y164.757 E1.48078
G1 X102.447 Y164.073 E1.52688
G1 X102.711 Y163.436 E1.57297
G1 X103.131 Y162.888 E1.61906
G1 X103.679 Y162.468 E1.66516
G1 X104.316 Y162.204 E1.71126
G1 X104.923 Y162.124 E1.75218
G1 X104.985 Y162.656 F3000.000
G1 F720
G1 X105.543 Y162.725 E1.78976
G1 X106.051 Y162.936 E1.82651
G1 X106.487 Y163.270 E1.86318
G1 X106.821 Y163.706 E1.89986
G1 X107.031 Y164.213 E1.93653
G1 X107.103 Y164.757 E1.97320
G1 X107.031 Y165.301 E2.00987
G1 X106.821 Y165.808 E2.04655
G1 X106.487 Y166.244 E2.08322
G1 X106.051 Y166.578 E2.11989
G1 X105.544 Y166.788 E2.15656
G1 X105.000 Y166.860 E2.19323
G1 X104.456 Y166.788 E2.22990
G1 X103.949 Y166.578 E2.26657
G1 X103.512 Y166.243 E2.30333
G1 X103.173 Y165.794 E2.34091
G1 X102.969 Y165.301 E2.37656
G1 X102.897 Y164.757 E2.41323
G1 X102.969 Y164.213 E2.44991
G1 X103.179 Y163.706 E2.48658
G1 X103.513 Y163.270 E2.52325
G1 X103.949 Y162.936 E2.55992
G1 X104.456 Y162.726 E2.59660
G1 X104.925 Y162.664 E2.62824
G1 X104.985 Y162.656 F3000.000
G1 E2.02824 F900.00000
G92 E0
G1 X144.702 Y147.939 F3000.000
G1 E0.65000 F900.00000
G1 F720
G1 X144.612 Y147.255 E0.69610
G1 X144.702 Y146.571 E0.74219
G1 X144.966 Y145.933 E0.78829
G1 X145.386 Y145.386 E0.83438
G1 X145.933 Y144.966 E0.88047
G1 X146.571 Y144.702 E0.92657
G1 X147.237 Y144.614 E0.97150
G1 X147.936 Y144.700 E1.01852
G1 X148.576 Y144.966 E1.06481
G1 X149.124 Y145.386 E1.11092
G1 X149.543 Y145.933 E1.15700
G1 X149.808 Y146.571 E1.20310
G1 X149.898 Y147.255 E1.24919
G1 X149.808 Y147.939 E1.29529
G1 X149.544 Y148.576 E1.34138
G1 X149.124 Y149.124 E1.38747
G1 X148.576 Y149.543 E1.43357
G1 X147.939 Y149.808 E1.47966
G1 X147.255 Y149.898 E1.52576
G1 X146.571 Y149.808 E1.57185
G1 X145.933 Y149.543 E1.61794
G1 X145.386 Y149.124 E1.66403
G1 X144.966 Y148.576 E1.71013
G1 X144.725 Y147.994 E1.75221
G1 X145.224 Y147.799 F3000.000
G1 F720
G1 X145.152 Y147.255 E1.78889
G1 X145.224 Y146.710 E1.82556
G1 X145.434 Y146.203 E1.86223
G1 X145.768 Y145.768 E1.89890
G1 X146.203 Y145.434 E1.93557
G1 X146.710 Y145.224 E1.97224
G1 X147.239 Y145.154 E2.00790
G1 X147.798 Y145.223 E2.04548
G1 X148.306 Y145.434 E2.08223
G1 X148.742 Y145.768 E2.11890
G1 X149.076 Y146.203 E2.15557
G1 X149.286 Y146.710 E2.19224
G1 X149.357 Y147.255 E2.22891
G1 X149.286 Y147.799 E2.26559
G1 X149.076 Y148.306 E2.30226
G1 X148.742 Y148.742 E2.33893
G1 X148.306 Y149.076 E2.37560
G1 X147.799 Y149.286 E2.41227
G1 X147.255 Y149.357 E2.44895
G1 X146.710 Y149.286 E2.48562
G1 X146.203 Y149.076 E2.52229
G1 X145.768 Y148.742 E2.55896
G1 X145.434 Y148.306 E2.59564
G1 X145.246 Y147.854 E2.62830
G1 X145.224 Y147.799 F3000.000
G1 E2.02830 F900.00000
G92 E0
G1 X163.436 Y107.289 F3000.000
G1 E0.65000 F900.00000
G1 F720
G1 X162.888 Y106.869 E0.69610
G1 X162.468 Y106.321 E0.74219
G1 X162.204 Y105.684 E0.78829
G1 X162.114 Y105.000 E0.83438
G1 X162.204 Y104.316 E0.88047
G1 X162.468 Y103.678 E0.92656
G1 X162.888 Y103.131 E0.97266
G1 X163.436 Y102.711 E1.01876
G1 X164.073 Y102.447 E1.06484
G1 X164.740 Y102.359 E1.10979
G1 X165.438 Y102.446 E1.15679
G1 X166.079 Y102.711 E1.20310
G1 X166.626 Y103.131 E1.24919
G1 X167.046 Y103.678 E1.29529
G1 X167.310 Y104.316 E1.34138
G1 X167.400 Y105.000 E1.38747
G1 X167.310 Y105.684 E1.43357
G1 X167.046 Y106.322 E1.47966
G1 X166.626 Y106.869 E1.52575
G1 X166.079 Y107.289 E1.57184
G1 X165.441 Y107.553 E1.61794
G1 X164.757 Y107.643 E1.66403
G1 X164.073 Y107.553 E1.71013
G1 X163.491 Y107.312 E1.75221
G1 X163.706 Y106.821 F3000.000
G1 F720
G1 X163.270 Y106.487 E1.78889
G1 X162.936 Y106.051 E1.82556
G1 X162.726 Y105.544 E1.86223
G1 X162.654 Y105.000 E1.89890
G1 X162.726 Y104.456 E1.93557
G1 X162.936 Y103.949 E1.97224
G1 X163.270 Y103.513 E2.00892
G1 X163.706 Y103.179 E2.04559
G1 X164.213 Y102.969 E2.08226
G1 X164.742 Y102.899 E2.11792
G1 X165.300 Y102.968 E2.15550
G1 X165.808 Y103.179 E2.19225
G1 X166.244 Y103.513 E2.22892
G1 X166.578 Y103.949 E2.26559
G1 X166.788 Y104.456 E2.30226
G1 X166.860 Y105.000 E2.33894
G1 X166.788 Y105.544 E2.37561
G1 X166.578 Y106.051 E2.41228
G1 X166.244 Y106.487 E2.44895
G1 X165.808 Y106.821 E2.48562
G1 X165.301 Y107.031 E2.52230
G1 X164.757 Y107.103 E2.55897
G1 X164.213 Y107.031 E2.59564
G1 X163.761 Y106.844 E2.62830
G1 X163.706 Y106.821 F3000.000
G1 E2.02830 F900.00000
G92 E0
G1 X147.939 Y65.298 F3000.000
G1 E0.65000 F900.00000
G1 F720
G1 X147.255 Y65.388 E0.69610
G1 X146.571 Y65.298 E0.74219
G1 X145.933 Y65.034 E0.78829
G1 X145.386 Y64.614 E0.83438
G1 X144.966 Y64.067 E0.88047
G1 X144.702 Y63.429 E0.92657
G1 X144.612 Y62.745 E0.97266
G1 X144.702 Y62.061 E1.01876
G1 X144.966 Y61.424 E1.06484
G1 X145.386 Y60.876 E1.11095
G1 X145.933 Y60.456 E1.15703
G1 X146.571 Y60.192 E1.20313
G1 X147.237 Y60.105 E1.24807
G1 X147.936 Y60.191 E1.29508
G1 X148.576 Y60.456 E1.34138
G1 X149.124 Y60.876 E1.38747
G1 X149.544 Y61.424 E1.43357
G1 X149.808 Y62.061 E1.47966
G1 X149.898 Y62.745 E1.52576
G1 X149.808 Y63.429 E1.57185
G1 X149.544 Y64.067 E1.61794
G1 X149.124 Y64.614 E1.66403
G1 X148.576 Y65.034 E1.71013
G1 X147.994 Y65.275 E1.75221
G1 X147.799 Y64.776 F3000.000
G1 F720
G1 X147.255 Y64.848 E1.78889
G1 X146.710 Y64.776 E1.82556
G1 X146.203 Y64.566 E1.86223
G1 X145.768 Y64.232 E1.89890
G1 X145.434 Y63.797 E1.93557
G1 X145.224 Y63.290 E1.97224
G1 X145.152 Y62.745 E2.00891
G1 X145.224 Y62.201 E2.04559
G1 X145.434 Y61.694 E2.08226
G1 X145.768 Y61.258 E2.11893
G1 X146.203 Y60.924 E2.15560
G1 X146.710 Y60.714 E2.19228
G1 X147.239 Y60.645 E2.22793
G1 X147.798 Y60.714 E2.26551
G1 X148.306 Y60.924 E2.30226
G1 X148.742 Y61.258 E2.33893
G1 X149.076 Y61.694 E2.37560
G1 X149.286 Y62.201 E2.41227
G1 X149.357 Y62.745 E2.44895
G1 X149.286 Y63.290 E2.48562
G1 X149.076 Y63.797 E2.52229
G1 X148.742 Y64.232 E2.55896
G1 X148.306 Y64.566 E2.59564
G1 X147.854 Y64.754 E2.62830
G1 X147.799 Y64.776 F3000.000
G1 E2.02830 F900.00000
G92 E0
G1 X107.289 Y46.564 F3000.000
G1 E0.65000 F900.00000
G1 F720
G1 X106.869 Y47.112 E0.69609
G1 X106.321 Y47.532 E0.74219
G1 X105.684 Y47.796 E0.78829
G1 X105.000 Y47.886 E0.83438
G1 X104.316 Y47.796 E0.88047
G1 X103.679 Y47.532 E0.92656
G1 X103.131 Y47.112 E0.97266
G1 X102.711 Y46.564 E1.01876
G1 X102.447 Y45.927 E1.06484
G1 X102.357 Y45.243 E1.11094
G1 X102.447 Y44.559 E1.15703
