; generated by Slic3r 1.3.1-dev on 2020-06-07 at 13:29:18

; Print Config Notes: 
; DMF_3D_0.3mmThin222HC25%
; 
; Filament notes: 
; DMF_3D_1.75x1.00NatPETG250 B95
; 
; Printer Config Notes: 
; DMF_3D3
; 
; external perimeters extrusion width = 0.60mm (4.82mm^3/s)
; perimeters extrusion width = 0.54mm (5.71mm^3/s)
; infill extrusion width = 0.70mm (7.63mm^3/s)
; solid infill extrusion width = 0.51mm (5.35mm^3/s)
; top infill extrusion width = 0.51mm (5.35mm^3/s)

M190 S95 ; set bed temperature and wait for it to be reached
M104 S250 ; set temperature
G28 ; home all axes
; Filament gcode

M109 S250 ; set temperature and wait for it to be reached
G21 ; set units to millimeters
G90 ; use absolute coordinates
M82 ; use absolute distances for extrusion
G92 E0
G1 Z0.300 F4500.000
G1 E-0.60000 F900.00000
G92 E0
G1 X56.900 Y65.711 F4500.000
G1 E0.65000 F900.00000
G1 F1920
G1 X73.369 Y49.242 E2.58877
G1 X74.611 Y48.339 E2.71655
G1 X97.452 Y36.701 E4.85052
G1 X98.912 Y36.226 E4.97831
G1 X124.232 Y32.216 E7.11227
G1 X125.768 Y32.216 E7.24006
G1 X151.088 Y36.226 E9.37402
G1 X152.548 Y36.701 E9.50181
G1 X175.389 Y48.339 E11.63578
G1 X176.631 Y49.242 E11.76357
G1 X194.759 Y67.369 E13.89754
G1 X195.661 Y68.611 E14.02532
G1 X206.202 Y89.298 E15.95805
G1 X207.299 Y91.452 E16.15929
G1 X207.774 Y92.912 E16.28708
G1 X211.784 Y118.232 E18.42104
G1 X211.784 Y119.768 E18.54883
G1 X207.774 Y145.088 E20.68278
G1 X207.299 Y146.548 E20.81057
G1 X195.661 Y169.389 E22.94456
G1 X194.758 Y170.631 E23.07234
G1 X176.631 Y188.758 E25.20629
G1 X175.389 Y189.661 E25.33406
G1 X154.637 Y200.235 E27.27285
G1 X152.548 Y201.299 E27.46805
G1 X151.088 Y201.774 E27.59584
G1 X125.768 Y205.784 E29.72980
G1 X124.161 Y205.773 E29.86355
G1 X98.912 Y201.774 E31.99148
G1 X97.452 Y201.299 E32.11927
G1 X74.611 Y189.661 E34.25324
G1 X73.369 Y188.758 E34.38103
G1 X55.242 Y170.631 E36.51499
G1 X54.339 Y169.389 E36.64278
G1 X43.798 Y148.702 E38.57551
G1 X42.701 Y146.548 E38.77675
G1 X42.226 Y145.088 E38.90454
G1 X38.216 Y119.768 E41.03850
G1 X38.216 Y118.232 E41.16629
G1 X42.226 Y92.912 E43.30025
G1 X42.701 Y91.452 E43.42804
G1 X54.339 Y68.611 E45.56201
G1 X55.242 Y67.369 E45.68980
G1 X56.857 Y65.753 E45.88000
G1 X57.349 Y66.160 F4500.000
G1 F1920
G1 X73.818 Y49.691 E47.81877
G1 X74.899 Y48.906 E47.93000
G1 X97.741 Y37.267 E50.06397
G1 X99.012 Y36.854 E50.17520
G1 X124.332 Y32.844 E52.30916
G1 X125.668 Y32.844 E52.42040
G1 X150.988 Y36.854 E54.55436
G1 X152.259 Y37.267 E54.66559
G1 X175.101 Y48.906 E56.79956
G1 X176.182 Y49.691 E56.91080
G1 X194.309 Y67.818 E59.04477
G1 X195.094 Y68.899 E59.15599
G1 X205.635 Y89.587 E61.08872
G1 X206.733 Y91.741 E61.28996
G1 X207.146 Y93.012 E61.40120
G1 X211.156 Y118.332 E63.53516
G1 X211.156 Y119.668 E63.64640
G1 X207.146 Y144.988 E65.78035
G1 X206.733 Y146.259 E65.89159
G1 X195.094 Y169.101 E68.02557
G1 X194.309 Y170.182 E68.13680
G1 X176.182 Y188.309 E70.27075
G1 X175.101 Y189.094 E70.38197
G1 X154.348 Y199.668 E72.32076
G1 X152.259 Y200.733 E72.51596
G1 X150.988 Y201.146 E72.62720
G1 X125.668 Y205.156 E74.76115
G1 X124.260 Y205.145 E74.87836
G1 X99.012 Y201.146 E77.00628
G1 X97.741 Y200.733 E77.11752
G1 X74.899 Y189.094 E79.25148
G1 X73.818 Y188.309 E79.36272
G1 X55.691 Y170.182 E81.49668
G1 X54.906 Y169.101 E81.60792
G1 X44.365 Y148.413 E83.54065
G1 X43.267 Y146.259 E83.74189
G1 X42.854 Y144.988 E83.85312
G1 X38.844 Y119.668 E85.98708
G1 X38.844 Y118.332 E86.09832
G1 X42.854 Y93.012 E88.23228
G1 X43.267 Y91.741 E88.34351
G1 X54.906 Y68.899 E90.47748
G1 X55.691 Y67.818 E90.58872
G1 X57.307 Y66.202 E90.77892
G1 X57.799 Y66.610 F4500.000
G1 F1920
G1 X74.268 Y50.140 E92.71769
G1 X75.188 Y49.472 E92.81236
G1 X98.029 Y37.834 E94.94633
G1 X99.111 Y37.482 E95.04102
G1 X124.431 Y33.472 E97.17497
G1 X125.569 Y33.472 E97.26966
G1 X150.889 Y37.482 E99.40362
G1 X151.971 Y37.834 E99.49830
G1 X174.812 Y49.472 E101.63227
G1 X175.732 Y50.141 E101.72695
G1 X193.860 Y68.268 E103.86092
G1 X194.528 Y69.188 E103.95559
G1 X205.069 Y89.875 E105.88832
G1 X206.166 Y92.029 E106.08956
G1 X206.518 Y93.111 E106.18424
G1 X210.528 Y118.431 E108.31821
G1 X210.528 Y119.569 E108.41289
G1 X206.518 Y144.889 E110.54684
G1 X206.166 Y145.971 E110.64153
G1 X194.528 Y168.812 E112.77551
G1 X193.859 Y169.732 E112.87018
G1 X175.732 Y187.859 E115.00413
G1 X174.812 Y188.528 E115.09881
G1 X154.060 Y199.102 E117.03759
G1 X151.971 Y200.166 E117.23279
G1 X150.889 Y200.518 E117.32747
G1 X125.569 Y204.528 E119.46143
G1 X124.360 Y204.517 E119.56208
G1 X99.111 Y200.518 E121.69000
G1 X98.029 Y200.166 E121.78468
G1 X75.188 Y188.528 E123.91865
G1 X74.268 Y187.859 E124.01334
G1 X56.141 Y169.732 E126.14729
G1 X55.472 Y168.812 E126.24198
G1 X44.931 Y148.125 E128.17471
G1 X43.834 Y145.971 E128.37594
G1 X43.482 Y144.889 E128.47063
G1 X39.472 Y119.569 E130.60459
G1 X39.472 Y118.431 E130.69927
G1 X43.482 Y93.111 E132.83323
G1 X43.834 Y92.029 E132.92791
G1 X55.472 Y69.188 E135.06188
G1 X56.141 Y68.268 E135.15656
G1 X57.756 Y66.652 E135.34677
G1 E134.74677 F900.00000
G92 E0
G1 X134.984 Y185.883 F4500.000
G1 E0.65000 F900.00000
G1 F720
G1 X135.566 Y185.711 E0.70052
G1 X136.138 Y185.696 E0.74811
G1 X136.755 Y185.833 E0.80071
G1 X137.296 Y186.126 E0.85198
G1 X137.736 Y186.544 E0.90249
G1 X138.053 Y187.061 E0.95300
G1 X138.225 Y187.643 E1.00351
G1 X138.241 Y188.250 E1.05401
G1 X138.100 Y188.840 E1.10453
G1 X137.810 Y189.373 E1.15505
G1 X137.392 Y189.813 E1.20555
G1 X136.875 Y190.130 E1.25606
G1 X136.293 Y190.303 E1.30657
G1 X135.687 Y190.319 E1.35708
G1 X135.097 Y190.177 E1.40759
G1 X134.594 Y189.904 E1.45518
G1 X134.121 Y189.471 E1.50856
G1 X133.796 Y188.919 E1.56193
G1 X133.634 Y188.370 E1.60952
G1 X133.618 Y187.755 E1.66078
G1 X133.776 Y187.143 E1.71339
G1 X134.049 Y186.641 E1.76098
G1 X134.467 Y186.200 E1.81149
G1 X134.933 Y185.915 E1.85701
G1 X135.245 Y186.469 F4500.000
G1 F720
G1 X135.666 Y186.344 E1.89359
G1 X136.076 Y186.333 E1.92774
G1 X136.530 Y186.434 E1.96641
G1 X136.919 Y186.645 E2.00326
G1 X137.238 Y186.948 E2.03984
G1 X137.467 Y187.322 E2.07642
G1 X137.592 Y187.743 E2.11299
G1 X137.604 Y188.183 E2.14957
G1 X137.501 Y188.610 E2.18615
G1 X137.291 Y188.996 E2.22274
G1 X136.989 Y189.315 E2.25931
G1 X136.614 Y189.545 E2.29589
G1 X136.193 Y189.669 E2.33247
G1 X135.754 Y189.681 E2.36905
G1 X135.326 Y189.578 E2.40563
G1 X134.966 Y189.383 E2.43977
G1 X134.621 Y189.067 E2.47873
G1 X134.384 Y188.663 E2.51768
G1 X134.267 Y188.270 E2.55182
G1 X134.255 Y187.828 E2.58866
G1 X134.372 Y187.378 E2.62734
G1 X134.568 Y187.017 E2.66149
G1 X134.870 Y186.699 E2.69806
G1 X135.194 Y186.500 E2.72965
G1 X135.245 Y186.469 F4500.000
G1 E2.12965 F900.00000
G92 E0
G1 X154.445 Y181.735 F4500.000
G1 E0.65000 F900.00000
G1 F720
G1 X154.398 Y181.130 E0.70052
G1 X154.508 Y180.534 E0.75103
G1 X154.770 Y179.986 E0.80154
G1 X155.164 Y179.525 E0.85205
G1 X155.664 Y179.181 E0.90255
G1 X156.236 Y178.978 E0.95307
G1 X156.806 Y178.934 E1.00067
G1 X157.429 Y179.037 E1.05327
G1 X157.985 Y179.302 E1.10453
G1 X158.446 Y179.697 E1.15505
G1 X158.790 Y180.197 E1.20557
G1 X158.993 Y180.769 E1.25608
G1 X159.040 Y181.374 E1.30658
G1 X158.930 Y181.970 E1.35710
G1 X158.668 Y182.518 E1.40761
G1 X158.274 Y182.979 E1.45811
G1 X157.774 Y183.323 E1.50863
G1 X157.235 Y183.514 E1.55623
G1 X156.606 Y183.575 E1.60883
G1 X156.001 Y183.463 E1.66008
G1 X155.485 Y183.217 E1.70769
G1 X154.997 Y182.815 E1.76030
G1 X154.648 Y182.307 E1.81155
G1 X154.465 Y181.792 E1.85707
G1 X155.072 Y181.602 F4500.000
G1 F720
G1 X155.038 Y181.164 E1.89365
G1 X155.118 Y180.732 E1.93023
G1 X155.307 Y180.335 E1.96681
G1 X155.593 Y180.001 E2.00339
G1 X155.955 Y179.752 E2.03996
G1 X156.369 Y179.605 E2.07655
G1 X156.778 Y179.573 E2.11070
G1 X157.236 Y179.650 E2.14937
G1 X157.636 Y179.840 E2.18622
G1 X157.970 Y180.126 E2.22280
G1 X158.219 Y180.488 E2.25938
G1 X158.366 Y180.902 E2.29596
G1 X158.400 Y181.340 E2.33254
G1 X158.320 Y181.772 E2.36912
G1 X158.131 Y182.169 E2.40570
G1 X157.845 Y182.503 E2.44228
G1 X157.483 Y182.752 E2.47886
G1 X157.096 Y182.889 E2.51301
G1 X156.634 Y182.934 E2.55168
G1 X156.199 Y182.853 E2.58852
G1 X155.829 Y182.676 E2.62267
G1 X155.470 Y182.381 E2.66135
G1 X155.219 Y182.016 E2.69819
G1 X155.092 Y181.659 E2.72978
G1 X155.072 Y181.602 F4500.000
G1 E2.12978 F900.00000
G92 E0
G1 X172.390 Y169.566 F4500.000
G1 E0.65000 F900.00000
G1 F720
G1 X172.158 Y169.005 E0.70051
G1 X172.079 Y168.403 E0.75102
G1 X172.158 Y167.802 E0.80155
G1 X172.390 Y167.241 E0.85204
G1 X172.760 Y166.760 E0.90255
G1 X173.241 Y166.390 E0.95306
G1 X173.802 Y166.158 E1.00356
G1 X174.369 Y166.084 E1.05116
G1 X174.997 Y166.155 E1.10377
G1 X175.566 Y166.390 E1.15504
G1 X176.047 Y166.760 E1.20555
G1 X176.416 Y167.241 E1.25606
G1 X176.649 Y167.802 E1.30657
G1 X176.729 Y168.412 E1.35783
G1 X176.635 Y169.037 E1.41045
G1 X176.416 Y169.566 E1.45804
G1 X176.047 Y170.047 E1.50855
G1 X175.566 Y170.416 E1.55905
G1 X175.005 Y170.649 E1.60957
G1 X174.403 Y170.728 E1.66008
G1 X173.802 Y170.649 E1.71059
G1 X173.241 Y170.416 E1.76110
G1 X172.760 Y170.047 E1.81161
G1 X172.427 Y169.613 E1.85712
G1 X172.946 Y169.245 F4500.000
G1 F720
G1 X172.778 Y168.839 E1.89370
G1 X172.720 Y168.403 E1.93029
G1 X172.778 Y167.968 E1.96687
G1 X172.946 Y167.562 E2.00344
G1 X173.213 Y167.213 E2.04002
G1 X173.562 Y166.946 E2.07660
G1 X173.968 Y166.778 E2.11317
G1 X174.374 Y166.724 E2.14732
G1 X174.836 Y166.776 E2.18600
G1 X175.245 Y166.946 E2.22285
G1 X175.594 Y167.213 E2.25943
G1 X175.861 Y167.562 E2.29600
G1 X176.029 Y167.968 E2.33258
G1 X176.087 Y168.407 E2.36943
G1 X176.018 Y168.866 E2.40811
G1 X175.861 Y169.245 E2.44225
G1 X175.594 Y169.594 E2.47883
G1 X175.245 Y169.861 E2.51541
G1 X174.839 Y170.029 E2.55199
G1 X174.403 Y170.087 E2.58857
G1 X173.968 Y170.029 E2.62515
G1 X173.562 Y169.861 E2.66173
G1 X173.213 Y169.594 E2.69830
G1 X172.982 Y169.293 E2.72989
G1 X172.946 Y169.245 F4500.000
G1 E2.12989 F900.00000
G92 E0
G1 X185.689 Y152.441 F4500.000
G1 E0.65000 F900.00000
G1 F720
G1 X185.287 Y151.953 E0.70262
G1 X185.041 Y151.437 E0.75020
G1 X184.931 Y150.841 E0.80070
G1 X184.978 Y150.236 E0.85122
G1 X185.181 Y149.664 E0.90174
G1 X185.525 Y149.164 E0.95224
G1 X185.986 Y148.770 E1.00275
G1 X186.534 Y148.508 E1.05326
G1 X187.096 Y148.404 E1.10084
G1 X187.727 Y148.442 E1.15347
G1 X188.307 Y148.648 E1.20474
G1 X188.815 Y148.997 E1.25599
G1 X189.217 Y149.485 E1.30860
G1 X189.463 Y150.001 E1.35621
G1 X189.575 Y150.606 E1.40746
G1 X189.514 Y151.235 E1.46006
G1 X189.323 Y151.774 E1.50766
G1 X188.979 Y152.274 E1.55817
G1 X188.518 Y152.668 E1.60868
G1 X187.970 Y152.930 E1.65919
G1 X187.374 Y153.040 E1.70971
G1 X186.769 Y152.993 E1.76021
G1 X186.197 Y152.790 E1.81072
G1 X185.739 Y152.475 E1.85700
G1 X186.123 Y151.968 F4500.000
G1 F720
G1 X185.828 Y151.609 E1.89569
G1 X185.651 Y151.239 E1.92983
G1 X185.571 Y150.807 E1.96640
G1 X185.605 Y150.369 E2.00298
G1 X185.752 Y149.955 E2.03957
G1 X186.001 Y149.593 E2.07615
G1 X186.335 Y149.307 E2.11272
G1 X186.732 Y149.118 E2.14930
G1 X187.135 Y149.043 E2.18344
G1 X187.599 Y149.071 E2.22213
G1 X188.016 Y149.219 E2.25898
G1 X188.381 Y149.470 E2.29582
G1 X188.676 Y149.829 E2.33450
G1 X188.853 Y150.199 E2.36865
G1 X188.934 Y150.634 E2.40549
G1 X188.889 Y151.096 E2.44416
G1 X188.752 Y151.483 E2.47831
G1 X188.503 Y151.845 E2.51489
G1 X188.169 Y152.131 E2.55147
G1 X187.772 Y152.320 E2.58805
G1 X187.340 Y152.400 E2.62463
G1 X186.902 Y152.366 E2.66120
G1 X186.488 Y152.219 E2.69779
G1 X186.172 Y152.002 E2.72964
G1 X186.123 Y151.968 F4500.000
G1 E2.12964 F900.00000
G92 E0
G1 X193.061 Y132.053 F4500.000
G1 E0.65000 F900.00000
G1 F720
G1 X192.536 Y131.731 E0.70126
G1 X192.110 Y131.265 E0.75387
G1 X191.837 Y130.763 E0.80146
G1 X191.695 Y130.173 E0.85197
G1 X191.711 Y129.566 E0.90248
G1 X191.883 Y128.984 E0.95300
G1 X192.200 Y128.467 E1.00352
G1 X192.641 Y128.049 E1.05402
G1 X193.174 Y127.760 E1.10453
G1 X193.730 Y127.626 E1.15212
G1 X194.362 Y127.631 E1.20473
G1 X194.952 Y127.806 E1.25599
G1 X195.477 Y128.128 E1.30726
G1 X195.904 Y128.594 E1.35988
G1 X196.177 Y129.097 E1.40747
G1 X196.319 Y129.687 E1.45798
G1 X196.303 Y130.293 E1.50849
G1 X196.130 Y130.875 E1.55900
G1 X195.813 Y131.392 E1.60951
G1 X195.373 Y131.810 E1.66001
G1 X194.840 Y132.100 E1.71053
G1 X194.250 Y132.241 E1.76105
G1 X193.643 Y132.225 E1.81156
G1 X193.119 Y132.070 E1.85707
G1 X193.322 Y131.467 F4500.000
G1 F720
G1 X192.945 Y131.236 E1.89392
G1 X192.631 Y130.893 E1.93260
G1 X192.435 Y130.533 E1.96674
G1 X192.333 Y130.106 E2.00332
G1 X192.344 Y129.666 E2.03990
G1 X192.469 Y129.245 E2.07648
G1 X192.699 Y128.870 E2.11306
G1 X193.017 Y128.568 E2.14964
G1 X193.404 Y128.358 E2.18622
G1 X193.802 Y128.262 E2.22036
G1 X194.267 Y128.266 E2.25904
G1 X194.691 Y128.392 E2.29589
G1 X195.069 Y128.623 E2.33273
G1 X195.383 Y128.966 E2.37142
G1 X195.578 Y129.326 E2.40556
G1 X195.681 Y129.754 E2.44214
G1 X195.669 Y130.193 E2.47872
G1 X195.545 Y130.614 E2.51530
G1 X195.315 Y130.989 E2.55188
G1 X194.996 Y131.291 E2.58845
G1 X194.610 Y131.501 E2.62504
G1 X194.183 Y131.604 E2.66162
G1 X193.743 Y131.592 E2.69820
G1 X193.380 Y131.484 E2.72978
G1 X193.322 Y131.467 F4500.000
G1 E2.12978 F900.00000
G92 E0
G1 X193.764 Y110.382 F4500.000
G1 E0.65000 F900.00000
G1 F720
G1 X193.174 Y110.240 E0.70051
G1 X192.641 Y109.951 E0.75102
G1 X192.200 Y109.533 E0.80153
G1 X191.883 Y109.016 E0.85205
G1 X191.711 Y108.434 E0.90256
G1 X191.695 Y107.827 E0.95308
G1 X191.837 Y107.237 E1.00358
G1 X192.126 Y106.704 E1.05409
G1 X192.544 Y106.264 E1.10460
G1 X193.061 Y105.947 E1.15511
G1 X193.643 Y105.775 E1.20562
G1 X194.215 Y105.760 E1.25320
G1 X194.832 Y105.896 E1.30582
G1 X195.373 Y106.190 E1.35710
G1 X195.813 Y106.608 E1.40760
G1 X196.130 Y107.125 E1.45811
G1 X196.303 Y107.707 E1.50862
G1 X196.319 Y108.313 E1.55913
G1 X196.177 Y108.903 E1.60964
G1 X195.887 Y109.437 E1.66015
G1 X195.470 Y109.877 E1.71067
G1 X194.952 Y110.194 E1.76118
G1 X194.370 Y110.366 E1.81169
G1 X193.824 Y110.381 E1.85720
G1 X193.831 Y109.744 F4500.000
G1 F720
G1 X193.404 Y109.642 E1.89378
G1 X193.017 Y109.432 E1.93036
G1 X192.699 Y109.130 E1.96694
G1 X192.469 Y108.755 E2.00352
G1 X192.344 Y108.334 E2.04010
G1 X192.333 Y107.894 E2.07669
G1 X192.435 Y107.467 E2.11326
G1 X192.645 Y107.081 E2.14984
G1 X192.948 Y106.762 E2.18642
G1 X193.322 Y106.533 E2.22300
G1 X193.743 Y106.408 E2.25957
G1 X194.153 Y106.397 E2.29371
G1 X194.607 Y106.497 E2.33240
G1 X194.996 Y106.709 E2.36925
G1 X195.315 Y107.011 E2.40583
G1 X195.545 Y107.386 E2.44240
G1 X195.669 Y107.807 E2.47898
G1 X195.681 Y108.246 E2.51556
G1 X195.578 Y108.674 E2.55214
G1 X195.369 Y109.060 E2.58872
G1 X195.066 Y109.379 E2.62531
G1 X194.691 Y109.608 E2.66189
G1 X194.270 Y109.733 E2.69847
G1 X193.891 Y109.743 E2.73005
G1 X193.831 Y109.744 F4500.000
G1 E2.13005 F900.00000
G92 E0
G1 X187.735 Y89.555 F4500.000
G1 E0.65000 F900.00000
G1 F720
G1 X187.130 Y89.602 E0.70052
G1 X186.534 Y89.492 E0.75103
G1 X185.986 Y89.230 E0.80154
G1 X185.525 Y88.836 E0.85205
G1 X185.181 Y88.336 E0.90255
G1 X184.978 Y87.764 E0.95307
G1 X184.931 Y87.159 E1.00359
G1 X185.041 Y86.563 E1.05409
G1 X185.303 Y86.015 E1.10460
G1 X185.697 Y85.554 E1.15511
G1 X186.197 Y85.210 E1.20563
G1 X186.769 Y85.007 E1.25615
G1 X187.339 Y84.963 E1.30372
G1 X187.962 Y85.066 E1.35634
G1 X188.518 Y85.332 E1.40761
G1 X188.979 Y85.726 E1.45811
G1 X189.323 Y86.226 E1.50863
G1 X189.526 Y86.798 E1.55915
G1 X189.573 Y87.403 E1.60965
G1 X189.463 Y87.999 E1.66014
G1 X189.201 Y88.547 E1.71068
G1 X188.807 Y89.008 E1.76119
G1 X188.307 Y89.352 E1.81168
G1 X187.792 Y89.535 E1.85720
G1 X187.602 Y88.928 F4500.000
G1 F720
G1 X187.164 Y88.962 E1.89378
G1 X186.732 Y88.882 E1.93036
G1 X186.335 Y88.693 E1.96695
G1 X186.001 Y88.407 E2.00352
G1 X185.752 Y88.045 E2.04009
G1 X185.605 Y87.631 E2.07668
G1 X185.571 Y87.193 E2.11326
G1 X185.651 Y86.761 E2.14984
G1 X185.840 Y86.364 E2.18642
G1 X186.126 Y86.030 E2.22300
G1 X186.488 Y85.781 E2.25958
G1 X186.902 Y85.634 E2.29616
G1 X187.311 Y85.602 E2.33030
G1 X187.769 Y85.679 E2.36898
G1 X188.169 Y85.869 E2.40583
G1 X188.503 Y86.155 E2.44241
G1 X188.752 Y86.517 E2.47899
G1 X188.899 Y86.931 E2.51557
G1 X188.933 Y87.369 E2.55215
G1 X188.853 Y87.801 E2.58872
