; generated by Slic3r 1.3.1-dev on 2019-10-03 at 14:54:22

; Print Config Notes: 
; DMF_3D_0.3mmThin222HC25%
; 
; external perimeters extrusion width = 0.60mm (4.82mm^3/s)
; perimeters extrusion width = 0.54mm (5.71mm^3/s)
; infill extrusion width = 0.70mm (7.63mm^3/s)
; solid infill extrusion width = 0.51mm (5.35mm^3/s)
; top infill extrusion width = 0.51mm (5.35mm^3/s)

M190 S90 ; set bed temperature and wait for it to be reached
M104 S250 ; set temperature
G28 ; home all axes
; Filament gcode

M109 S250 ; set temperature and wait for it to be reached
G21 ; set units to millimeters
G90 ; use absolute coordinates
M82 ; use absolute distances for extrusion
G92 E0
G1 Z0.300 F4500.000
G1 E-0.60000 F900.00000
G92 E0
G1 X86.306 Y54.629 F4500.000
G1 E0.65000 F900.00000
G1 F1920
G1 X86.888 Y53.900 E0.72391
G1 X87.406 Y53.342 E0.78429
G1 X87.961 Y52.822 E0.84460
G1 X88.552 Y52.343 E0.90492
G1 X89.175 Y51.905 E0.96529
G1 X89.827 Y51.511 E1.02566
G1 X90.505 Y51.164 E1.08602
G1 X91.203 Y50.866 E1.14623
G1 X91.924 Y50.617 E1.20668
G1 X92.658 Y50.419 E1.26700
G1 X93.405 Y50.272 E1.32735
G1 X94.161 Y50.178 E1.38770
G1 X94.921 Y50.137 E1.44805
G1 X95.681 Y50.149 E1.50834
G1 X96.100 Y50.178 E1.54158
G1 X96.855 Y50.272 E1.60195
G1 X97.602 Y50.419 E1.66230
G1 X98.501 Y50.667 E1.73620
G1 X150.342 Y67.514 E6.05761
G1 X151.051 Y67.785 E6.11784
G1 X151.742 Y68.106 E6.17820
G1 X152.409 Y68.474 E6.23858
G1 X153.048 Y68.888 E6.29895
G1 X153.656 Y69.344 E6.35927
G1 X154.231 Y69.842 E6.41956
G1 X154.533 Y70.133 E6.45276
G1 X155.051 Y70.691 E6.51318
G1 X155.529 Y71.283 E6.57343
G1 X155.965 Y71.909 E6.63393
G1 X156.355 Y72.561 E6.69418
G1 X156.700 Y73.240 E6.75451
G1 X156.996 Y73.941 E6.81486
G1 X157.337 Y74.990 E6.90227
G1 X157.510 Y75.732 E6.96271
G1 X157.630 Y76.484 E7.02310
G1 X157.698 Y77.240 E7.08329
G1 X157.715 Y77.831 E7.13016
G1 X157.712 Y132.341 E11.45157
G1 X157.698 Y132.760 E11.48479
G1 X157.630 Y133.516 E11.54497
G1 X157.438 Y134.604 E11.63257
G1 X157.243 Y135.339 E11.69285
G1 X156.996 Y136.059 E11.75321
G1 X156.839 Y136.448 E11.78648
G1 X156.516 Y137.137 E11.84679
G1 X155.965 Y138.091 E11.93415
G1 X155.529 Y138.717 E11.99462
G1 X155.271 Y139.047 E12.02782
G1 X154.533 Y139.867 E12.11527
G1 X153.977 Y140.386 E12.17558
G1 X153.388 Y140.866 E12.23581
G1 X152.747 Y141.315 E12.29788
G1 X152.112 Y141.697 E12.35659
G1 X151.742 Y141.894 E12.38984
G1 X151.051 Y142.215 E12.45020
G1 X150.179 Y142.542 E12.52407
G1 X98.501 Y159.333 E16.83184
G1 X97.602 Y159.581 E16.90574
G1 X96.855 Y159.728 E16.96609
G1 X96.101 Y159.822 E17.02637
G1 X95.340 Y159.863 E17.08679
G1 X94.579 Y159.851 E17.14711
G1 X93.821 Y159.786 E17.20745
G1 X93.069 Y159.669 E17.26777
G1 X92.327 Y159.499 E17.32809
G1 X91.597 Y159.277 E17.38859
G1 X90.888 Y159.006 E17.44875
G1 X90.197 Y158.685 E17.50918
G1 X89.530 Y158.317 E17.56955
G1 X88.891 Y157.904 E17.62992
G1 X88.282 Y157.447 E17.69025
G1 X87.961 Y157.178 E17.72345
G1 X87.406 Y156.658 E17.78373
G1 X86.887 Y156.100 E17.84413
G1 X86.410 Y155.508 E17.90441
G1 X54.270 Y111.271 E22.23937
G1 X53.854 Y110.633 E22.29972
G1 X53.484 Y109.968 E22.36006
G1 X53.161 Y109.279 E22.42040
G1 X52.887 Y108.568 E22.48077
G1 X52.663 Y107.841 E22.54112
G1 X52.490 Y107.099 E22.60147
G1 X52.370 Y106.348 E22.66177
G1 X52.326 Y105.932 E22.69498
G1 X52.288 Y105.171 E22.75539
G1 X52.302 Y104.410 E22.81568
G1 X52.370 Y103.652 E22.87607
G1 X52.562 Y102.566 E22.96348
G1 X52.757 Y101.830 E23.02383
G1 X53.004 Y101.110 E23.08420
G1 X53.300 Y100.408 E23.14454
G1 X53.644 Y99.730 E23.20488
G1 X54.035 Y99.077 E23.26523
G1 X54.368 Y98.589 E23.31200
G1 X86.271 Y54.678 E27.61500
G1 X86.821 Y55.003 F4500.000
G1 F1920
G1 X87.360 Y54.325 E27.68365
G1 X87.847 Y53.799 E27.74050
G1 X88.370 Y53.309 E27.79729
G1 X88.926 Y52.857 E27.85410
G1 X89.512 Y52.444 E27.91095
G1 X90.125 Y52.072 E27.96780
G1 X90.763 Y51.745 E28.02464
G1 X91.421 Y51.464 E28.08136
G1 X92.099 Y51.228 E28.13828
G1 X92.791 Y51.040 E28.19508
G1 X93.494 Y50.902 E28.25191
G1 X94.205 Y50.812 E28.30875
G1 X94.921 Y50.772 E28.36558
G1 X95.637 Y50.783 E28.42236
G1 X96.055 Y50.812 E28.45559
G1 X96.767 Y50.902 E28.51245
G1 X97.470 Y51.040 E28.56928
G1 X98.304 Y51.272 E28.63791
G1 X150.124 Y68.112 E32.95755
G1 X150.793 Y68.366 E33.01428
G1 X151.444 Y68.667 E33.07112
G1 X152.072 Y69.013 E33.12798
G1 X152.674 Y69.402 E33.18483
G1 X153.248 Y69.831 E33.24163
G1 X153.790 Y70.300 E33.29842
G1 X154.091 Y70.591 E33.33162
G1 X154.579 Y71.117 E33.38851
G1 X155.028 Y71.674 E33.44526
G1 X155.438 Y72.264 E33.50222
G1 X155.805 Y72.879 E33.55897
G1 X156.250 Y73.791 E33.63940
G1 X156.509 Y74.459 E33.69624
G1 X156.720 Y75.143 E33.75300
G1 X156.884 Y75.842 E33.80992
G1 X156.998 Y76.550 E33.86677
G1 X157.042 Y76.967 E33.89999
G1 X157.077 Y77.681 E33.95668
G1 X157.077 Y132.319 E38.28821
G1 X157.062 Y132.737 E38.32143
G1 X156.998 Y133.450 E38.37812
G1 X156.822 Y134.450 E38.45867
G1 X156.638 Y135.142 E38.51544
G1 X156.407 Y135.821 E38.57229
G1 X156.250 Y136.210 E38.60554
G1 X155.945 Y136.858 E38.66234
G1 X155.438 Y137.736 E38.74269
G1 X155.204 Y138.083 E38.77589
G1 X154.770 Y138.656 E38.83283
G1 X154.091 Y139.409 E38.91325
G1 X153.569 Y139.900 E38.97005
G1 X153.014 Y140.352 E39.02678
G1 X152.410 Y140.776 E39.08532
G1 X151.814 Y141.136 E39.14051
G1 X151.444 Y141.333 E39.17375
G1 X150.793 Y141.634 E39.23059
G1 X149.982 Y141.937 E39.29919
G1 X98.304 Y158.728 E43.60696
G1 X97.470 Y158.960 E43.67559
G1 X96.767 Y159.098 E43.73242
G1 X96.056 Y159.188 E43.78920
G1 X95.340 Y159.228 E43.84609
G1 X94.623 Y159.217 E43.90290
G1 X93.909 Y159.157 E43.95972
G1 X93.201 Y159.047 E44.01652
G1 X92.502 Y158.888 E44.07333
G1 X91.815 Y158.680 E44.13030
G1 X91.146 Y158.425 E44.18697
G1 X90.495 Y158.124 E44.24386
G1 X89.867 Y157.778 E44.30072
G1 X89.264 Y157.389 E44.35756
G1 X88.691 Y156.960 E44.41438
G1 X88.370 Y156.691 E44.44758
G1 X87.848 Y156.201 E44.50436
G1 X87.360 Y155.675 E44.56123
G1 X86.911 Y155.117 E44.61800
G1 X54.797 Y110.915 E48.94944
G1 X54.404 Y110.315 E49.00627
G1 X54.055 Y109.689 E49.06310
G1 X53.750 Y109.041 E49.11992
G1 X53.491 Y108.372 E49.17677
G1 X53.280 Y107.687 E49.23360
G1 X53.116 Y106.989 E49.29043
G1 X53.002 Y106.282 E49.34722
G1 X52.958 Y105.865 E49.38044
G1 X52.923 Y105.148 E49.43732
G1 X52.938 Y104.432 E49.49410
G1 X53.002 Y103.718 E49.55096
G1 X53.178 Y102.719 E49.63136
G1 X53.362 Y102.026 E49.68818
G1 X53.593 Y101.348 E49.74504
G1 X53.871 Y100.687 E49.80186
G1 X54.055 Y100.311 E49.83506
G1 X54.394 Y99.703 E49.89023
G1 X54.797 Y99.085 E49.94872
G1 X86.785 Y55.051 E54.26353
G1 X87.335 Y55.376 F4500.000
G1 F1920
G1 X87.832 Y54.751 E54.32690
G1 X88.289 Y54.257 E54.38023
G1 X88.779 Y53.796 E54.43352
G1 X89.299 Y53.371 E54.48681
G1 X89.849 Y52.983 E54.54014
G1 X90.424 Y52.634 E54.59347
G1 X91.022 Y52.326 E54.64679
G1 X91.638 Y52.061 E54.70001
G1 X92.274 Y51.839 E54.75340
G1 X92.923 Y51.662 E54.80669
G1 X93.582 Y51.531 E54.86000
G1 X94.250 Y51.446 E54.91332
G1 X94.921 Y51.408 E54.96664
G1 X95.593 Y51.417 E55.01990
G1 X96.011 Y51.446 E55.05313
G1 X96.678 Y51.531 E55.10647
G1 X97.338 Y51.662 E55.15978
G1 X98.108 Y51.876 E55.22314
G1 X149.907 Y68.709 E59.54102
G1 X150.534 Y68.947 E59.59424
G1 X151.145 Y69.228 E59.64757
G1 X151.735 Y69.552 E59.70090
G1 X152.301 Y69.916 E59.75423
G1 X152.839 Y70.318 E59.80752
G1 X153.348 Y70.757 E59.86080
G1 X153.650 Y71.048 E59.89400
G1 X154.107 Y71.542 E59.94736
G1 X154.527 Y72.066 E60.00061
G1 X154.911 Y72.619 E60.05403
G1 X155.374 Y73.421 E60.12736
G1 X155.660 Y74.029 E60.18068
G1 X155.904 Y74.656 E60.23400
G1 X156.103 Y75.297 E60.28726
G1 X156.258 Y75.953 E60.34064
G1 X156.366 Y76.617 E60.39398
G1 X156.409 Y77.033 E60.42720
G1 X156.442 Y77.704 E60.48039
G1 X156.442 Y132.296 E64.80838
G1 X156.427 Y132.715 E64.84160
G1 X156.366 Y133.383 E64.89479
G1 X156.205 Y134.296 E64.96830
G1 X156.103 Y134.703 E65.00154
G1 X155.904 Y135.345 E65.05481
G1 X155.660 Y135.972 E65.10813
G1 X155.374 Y136.580 E65.16142
G1 X154.911 Y137.381 E65.23475
G1 X154.677 Y137.728 E65.26795
G1 X154.269 Y138.264 E65.32136
G1 X153.650 Y138.952 E65.39475
G1 X153.160 Y139.413 E65.44804
G1 X152.640 Y139.837 E65.50127
G1 X152.072 Y140.237 E65.55632
G1 X151.515 Y140.575 E65.60795
G1 X151.145 Y140.772 E65.64119
G1 X150.534 Y141.053 E65.69451
G1 X149.786 Y141.333 E65.75785
G1 X98.108 Y158.124 E70.06561
G1 X97.338 Y158.338 E70.12897
G1 X96.678 Y158.469 E70.18229
G1 X96.012 Y158.554 E70.23555
G1 X95.340 Y158.592 E70.28892
G1 X94.668 Y158.583 E70.34221
G1 X93.997 Y158.527 E70.39552
G1 X93.333 Y158.425 E70.44881
G1 X92.677 Y158.277 E70.50210
G1 X92.032 Y158.082 E70.55553
G1 X91.405 Y157.845 E70.60871
G1 X90.793 Y157.563 E70.66208
G1 X90.204 Y157.239 E70.71541
G1 X89.638 Y156.875 E70.76874
G1 X89.099 Y156.473 E70.82204
G1 X88.779 Y156.204 E70.85524
G1 X88.289 Y155.743 E70.90851
G1 X87.832 Y155.249 E70.96186
G1 X87.412 Y154.725 E71.01512
G1 X55.323 Y110.560 E75.34304
G1 X54.955 Y109.997 E75.39635
G1 X54.626 Y109.411 E75.44966
G1 X54.339 Y108.802 E75.50297
G1 X54.096 Y108.175 E75.55630
G1 X53.896 Y107.533 E75.60961
G1 X53.742 Y106.879 E75.66293
G1 X53.634 Y106.215 E75.71621
G1 X53.591 Y105.799 E75.74942
G1 X53.558 Y105.126 E75.80277
G1 X53.573 Y104.455 E75.85605
G1 X53.634 Y103.785 E75.90939
G1 X53.795 Y102.873 E75.98276
G1 X53.966 Y102.223 E76.03607
G1 X54.183 Y101.586 E76.08940
G1 X54.443 Y100.966 E76.14271
G1 X54.626 Y100.589 E76.17591
G1 X54.944 Y100.021 E76.22756
G1 X55.324 Y99.440 E76.28254
G1 X87.300 Y55.425 E80.59559
G1 E79.99559 F900.00000
G92 E0
G1 X121.106 Y134.951 F4500.000
G1 E0.65000 F900.00000
G1 F720
G1 X121.471 Y135.379 E0.69456
G1 X121.713 Y135.886 E0.73912
G1 X121.816 Y136.439 E0.78369
G1 X121.772 Y136.999 E0.82825
G1 X121.584 Y137.529 E0.87282
G1 X121.266 Y137.992 E0.91738
G1 X120.838 Y138.357 E0.96194
G1 X120.331 Y138.599 E1.00650
G1 X119.778 Y138.702 E1.05106
G1 X119.218 Y138.658 E1.09562
G1 X118.688 Y138.470 E1.14019
G1 X118.225 Y138.151 E1.18475
G1 X117.860 Y137.724 E1.22931
G1 X117.618 Y137.217 E1.27387
G1 X117.515 Y136.664 E1.31844
G1 X117.559 Y136.104 E1.36300
G1 X117.747 Y135.574 E1.40756
G1 X118.065 Y135.110 E1.45213
G1 X118.493 Y134.745 E1.49669
G1 X119.000 Y134.503 E1.54125
G1 X119.528 Y134.406 E1.58381
G1 X120.111 Y134.444 E1.63014
G1 X120.643 Y134.633 E1.67488
G1 X121.057 Y134.917 E1.71468
G1 X121.106 Y134.951 F4500.000
G1 E1.11468 F900.00000
G92 E0
G1 X141.536 Y106.874 F4500.000
G1 E0.65000 F900.00000
G1 F720
G1 X141.068 Y106.524 E0.69633
G1 X140.724 Y106.077 E0.74106
G1 X140.509 Y105.557 E0.78563
G1 X140.436 Y105.000 E0.83019
G1 X140.509 Y104.443 E0.87475
G1 X140.724 Y103.923 E0.91932
G1 X141.066 Y103.477 E0.96388
G1 X141.512 Y103.135 E1.00844
G1 X142.032 Y102.920 E1.05301
G1 X142.564 Y102.850 E1.09557
G1 X143.144 Y102.919 E1.14190
G1 X143.665 Y103.135 E1.18663
G1 X144.111 Y103.477 E1.23119
G1 X144.454 Y103.923 E1.27575
G1 X144.669 Y104.443 E1.32032
G1 X144.742 Y105.000 E1.36488
G1 X144.669 Y105.557 E1.40944
G1 X144.454 Y106.077 E1.45401
G1 X144.111 Y106.523 E1.49857
G1 X143.665 Y106.865 E1.54313
G1 X143.146 Y107.080 E1.58770
G1 X142.589 Y107.153 E1.63226
G1 X142.032 Y107.080 E1.67682
G1 X141.591 Y106.897 E1.71462
G1 X141.536 Y106.874 F4500.000
G1 E1.11462 F900.00000
G92 E0
G1 X120.643 Y75.367 F4500.000
G1 E0.65000 F900.00000
G1 F720
G1 X120.113 Y75.555 E0.69457
G1 X119.553 Y75.599 E0.73913
G1 X119.000 Y75.497 E0.78369
G1 X118.515 Y75.265 E0.82625
G1 X118.067 Y74.891 E0.87258
G1 X117.747 Y74.426 E0.91731
G1 X117.559 Y73.896 E0.96188
G1 X117.515 Y73.336 E1.00644
G1 X117.618 Y72.783 E1.05100
G1 X117.860 Y72.276 E1.09557
G1 X118.225 Y71.849 E1.14013
G1 X118.688 Y71.530 E1.18469
G1 X119.218 Y71.342 E1.22926
G1 X119.753 Y71.300 E1.27182
G1 X120.329 Y71.400 E1.31814
G1 X120.838 Y71.643 E1.36288
G1 X121.266 Y72.008 E1.40744
G1 X121.584 Y72.471 E1.45200
G1 X121.772 Y73.001 E1.49657
G1 X121.816 Y73.561 E1.54113
G1 X121.713 Y74.114 E1.58570
G1 X121.471 Y74.621 E1.63026
G1 X121.106 Y75.049 E1.67482
G1 X120.692 Y75.333 E1.71462
G1 X120.643 Y75.367 F4500.000
G1 E1.11462 F900.00000
G92 E0
G1 X95.987 Y146.299 F4500.000
G1 E0.65000 F900.00000
G1 F720
G1 X96.652 Y146.616 E0.70845
G1 X97.207 Y147.090 E0.76629
G1 X97.620 Y147.691 E0.82412
G1 X97.864 Y148.379 E0.88194
G1 X97.921 Y149.106 E0.93978
G1 X97.788 Y149.823 E0.99761
G1 X97.474 Y150.482 E1.05543
G1 X97.000 Y151.037 E1.11327
G1 X96.399 Y151.450 E1.17110
G1 X95.711 Y151.693 E1.22892
G1 X94.984 Y151.750 E1.28676
G1 X94.267 Y151.617 E1.34459
G1 X93.609 Y151.303 E1.40241
G1 X93.054 Y150.830 E1.46025
G1 X92.641 Y150.228 E1.51808
G1 X92.397 Y149.541 E1.57590
G1 X92.340 Y148.814 E1.63374
G1 X92.473 Y148.096 E1.69157
G1 X92.787 Y147.438 E1.74939
G1 X93.261 Y146.883 E1.80723
G1 X93.862 Y146.470 E1.86506
G1 X94.549 Y146.227 E1.92288
G1 X95.239 Y146.172 E1.97769
G1 X95.928 Y146.289 E2.03309
G1 X95.793 Y146.911 F4500.000
G1 F720
G1 X96.303 Y147.154 E2.07787
G1 X96.731 Y147.519 E2.12244
G1 X97.049 Y147.982 E2.16700
G1 X97.237 Y148.512 E2.21156
G1 X97.281 Y149.073 E2.25613
G1 X97.178 Y149.625 E2.30069
G1 X96.936 Y150.133 E2.34525
G1 X96.571 Y150.560 E2.38981
G1 X96.108 Y150.878 E2.43437
G1 X95.578 Y151.066 E2.47893
G1 X95.018 Y151.110 E2.52350
G1 X94.465 Y151.008 E2.56806
G1 X93.958 Y150.766 E2.61262
G1 X93.530 Y150.401 E2.65719
G1 X93.212 Y149.937 E2.70175
G1 X93.024 Y149.408 E2.74631
G1 X92.980 Y148.847 E2.79087
G1 X93.083 Y148.295 E2.83543
G1 X93.325 Y147.787 E2.87999
G1 X93.690 Y147.360 E2.92456
G1 X94.153 Y147.041 E2.96912
G1 X94.683 Y146.854 E3.01368
G1 X95.210 Y146.812 E3.05562
G1 X95.734 Y146.901 E3.09775
G1 X95.793 Y146.911 F4500.000
G1 E2.49775 F900.00000
G92 E0
G1 X65.154 Y106.986 F4500.000
G1 E0.65000 F900.00000
G1 F720
G1 X64.589 Y107.420 E0.70652
G1 X63.915 Y107.699 E0.76435
G1 X63.192 Y107.794 E0.82218
G1 X62.468 Y107.699 E0.88001
G1 X61.794 Y107.420 E0.93784
G1 X61.216 Y106.976 E0.99568
G1 X60.772 Y106.397 E1.05350
G1 X60.492 Y105.723 E1.11133
G1 X60.397 Y105.000 E1.16917
G1 X60.492 Y104.277 E1.22700
G1 X60.772 Y103.603 E1.28483
G1 X61.216 Y103.024 E1.34265
G1 X61.794 Y102.580 E1.40049
G1 X62.468 Y102.301 E1.45832
G1 X63.154 Y102.211 E1.51312
G1 X63.907 Y102.298 E1.57328
G1 X64.589 Y102.580 E1.63174
G1 X65.167 Y103.024 E1.68957
G1 X65.612 Y103.603 E1.74740
G1 X65.891 Y104.277 E1.80522
G1 X65.986 Y105.000 E1.86306
G1 X65.891 Y105.723 E1.92089
G1 X65.612 Y106.397 E1.97871
G1 X65.194 Y106.941 E2.03310
G1 X64.714 Y106.523 F4500.000
G1 F720
G1 X64.268 Y106.865 E2.07766
G1 X63.749 Y107.080 E2.12222
G1 X63.192 Y107.153 E2.16678
G1 X62.634 Y107.080 E2.21134
G1 X62.115 Y106.865 E2.25591
G1 X61.669 Y106.523 E2.30048
G1 X61.327 Y106.077 E2.34503
G1 X61.112 Y105.557 E2.38960
G1 X61.038 Y105.000 E2.43416
G1 X61.112 Y104.443 E2.47872
G1 X61.327 Y103.923 E2.52329
G1 X61.669 Y103.477 E2.56784
G1 X62.115 Y103.135 E2.61241
G1 X62.634 Y102.920 E2.65698
G1 X63.159 Y102.851 E2.69891
G1 X63.746 Y102.919 E2.74580
G1 X64.268 Y103.135 E2.79058
G1 X64.714 Y103.477 E2.83515
G1 X65.056 Y103.923 E2.87971
G1 X65.271 Y104.443 E2.92427
G1 X65.345 Y105.000 E2.96883
G1 X65.271 Y105.557 E3.01340
G1 X65.056 Y106.077 E3.05796
G1 X64.751 Y106.475 E3.09776
G1 X64.714 Y106.523 F4500.000
G1 E2.49776 F900.00000
G92 E0
G1 X93.856 Y63.528 F4500.000
G1 E0.65000 F900.00000
G1 F720
G1 X93.260 Y63.116 E0.70745
G1 X92.787 Y62.562 E0.76518
G1 X92.473 Y61.904 E0.82301
G1 X92.338 Y61.179 E0.88146
G1 X92.410 Y60.423 E0.94163
G1 X92.641 Y59.772 E0.99642
G1 X93.054 Y59.170 E1.05425
G1 X93.609 Y58.697 E1.11209
G1 X94.267 Y58.383 E1.16991
G1 X94.946 Y58.256 E1.22471
G1 X95.704 Y58.304 E1.28488
G1 X96.399 Y58.550 E1.34333
G1 X97.000 Y58.963 E1.40115
G1 X97.474 Y59.518 E1.45900
G1 X97.788 Y60.177 E1.51682
G1 X97.921 Y60.894 E1.57464
G1 X97.864 Y61.621 E1.63248
G1 X97.620 Y62.309 E1.69031
G1 X97.207 Y62.910 E1.74813
G1 X96.652 Y63.384 E1.80598
G1 X95.994 Y63.698 E1.86380
G1 X95.277 Y63.831 E1.92163
G1 X94.549 Y63.773 E1.97946
G1 X93.912 Y63.548 E2.03303
G1 X94.148 Y62.957 F4500.000
G1 F720
G1 X93.689 Y62.640 E2.07721
G1 X93.325 Y62.213 E2.12174
G1 X93.083 Y61.705 E2.16630
G1 X92.980 Y61.150 E2.21108
G1 X93.035 Y60.561 E2.25798
G1 X93.212 Y60.063 E2.29991
G1 X93.530 Y59.599 E2.34447
G1 X93.958 Y59.234 E2.38904
