; generated by Slic3r 1.3.1-dev on 2021-03-21 at 10:09:14

; Print Config Notes: 
; DMF_3D_0.2mm354HC30%PETG
; Slower for PETG
; 
; Filament notes: 
; DMF_3D_1.75x1.00NatPETG250 B95
; 
; Printer Config Notes: 
; DMF_3D3
; 
; external perimeters extrusion width = 0.60mm (2.23mm^3/s)
; perimeters extrusion width = 0.60mm (3.34mm^3/s)
; infill extrusion width = 0.64mm (4.78mm^3/s)
; solid infill extrusion width = 0.60mm (4.46mm^3/s)
; top infill extrusion width = 0.60mm (4.46mm^3/s)

M190 S95 ; set bed temperature and wait for it to be reached
M104 S250 ; set temperature
G28 ; home all axes
; Filament gcode

M109 S250 ; set temperature and wait for it to be reached
G21 ; set units to millimeters
G90 ; use absolute coordinates
M82 ; use absolute distances for extrusion
G92 E0
G1 Z0.300 F9000.000
G1 E-0.60000 F900.00000
G92 E0
G1 X106.307 Y68.629 F9000.000
G1 E0.65000 F900.00000
G1 F1920
G1 X106.888 Y67.900 E0.72392
G1 X107.406 Y67.342 E0.78426
G1 X107.961 Y66.822 E0.84460
G1 X108.552 Y66.342 E0.90495
G1 X109.175 Y65.905 E0.96529
G1 X109.827 Y65.511 E1.02563
G1 X110.504 Y65.165 E1.08597
G1 X111.205 Y64.866 E1.14633
G1 X111.924 Y64.617 E1.20665
G1 X112.659 Y64.419 E1.26702
G1 X113.405 Y64.272 E1.32735
G1 X114.161 Y64.178 E1.38770
G1 X114.921 Y64.137 E1.44805
G1 X115.703 Y64.150 E1.51002
G1 X116.440 Y64.214 E1.56873
G1 X116.855 Y64.272 E1.60194
G1 X117.602 Y64.419 E1.66228
G1 X118.501 Y64.667 E1.73620
G1 X170.340 Y81.514 E6.05751
G1 X171.052 Y81.785 E6.11787
G1 X171.761 Y82.116 E6.17987
G1 X172.408 Y82.474 E6.23853
G1 X172.764 Y82.696 E6.27177
G1 X173.387 Y83.133 E6.33211
G1 X173.977 Y83.614 E6.39246
G1 X174.533 Y84.134 E6.45280
G1 X175.052 Y84.692 E6.51320
G1 X175.530 Y85.284 E6.57354
G1 X176.146 Y86.198 E6.66096
G1 X176.516 Y86.863 E6.72131
G1 X176.839 Y87.553 E6.78165
G1 X177.113 Y88.263 E6.84200
G1 X177.337 Y88.990 E6.90233
G1 X177.510 Y89.732 E6.96269
G1 X177.630 Y90.483 E7.02302
G1 X177.698 Y91.242 E7.08338
G1 X177.715 Y91.831 E7.13015
G1 X177.712 Y146.340 E11.45148
G1 X177.674 Y147.100 E11.51184
G1 X177.630 Y147.517 E11.54510
G1 X177.438 Y148.603 E11.63251
G1 X177.243 Y149.339 E11.69284
G1 X177.113 Y149.738 E11.72609
G1 X176.839 Y150.448 E11.78646
G1 X176.516 Y151.137 E11.84674
G1 X175.965 Y152.092 E11.93421
G1 X175.730 Y152.440 E11.96745
G1 X175.271 Y153.046 E12.02776
G1 X174.771 Y153.620 E12.08810
G1 X174.232 Y154.157 E12.14845
G1 X173.387 Y154.867 E12.23592
G1 X173.048 Y155.113 E12.26913
G1 X172.409 Y155.526 E12.32946
G1 X171.742 Y155.894 E12.38982
G1 X171.052 Y156.214 E12.45015
G1 X170.179 Y156.542 E12.52407
G1 X118.501 Y173.333 E16.83184
G1 X117.602 Y173.581 E16.90575
G1 X116.855 Y173.728 E16.96609
G1 X116.100 Y173.822 E17.02640
G1 X115.340 Y173.863 E17.08678
G1 X114.579 Y173.851 E17.14713
G1 X113.800 Y173.783 E17.20914
G1 X113.069 Y173.669 E17.26776
G1 X112.659 Y173.581 E17.30102
G1 X111.924 Y173.383 E17.36136
G1 X111.204 Y173.134 E17.42171
G1 X110.504 Y172.835 E17.48204
G1 X109.827 Y172.489 E17.54240
G1 X109.175 Y172.095 E17.60274
G1 X108.552 Y171.658 E17.66308
G1 X107.961 Y171.178 E17.72343
G1 X107.406 Y170.658 E17.78377
G1 X106.888 Y170.100 E17.84411
G1 X106.409 Y169.507 E17.90449
G1 X74.270 Y125.271 E22.23938
G1 X73.854 Y124.633 E22.29972
G1 X73.484 Y123.968 E22.36006
G1 X73.161 Y123.279 E22.42041
G1 X73.004 Y122.890 E22.45362
G1 X72.764 Y122.190 E22.51229
G1 X72.562 Y121.435 E22.57430
G1 X72.418 Y120.687 E22.63464
G1 X72.326 Y119.931 E22.69500
G1 X72.288 Y119.171 E22.75534
G1 X72.302 Y118.410 E22.81569
G1 X72.370 Y117.652 E22.87604
G1 X72.490 Y116.900 E22.93636
G1 X72.663 Y116.159 E22.99673
G1 X73.004 Y115.110 E23.08418
G1 X73.300 Y114.409 E23.14452
G1 X73.644 Y113.730 E23.20487
G1 X74.035 Y113.077 E23.26521
G1 X74.368 Y112.589 E23.31199
G1 X106.271 Y68.678 E27.61500
G1 X106.821 Y69.003 F9000.000
G1 F1920
G1 X107.360 Y68.325 E27.68364
G1 X107.847 Y67.800 E27.74047
G1 X108.370 Y67.309 E27.79729
G1 X108.926 Y66.856 E27.85412
G1 X109.512 Y66.444 E27.91094
G1 X110.125 Y66.073 E27.96777
G1 X110.763 Y65.745 E28.02460
G1 X111.422 Y65.463 E28.08143
G1 X112.099 Y65.228 E28.13824
G1 X112.791 Y65.040 E28.19509
G1 X113.494 Y64.902 E28.25190
G1 X114.205 Y64.812 E28.30875
G1 X114.921 Y64.772 E28.36557
G1 X115.658 Y64.784 E28.42403
G1 X116.352 Y64.843 E28.47922
G1 X116.767 Y64.902 E28.51243
G1 X117.470 Y65.040 E28.56925
G1 X118.304 Y65.272 E28.63790
G1 X170.123 Y82.111 E32.95745
G1 X170.793 Y82.366 E33.01430
G1 X171.444 Y82.667 E33.07112
G1 X172.089 Y83.024 E33.12959
G1 X172.674 Y83.401 E33.18475
G1 X173.013 Y83.648 E33.21799
G1 X173.569 Y84.100 E33.27482
G1 X174.091 Y84.591 E33.33164
G1 X174.579 Y85.117 E33.38852
G1 X175.029 Y85.675 E33.44534
G1 X175.596 Y86.516 E33.52574
G1 X175.945 Y87.142 E33.58257
G1 X176.250 Y87.791 E33.63939
G1 X176.509 Y88.459 E33.69623
G1 X176.638 Y88.858 E33.72943
G1 X176.817 Y89.530 E33.78459
G1 X176.956 Y90.255 E33.84308
G1 X177.042 Y90.966 E33.89990
G1 X177.077 Y91.683 E33.95676
G1 X177.077 Y146.318 E38.28813
G1 X177.042 Y147.034 E38.34497
G1 X176.998 Y147.451 E38.37822
G1 X176.822 Y148.450 E38.45861
G1 X176.638 Y149.142 E38.51543
G1 X176.509 Y149.541 E38.54867
G1 X176.250 Y150.210 E38.60551
G1 X175.945 Y150.858 E38.66229
G1 X175.596 Y151.484 E38.71913
G1 X175.215 Y152.067 E38.77428
G1 X174.579 Y152.883 E38.85638
G1 X174.299 Y153.195 E38.88958
G1 X173.790 Y153.700 E38.94641
G1 X173.013 Y154.352 E39.02686
G1 X172.674 Y154.598 E39.06006
G1 X172.072 Y154.987 E39.11688
G1 X171.444 Y155.333 E39.17372
G1 X170.793 Y155.634 E39.23054
G1 X169.982 Y155.937 E39.29918
G1 X118.304 Y172.728 E43.60695
G1 X117.470 Y172.960 E43.67559
G1 X116.767 Y173.098 E43.73241
G1 X116.056 Y173.188 E43.78920
G1 X115.340 Y173.228 E43.84607
G1 X114.623 Y173.217 E43.90290
G1 X113.888 Y173.154 E43.96136
G1 X113.201 Y173.047 E44.01651
G1 X112.791 Y172.960 E44.04975
G1 X112.099 Y172.772 E44.10658
G1 X111.422 Y172.537 E44.16341
G1 X110.763 Y172.255 E44.22023
G1 X110.125 Y171.927 E44.27707
G1 X109.512 Y171.556 E44.33390
G1 X108.926 Y171.144 E44.39071
G1 X108.370 Y170.691 E44.44755
G1 X107.847 Y170.200 E44.50438
G1 X107.360 Y169.675 E44.56120
G1 X106.910 Y169.116 E44.61806
G1 X74.796 Y124.915 E48.94943
G1 X74.404 Y124.315 E49.00626
G1 X74.055 Y123.689 E49.06308
G1 X73.750 Y123.040 E49.11991
G1 X73.593 Y122.652 E49.15312
G1 X73.368 Y121.994 E49.20828
G1 X73.178 Y121.281 E49.26677
G1 X73.044 Y120.577 E49.32360
G1 X72.958 Y119.865 E49.38043
G1 X72.923 Y119.149 E49.43726
G1 X72.938 Y118.432 E49.49410
G1 X73.002 Y117.718 E49.55093
G1 X73.178 Y116.719 E49.63135
G1 X73.362 Y116.026 E49.68818
G1 X73.593 Y115.348 E49.74500
G1 X73.871 Y114.687 E49.80183
G1 X74.195 Y114.048 E49.85866
G1 X74.404 Y113.685 E49.89186
G1 X74.797 Y113.085 E49.94869
G1 X106.786 Y69.051 E54.26351
G1 X107.335 Y69.376 F9000.000
G1 F1920
G1 X107.832 Y68.751 E54.32688
G1 X108.289 Y68.257 E54.38019
G1 X108.779 Y67.796 E54.43350
G1 X109.299 Y67.371 E54.48681
G1 X109.849 Y66.983 E54.54012
G1 X110.423 Y66.634 E54.59343
G1 X111.021 Y66.326 E54.64674
G1 X111.639 Y66.061 E54.70006
G1 X112.274 Y65.839 E54.75336
G1 X112.923 Y65.662 E54.80668
G1 X113.582 Y65.531 E54.85998
G1 X114.250 Y65.446 E54.91331
G1 X114.921 Y65.408 E54.96662
G1 X115.614 Y65.418 E55.02156
G1 X116.264 Y65.473 E55.07323
G1 X116.678 Y65.531 E55.10644
G1 X117.338 Y65.662 E55.15975
G1 X118.108 Y65.876 E55.22312
G1 X169.906 Y82.708 E59.54092
G1 X170.535 Y82.947 E59.59425
G1 X171.145 Y83.228 E59.64755
G1 X171.752 Y83.563 E59.70251
G1 X172.300 Y83.916 E59.75415
G1 X172.639 Y84.162 E59.78738
G1 X173.160 Y84.587 E59.84070
G1 X173.650 Y85.048 E59.89401
G1 X174.107 Y85.542 E59.94736
G1 X174.528 Y86.067 E60.00066
G1 X175.045 Y86.834 E60.07404
G1 X175.374 Y87.421 E60.12735
G1 X175.661 Y88.029 E60.18066
G1 X175.904 Y88.656 E60.23398
G1 X176.034 Y89.054 E60.26718
G1 X176.200 Y89.684 E60.31882
G1 X176.330 Y90.365 E60.37380
G1 X176.409 Y91.033 E60.42710
G1 X176.442 Y91.705 E60.48044
G1 X176.442 Y146.296 E64.80830
G1 X176.409 Y146.967 E64.86162
G1 X176.366 Y147.384 E64.89486
G1 X176.205 Y148.296 E64.96823
G1 X176.034 Y148.946 E65.02153
G1 X175.904 Y149.345 E65.05477
G1 X175.660 Y149.972 E65.10809
G1 X175.374 Y150.579 E65.16136
G1 X174.911 Y151.381 E65.23477
G1 X174.676 Y151.729 E65.26800
G1 X174.270 Y152.264 E65.32129
G1 X173.826 Y152.769 E65.37460
G1 X173.349 Y153.243 E65.42791
G1 X172.639 Y153.838 E65.50132
G1 X172.300 Y154.084 E65.53452
G1 X171.735 Y154.448 E65.58783
G1 X171.145 Y154.772 E65.64115
G1 X170.535 Y155.053 E65.69445
G1 X169.786 Y155.333 E65.75782
G1 X118.108 Y172.124 E70.06559
G1 X117.338 Y172.338 E70.12896
G1 X116.678 Y172.469 E70.18227
G1 X116.012 Y172.554 E70.23555
G1 X115.340 Y172.592 E70.28889
G1 X114.667 Y172.583 E70.34220
G1 X113.997 Y172.527 E70.39549
G1 X113.333 Y172.425 E70.44879
G1 X112.677 Y172.277 E70.50210
G1 X112.013 Y172.076 E70.55709
G1 X111.404 Y171.844 E70.60875
G1 X111.021 Y171.674 E70.64195
G1 X110.424 Y171.366 E70.69527
G1 X109.849 Y171.017 E70.74858
G1 X109.299 Y170.629 E70.80189
G1 X108.779 Y170.204 E70.85521
G1 X108.289 Y169.743 E70.90851
G1 X107.832 Y169.249 E70.96182
G1 X107.411 Y168.725 E71.01516
G1 X75.323 Y124.560 E75.34302
G1 X74.955 Y123.997 E75.39633
G1 X74.626 Y123.411 E75.44964
G1 X74.339 Y122.802 E75.50295
G1 X74.183 Y122.414 E75.53616
G1 X73.973 Y121.797 E75.58780
G1 X73.795 Y121.127 E75.64277
G1 X73.670 Y120.466 E75.69608
G1 X73.591 Y119.798 E75.74941
G1 X73.558 Y119.127 E75.80272
G1 X73.573 Y118.454 E75.85603
G1 X73.634 Y117.785 E75.90935
G1 X73.795 Y116.873 E75.98274
G1 X73.966 Y116.223 E76.03605
G1 X74.183 Y115.586 E76.08936
G1 X74.443 Y114.966 E76.14268
G1 X74.626 Y114.589 E76.17589
G1 X74.955 Y114.003 E76.22919
G1 X75.323 Y113.440 E76.28250
G1 X107.300 Y69.425 E80.59557
G1 E79.99557 F900.00000
G92 E0
G1 X141.713 Y149.886 F9000.000
G1 E0.65000 F900.00000
G1 F960
G1 X141.816 Y150.441 E0.69473
G1 X141.763 Y151.023 E0.74107
G1 X141.584 Y151.529 E0.78363
G1 X141.266 Y151.992 E0.82819
G1 X140.838 Y152.357 E0.87275
G1 X140.331 Y152.599 E0.91731
G1 X139.778 Y152.702 E0.96188
G1 X139.218 Y152.657 E1.00644
G1 X138.688 Y152.470 E1.05100
G1 X138.223 Y152.150 E1.09574
G1 X137.849 Y151.701 E1.14207
G1 X137.618 Y151.217 E1.18463
G1 X137.515 Y150.664 E1.22919
G1 X137.559 Y150.104 E1.27375
G1 X137.747 Y149.574 E1.31832
G1 X138.065 Y149.111 E1.36288
G1 X138.493 Y148.745 E1.40744
G1 X139.000 Y148.503 E1.45200
G1 X139.528 Y148.406 E1.49457
G1 X140.111 Y148.444 E1.54090
G1 X140.643 Y148.633 E1.58563
G1 X141.108 Y148.952 E1.63037
G1 X141.482 Y149.401 E1.67670
G1 X141.687 Y149.832 E1.71450
G1 X141.713 Y149.886 F9000.000
G1 E1.11450 F900.00000
G92 E0
G1 X118.191 Y161.400 F9000.000
G1 E0.65000 F900.00000
G1 F960
G1 X118.491 Y162.246 E0.72110
G1 X118.561 Y163.140 E0.79220
G1 X118.398 Y164.022 E0.86330
G1 X118.012 Y164.831 E0.93440
G1 X117.429 Y165.513 E1.00549
G1 X116.690 Y166.021 E1.07659
G1 X115.845 Y166.320 E1.14769
G1 X114.951 Y166.391 E1.21879
G1 X114.069 Y166.227 E1.28989
G1 X113.298 Y165.860 E1.35755
G1 X112.575 Y165.261 E1.43201
G1 X112.055 Y164.479 E1.50648
G1 X111.770 Y163.674 E1.57414
G1 X111.699 Y162.767 E1.64627
G1 X111.882 Y161.859 E1.71970
G1 X112.249 Y161.089 E1.78737
G1 X112.832 Y160.407 E1.85846
G1 X113.571 Y159.899 E1.92956
G1 X114.416 Y159.600 E2.00066
G1 X115.267 Y159.533 E2.06832
G1 X116.180 Y159.687 E2.14176
G1 X117.001 Y160.079 E2.21388
G1 X117.683 Y160.661 E2.28498
G1 X118.157 Y161.351 E2.35132
G1 X117.620 Y161.691 F9000.000
G1 F960
G1 X117.864 Y162.379 E2.40915
G1 X117.921 Y163.106 E2.46698
G1 X117.788 Y163.823 E2.52481
G1 X117.474 Y164.482 E2.58264
G1 X117.000 Y165.037 E2.64047
G1 X116.399 Y165.450 E2.69830
G1 X115.711 Y165.693 E2.75613
G1 X114.984 Y165.750 E2.81397
G1 X114.267 Y165.617 E2.87180
G1 X113.643 Y165.320 E2.92660
G1 X113.052 Y164.831 E2.98738
G1 X112.628 Y164.193 E3.04817
G1 X112.397 Y163.541 E3.10297
G1 X112.339 Y162.806 E3.16143
G1 X112.489 Y162.062 E3.22159
G1 X112.787 Y161.438 E3.27639
G1 X113.261 Y160.883 E3.33422
G1 X113.862 Y160.470 E3.39205
G1 X114.549 Y160.227 E3.44988
G1 X115.239 Y160.172 E3.50468
G1 X115.987 Y160.299 E3.56484
G1 X116.652 Y160.616 E3.62330
G1 X117.207 Y161.090 E3.68113
G1 X117.586 Y161.642 E3.73420
G1 X117.049 Y161.982 F9000.000
G1 F960
G1 X117.237 Y162.512 E3.77876
G1 X117.281 Y163.073 E3.82333
G1 X117.178 Y163.625 E3.86789
G1 X116.936 Y164.133 E3.91245
G1 X116.571 Y164.560 E3.95701
G1 X116.108 Y164.878 E4.00157
G1 X115.578 Y165.066 E4.04614
G1 X115.018 Y165.110 E4.09070
G1 X114.465 Y165.008 E4.13526
G1 X113.988 Y164.780 E4.17720
G1 X113.530 Y164.401 E4.22431
G1 X113.201 Y163.906 E4.27143
G1 X113.024 Y163.408 E4.31336
G1 X112.980 Y162.844 E4.35814
G1 X113.097 Y162.265 E4.40504
G1 X113.325 Y161.787 E4.44697
G1 X113.690 Y161.360 E4.49153
G1 X114.153 Y161.041 E4.53610
G1 X114.683 Y160.854 E4.58066
G1 X115.210 Y160.812 E4.62259
G1 X115.793 Y160.911 E4.66949
G1 X116.303 Y161.154 E4.71427
G1 X116.731 Y161.519 E4.75883
G1 X117.015 Y161.933 E4.79864
G1 X117.049 Y161.982 F9000.000
G1 E4.19864 F900.00000
G92 E0
G1 X127.498 Y149.820 F9000.000
G1 E0.65000 F900.00000
G1 F1440
G1 X119.019 Y164.976 E2.02678
G1 X118.672 Y165.533 E2.07882
G1 X118.279 Y166.001 E2.12723
G1 X117.826 Y166.410 E2.17565
G1 X117.319 Y166.751 E2.22408
G1 X117.049 Y166.895 E2.24830
G1 X116.483 Y167.123 E2.29672
G1 X116.189 Y167.208 E2.32094
G1 X115.893 Y167.271 E2.34495
G1 X115.283 Y167.335 E2.39359
G1 X114.675 Y167.314 E2.44179
G1 X114.352 Y167.267 E2.46767
G1 X113.778 Y167.123 E2.51465
G1 X113.211 Y166.895 E2.56307
G1 X112.942 Y166.751 E2.58729
G1 X112.435 Y166.410 E2.63571
G1 X112.201 Y166.213 E2.65993
G1 X111.777 Y165.774 E2.70835
G1 X111.589 Y165.533 E2.73258
G1 X111.264 Y165.013 E2.78121
G1 X111.131 Y164.741 E2.80522
G1 X110.928 Y164.184 E2.85220
G1 X110.848 Y163.867 E2.87808
G1 X110.763 Y163.265 E2.92628
G1 X110.753 Y162.960 E2.95051
G1 X110.800 Y162.305 E3.00254
G1 X112.849 Y145.058 E4.37949
G1 X114.035 Y145.795 E4.49017
G1 X115.869 Y146.770 E4.65490
G1 X117.840 Y147.647 E4.82587
G1 X119.866 Y148.385 E4.99684
G1 X121.939 Y148.979 E5.16781
G1 X124.049 Y149.428 E5.33879
G1 X126.184 Y149.728 E5.50976
G1 X127.438 Y149.816 E5.60938
G1 E5.00938 F900.00000
G92 E0
G1 X135.841 Y149.500 F9000.000
G1 E0.65000 F900.00000
G1 F1440
G1 X134.830 Y149.715 E0.73199
G1 X132.674 Y150.018 E0.90457
G1 X130.502 Y150.170 E1.07715
G1 X128.030 Y150.170 E1.27314
G1 X119.571 Y165.290 E2.64666
G1 X119.382 Y165.617 E2.67660
G1 X118.971 Y166.183 E2.73206
G1 X118.485 Y166.686 E2.78751
G1 X118.217 Y166.911 E2.81525
G1 X117.637 Y167.302 E2.87071
G1 X117.009 Y167.609 E2.92616
G1 X116.343 Y167.825 E2.98161
G1 X116.003 Y167.897 E3.00923
G1 X115.635 Y167.948 E3.03863
G1 X114.955 Y167.971 E3.09255
G1 X114.608 Y167.946 E3.12017
G1 X113.917 Y167.825 E3.17575
G1 X113.252 Y167.609 E3.23120
G1 X112.623 Y167.302 E3.28666
G1 X112.044 Y166.911 E3.34211
G1 X111.524 Y166.443 E3.39757
G1 X111.074 Y165.907 E3.45302
G1 X110.703 Y165.312 E3.50860
G1 X110.419 Y164.675 E3.56393
G1 X110.226 Y164.001 E3.61951
G1 X110.129 Y163.310 E3.67483
G1 X110.129 Y162.610 E3.73029
G1 X110.168 Y162.235 E3.76023
G1 X112.212 Y145.030 E5.13375
G1 X110.212 Y143.577 E5.32974
G1 X108.544 Y142.178 E5.50232
G1 X106.978 Y140.666 E5.67491
G1 X106.286 Y139.897 E5.75689
G1 X104.677 Y140.783 E5.90252
G1 X104.479 Y140.512 E5.92911
G1 X104.746 Y140.258 E5.95831
G1 X105.127 Y139.636 E6.01614
G1 X105.335 Y138.937 E6.07397
G1 X105.354 Y138.208 E6.13180
G1 X105.218 Y137.641 E6.17803
G1 X105.494 Y137.507 E6.20240
G1 X106.233 Y138.453 E6.29752
G1 X107.702 Y140.075 E6.47103
G1 X109.165 Y141.488 E6.63231
G1 X110.783 Y142.846 E6.79976
G1 X112.493 Y144.088 E6.96731
G1 X114.352 Y145.244 E7.14082
G1 X116.148 Y146.199 E7.30210
G1 X118.078 Y147.058 E7.46955
G1 X120.063 Y147.780 E7.63700
G1 X122.093 Y148.362 E7.80445
G1 X124.159 Y148.801 E7.97191
G1 X126.251 Y149.095 E8.13936
G1 X128.358 Y149.243 E8.30681
G1 X130.470 Y149.243 E8.47426
G1 X132.577 Y149.095 E8.64171
G1 X134.669 Y148.801 E8.80916
G1 X136.735 Y148.362 E8.97661
G1 X137.887 Y148.032 E9.07163
G1 X138.032 Y148.303 E9.09601
G1 X137.589 Y148.682 E9.14224
G1 X137.176 Y149.283 E9.20007
G1 X136.932 Y149.970 E9.25790
G1 X136.875 Y150.698 E9.31573
G1 X136.942 Y151.060 E9.34493
