; generated by Slic3r 1.3.1-dev on 2019-11-07 at 21:48:51

; Print Config Notes: 
; DMF_3D_0.3mmThin222HC25%
; 
; external perimeters extrusion width = 0.60mm (4.82mm^3/s)
; perimeters extrusion width = 0.54mm (5.71mm^3/s)
; infill extrusion width = 0.70mm (7.63mm^3/s)
; solid infill extrusion width = 0.51mm (5.35mm^3/s)
; top infill extrusion width = 0.51mm (5.35mm^3/s)

M190 S90 ; set bed temperature and wait for it to be reached
M104 S250 ; set temperature
G28 ; home all axes
; Filament gcode

M109 S250 ; set temperature and wait for it to be reached
G21 ; set units to millimeters
G90 ; use absolute coordinates
M82 ; use absolute distances for extrusion
G92 E0
G1 Z0.300 F4500.000
G1 E-0.60000 F900.00000
G92 E0
G1 X55.728 Y57.181 F4500.000
G1 E0.65000 F900.00000
G1 F1920
G1 X58.930 Y54.090 E1.00280
G1 X62.593 Y51.000 E1.38273
G1 X66.463 Y48.173 E1.76267
G1 X70.818 Y45.452 E2.16974
G1 X74.747 Y43.363 E2.52254
G1 X79.120 Y41.403 E2.90249
G1 X83.946 Y39.647 E3.30956
G1 X88.556 Y38.337 E3.68950
G1 X93.246 Y37.353 E4.06942
G1 X97.653 Y36.733 E4.42223
G1 X102.775 Y36.375 E4.82930
G1 X107.225 Y36.375 E5.18211
G1 X112.007 Y36.697 E5.56204
G1 X117.091 Y37.412 E5.96911
G1 X121.777 Y38.420 E6.34905
G1 X126.054 Y39.647 E6.70185
G1 X130.879 Y41.403 E7.10892
G1 X135.253 Y43.363 E7.48888
G1 X139.182 Y45.452 E7.84167
G1 X143.253 Y47.982 E8.22160
G1 X147.407 Y51.000 E8.62868
G1 X151.070 Y54.089 E9.00860
G1 X154.272 Y57.181 E9.36141
G1 X157.707 Y60.997 E9.76848
G1 X160.447 Y64.504 E10.12129
G1 X163.062 Y68.359 E10.49064
G1 X163.319 Y68.761 E10.52839
G1 X165.544 Y72.615 E10.88119
G1 X167.795 Y77.230 E11.28826
G1 X169.462 Y81.356 E11.64106
G1 X170.913 Y85.783 E12.01040
G1 X171.048 Y86.239 E12.04814
G1 X172.125 Y90.557 E12.40094
G1 X173.017 Y95.614 E12.80801
G1 X173.506 Y100.381 E13.18795
G1 X173.661 Y104.829 E13.54075
G1 X173.482 Y109.960 E13.94782
G1 X173.017 Y114.386 E14.30064
G1 X172.196 Y119.108 E14.68056
G1 X170.954 Y124.090 E15.08763
G1 X169.579 Y128.323 E15.44043
G1 X167.795 Y132.770 E15.82036
G1 X165.704 Y137.083 E16.20032
G1 X163.137 Y141.530 E16.60738
G1 X160.648 Y145.219 E16.96019
G1 X157.707 Y149.003 E17.34012
G1 X154.272 Y152.819 E17.74720
G1 X151.070 Y155.910 E18.10000
G1 X147.407 Y159.000 E18.47993
G1 X143.537 Y161.827 E18.85987
G1 X139.182 Y164.548 E19.26692
G1 X134.945 Y166.787 E19.64688
G1 X130.880 Y168.597 E19.99969
G1 X126.055 Y170.353 E20.40675
G1 X121.444 Y171.663 E20.78670
G1 X116.754 Y172.647 E21.16662
G1 X112.347 Y173.267 E21.51943
G1 X107.225 Y173.625 E21.92650
G1 X102.775 Y173.625 E22.27930
G1 X97.993 Y173.303 E22.65924
G1 X92.909 Y172.588 E23.06630
G1 X88.556 Y171.663 E23.41911
G1 X83.946 Y170.353 E23.79905
G1 X79.120 Y168.597 E24.20612
G1 X75.055 Y166.787 E24.55892
G1 X70.818 Y164.548 E24.93887
G1 X66.463 Y161.827 E25.34594
G1 X62.593 Y159.000 E25.72588
G1 X58.930 Y155.910 E26.10580
G1 X55.728 Y152.819 E26.45861
G1 X52.293 Y149.003 E26.86568
G1 X49.553 Y145.496 E27.21849
G1 X46.863 Y141.530 E27.59842
G1 X44.456 Y137.385 E27.97838
G1 X42.205 Y132.770 E28.38544
G1 X40.538 Y128.644 E28.73824
G1 X39.087 Y124.217 E29.10760
G1 X38.952 Y123.761 E29.14532
G1 X37.875 Y119.443 E29.49813
G1 X36.983 Y114.386 E29.90519
G1 X36.518 Y109.960 E30.25800
G1 X36.339 Y105.171 E30.63794
G1 X36.494 Y100.381 E31.01787
G1 X37.031 Y95.275 E31.42495
G1 X37.804 Y90.892 E31.77775
G1 X38.952 Y86.239 E32.15768
G1 X40.538 Y81.356 E32.56475
G1 X42.205 Y77.230 E32.91755
G1 X44.296 Y72.917 E33.29750
G1 X46.863 Y68.470 E33.70457
G1 X49.352 Y64.781 E34.05738
G1 X52.293 Y60.997 E34.43731
G1 X55.687 Y57.224 E34.83963
G1 X56.170 Y57.638 F4500.000
G1 F1920
G1 X59.371 Y54.547 E35.19243
G1 X63.002 Y51.487 E35.56884
G1 X66.837 Y48.688 E35.94527
G1 X71.116 Y46.014 E36.34531
G1 X75.045 Y43.924 E36.69811
G1 X79.379 Y41.984 E37.07454
G1 X83.837 Y40.350 E37.45096
G1 X88.688 Y38.959 E37.85101
G1 X93.334 Y37.982 E38.22742
G1 X97.741 Y37.363 E38.58022
G1 X102.775 Y37.011 E38.98027
G1 X107.523 Y37.021 E39.35669
G1 X111.962 Y37.331 E39.70949
G1 X116.959 Y38.034 E40.10953
G1 X121.312 Y38.959 E40.46233
G1 X125.879 Y40.258 E40.83875
G1 X130.621 Y41.983 E41.23879
G1 X134.955 Y43.924 E41.61523
G1 X138.884 Y46.014 E41.96803
G1 X142.916 Y48.521 E42.34444
G1 X146.998 Y51.487 E42.74449
G1 X150.629 Y54.547 E43.12090
G1 X153.830 Y57.638 E43.47371
G1 X157.206 Y61.388 E43.87375
G1 X159.946 Y64.895 E44.22656
G1 X162.535 Y68.715 E44.59239
G1 X162.768 Y69.078 E44.62662
G1 X164.993 Y72.932 E44.97942
G1 X167.205 Y77.468 E45.37946
G1 X168.872 Y81.594 E45.73226
G1 X170.308 Y85.979 E46.09809
G1 X170.432 Y86.393 E46.13231
G1 X171.508 Y90.711 E46.48511
G1 X172.384 Y95.680 E46.88515
G1 X172.850 Y100.106 E47.23795
G1 X173.026 Y104.851 E47.61438
G1 X172.850 Y109.894 E48.01442
G1 X172.384 Y114.320 E48.36723
G1 X171.570 Y118.998 E48.74364
G1 X170.349 Y123.894 E49.14368
G1 X168.872 Y128.406 E49.52010
G1 X167.205 Y132.532 E49.87290
G1 X165.133 Y136.805 E50.24934
G1 X162.610 Y141.175 E50.64937
G1 X160.121 Y144.864 E51.00218
G1 X157.206 Y148.612 E51.37860
G1 X153.830 Y152.362 E51.77864
G1 X150.629 Y155.453 E52.13144
G1 X146.998 Y158.513 E52.50785
G1 X143.163 Y161.312 E52.88428
G1 X138.884 Y163.986 E53.28431
G1 X134.687 Y166.206 E53.66074
G1 X130.621 Y168.017 E54.01355
G1 X125.879 Y169.742 E54.41359
G1 X121.601 Y170.969 E54.76640
G1 X116.959 Y171.966 E55.14282
G1 X111.962 Y172.669 E55.54286
G1 X107.523 Y172.979 E55.89566
G1 X102.775 Y172.989 E56.27208
G1 X97.741 Y172.637 E56.67213
G1 X93.041 Y171.966 E57.04853
G1 X88.688 Y171.041 E57.40134
G1 X84.121 Y169.742 E57.77776
G1 X79.379 Y168.017 E58.17780
G1 X75.313 Y166.207 E58.53061
G1 X71.116 Y163.986 E58.90704
G1 X66.837 Y161.312 E59.30708
G1 X63.002 Y158.513 E59.68350
G1 X59.371 Y155.453 E60.05991
G1 X56.170 Y152.362 E60.41272
G1 X52.794 Y148.612 E60.81276
G1 X50.054 Y145.105 E61.16557
G1 X47.390 Y141.175 E61.54198
G1 X45.007 Y137.068 E61.91842
G1 X42.795 Y132.532 E62.31846
G1 X41.128 Y128.406 E62.67126
G1 X39.692 Y124.021 E63.03709
G1 X39.568 Y123.607 E63.07131
G1 X38.492 Y119.289 E63.42411
G1 X37.616 Y114.320 E63.82415
G1 X37.150 Y109.894 E64.17695
G1 X36.974 Y105.149 E64.55338
G1 X37.150 Y100.106 E64.95342
G1 X37.657 Y95.385 E65.32984
G1 X38.430 Y91.002 E65.68264
G1 X39.568 Y86.393 E66.05906
G1 X41.128 Y81.594 E66.45910
G1 X42.795 Y77.468 E66.81190
G1 X44.867 Y73.195 E67.18834
G1 X47.390 Y68.825 E67.58837
G1 X49.879 Y65.136 E67.94118
G1 X52.794 Y61.388 E68.31760
G1 X56.128 Y57.681 E68.71289
G1 X56.612 Y58.095 F4500.000
G1 F1920
G1 X59.813 Y55.004 E69.06569
G1 X63.410 Y51.974 E69.43859
G1 X67.421 Y49.060 E69.83161
G1 X71.195 Y46.702 E70.18441
G1 X75.344 Y44.485 E70.55730
G1 X79.638 Y42.564 E70.93022
G1 X84.055 Y40.947 E71.30313
G1 X88.820 Y39.581 E71.69614
G1 X93.423 Y38.611 E72.06904
G1 X97.830 Y37.992 E72.42184
G1 X102.775 Y37.646 E72.81486
G1 X107.225 Y37.646 E73.16766
G1 X111.918 Y37.965 E73.54057
G1 X116.827 Y38.655 E73.93358
G1 X121.180 Y39.581 E74.28638
G1 X125.704 Y40.869 E74.65928
G1 X130.362 Y42.564 E75.05229
G1 X134.656 Y44.485 E75.42522
G1 X138.585 Y46.575 E75.77801
G1 X142.579 Y49.060 E76.15091
G1 X146.590 Y51.974 E76.54393
G1 X150.187 Y55.004 E76.91683
G1 X153.388 Y58.095 E77.26963
G1 X156.706 Y61.779 E77.66264
G1 X159.445 Y65.286 E78.01545
G1 X162.008 Y69.070 E78.37777
G1 X162.218 Y69.396 E78.40848
G1 X164.443 Y73.250 E78.76128
G1 X166.616 Y77.706 E79.15429
G1 X168.283 Y81.832 E79.50709
G1 X169.704 Y86.176 E79.86941
G1 X169.815 Y86.547 E79.90011
G1 X170.891 Y90.865 E80.25291
G1 X171.752 Y95.747 E80.64592
G1 X172.218 Y100.172 E80.99872
G1 X172.391 Y104.873 E81.37163
G1 X172.218 Y109.828 E81.76464
G1 X171.752 Y114.253 E82.11745
G1 X170.944 Y118.887 E82.49035
G1 X169.745 Y123.697 E82.88336
G1 X168.283 Y128.168 E83.25626
G1 X166.616 Y132.294 E83.60906
G1 X164.562 Y136.526 E83.98198
G1 X162.083 Y140.819 E84.37499
G1 X159.595 Y144.509 E84.72780
G1 X156.706 Y148.221 E85.10070
G1 X153.388 Y151.905 E85.49371
G1 X149.999 Y155.166 E85.86661
G1 X146.590 Y158.026 E86.21941
G1 X142.579 Y160.940 E86.61243
G1 X138.585 Y163.425 E86.98532
G1 X134.656 Y165.515 E87.33813
G1 X130.362 Y167.436 E87.71105
G1 X125.704 Y169.131 E88.10406
G1 X121.180 Y170.419 E88.47697
G1 X116.577 Y171.389 E88.84986
G1 X112.170 Y172.008 E89.20267
G1 X107.225 Y172.354 E89.59568
G1 X102.775 Y172.354 E89.94848
G1 X98.082 Y172.035 E90.32139
G1 X93.173 Y171.345 E90.71439
G1 X88.820 Y170.419 E91.06720
G1 X84.296 Y169.131 E91.44011
G1 X79.638 Y167.436 E91.83312
G1 X75.572 Y165.626 E92.18592
G1 X71.415 Y163.425 E92.55884
G1 X67.211 Y160.798 E92.95184
G1 X63.410 Y158.026 E93.32476
G1 X59.813 Y154.996 E93.69765
G1 X56.612 Y151.905 E94.05046
G1 X53.294 Y148.221 E94.44347
G1 X50.555 Y144.714 E94.79627
G1 X47.917 Y140.819 E95.16918
G1 X45.557 Y136.750 E95.54210
G1 X43.384 Y132.294 E95.93511
G1 X41.717 Y128.168 E96.28790
G1 X40.296 Y123.824 E96.65022
G1 X40.185 Y123.453 E96.68092
G1 X39.109 Y119.135 E97.03373
G1 X38.248 Y114.253 E97.42673
G1 X37.782 Y109.827 E97.77954
G1 X37.609 Y105.127 E98.15245
G1 X37.765 Y100.426 E98.52535
G1 X38.283 Y95.495 E98.91837
G1 X39.056 Y91.113 E99.27116
G1 X40.185 Y86.547 E99.64407
G1 X41.717 Y81.832 E100.03708
G1 X43.384 Y77.706 E100.38988
G1 X45.438 Y73.474 E100.76280
G1 X47.917 Y69.181 E101.15581
G1 X50.405 Y65.491 E101.50861
G1 X53.294 Y61.779 E101.88152
G1 X56.570 Y58.138 E102.26977
G1 E101.66977 F900.00000
G92 E0
G1 X104.985 Y162.606 F4500.000
G1 E0.65000 F900.00000
G1 F720
G1 X105.556 Y162.677 E0.69564
G1 X106.077 Y162.892 E0.74031
G1 X106.523 Y163.234 E0.78487
G1 X106.865 Y163.680 E0.82944
G1 X107.080 Y164.200 E0.87400
G1 X107.153 Y164.757 E0.91856
G1 X107.080 Y165.314 E0.96312
G1 X106.865 Y165.834 E1.00769
G1 X106.523 Y166.280 E1.05225
G1 X106.077 Y166.622 E1.09681
G1 X105.557 Y166.837 E1.14137
G1 X105.000 Y166.910 E1.18594
G1 X104.443 Y166.837 E1.23050
G1 X103.923 Y166.622 E1.27506
G1 X103.476 Y166.279 E1.31973
G1 X103.129 Y165.819 E1.36537
G1 X102.920 Y165.314 E1.40871
G1 X102.847 Y164.757 E1.45327
G1 X102.920 Y164.200 E1.49784
G1 X103.135 Y163.680 E1.54240
G1 X103.477 Y163.234 E1.58696
G1 X103.923 Y162.892 E1.63153
G1 X104.443 Y162.677 E1.67609
G1 X104.925 Y162.614 E1.71467
G1 X104.985 Y162.606 F4500.000
G1 E1.11467 F900.00000
G92 E0
G1 X101.444 Y167.109 F4500.000
G1 E0.65000 F900.00000
G1 F1920
G1 X101.901 Y164.881 E0.83028
G1 X102.223 Y164.892 E0.85585
G1 X102.301 Y165.480 E0.90286
G1 X102.573 Y166.138 E0.95928
G1 X103.021 Y166.731 E1.01818
G1 X103.603 Y167.177 E1.07632
G1 X104.203 Y167.426 E1.12782
G1 X104.142 Y167.733 E1.15263
G1 X102.809 Y167.733 E1.25828
G1 X98.439 Y167.427 E1.60563
G1 X94.100 Y166.817 E1.95297
G1 X89.814 Y165.906 E2.30031
G1 X85.603 Y164.699 E2.64766
G1 X81.486 Y163.200 E2.99500
G1 X77.483 Y161.418 E3.34235
G1 X73.615 Y159.362 E3.68961
G1 X69.792 Y156.961 E4.04751
G1 X66.354 Y154.464 E4.38436
G1 X62.998 Y151.648 E4.73170
G1 X61.268 Y149.977 E4.92236
G1 X61.441 Y149.713 E4.94740
G1 X62.022 Y149.954 E4.99724
G1 X62.745 Y150.049 E5.05508
G1 X63.469 Y149.954 E5.11291
G1 X64.143 Y149.675 E5.17074
G1 X64.613 Y149.314 E5.21774
G1 X64.849 Y149.534 E5.24332
G1 X63.584 Y151.451 E5.42544
G1 X66.679 Y154.048 E5.74576
G1 X70.194 Y156.602 E6.09019
G1 X73.878 Y158.904 E6.43461
G1 X77.714 Y160.944 E6.77904
G1 X81.683 Y162.711 E7.12346
G1 X85.766 Y164.197 E7.46788
G1 X89.942 Y165.394 E7.81231
G1 X94.192 Y166.298 E8.15673
G1 X98.494 Y166.902 E8.50116
G1 X101.384 Y167.104 E8.73088
G1 E8.13088 F900.00000
G92 E0
G1 X64.610 Y148.331 F4500.000
G1 E0.65000 F900.00000
G1 F720
G1 X64.268 Y148.777 E0.69457
G1 X63.822 Y149.119 E0.73912
G1 X63.303 Y149.334 E0.78369
G1 X62.745 Y149.408 E0.82825
G1 X62.188 Y149.334 E0.87282
G1 X61.669 Y149.119 E0.91738
G1 X61.223 Y148.777 E0.96194
G1 X60.881 Y148.331 E1.00650
G1 X60.666 Y147.812 E1.05106
G1 X60.592 Y147.255 E1.09563
G1 X60.666 Y146.697 E1.14019
G1 X60.881 Y146.178 E1.18475
G1 X61.223 Y145.732 E1.22931
G1 X61.669 Y145.390 E1.27388
G1 X62.188 Y145.175 E1.31843
G1 X62.730 Y145.103 E1.36178
G1 X63.301 Y145.174 E1.40742
G1 X63.822 Y145.390 E1.45209
G1 X64.268 Y145.732 E1.49665
G1 X64.610 Y146.178 E1.54121
G1 X64.825 Y146.697 E1.58577
G1 X64.899 Y147.255 E1.63033
G1 X64.825 Y147.812 E1.67491
G1 X64.633 Y148.276 E1.71470
G1 X64.610 Y148.331 F4500.000
G1 E1.11470 F900.00000
G92 E0
G1 X58.572 Y146.401 F4500.000
G1 E0.65000 F900.00000
G1 F1920
G1 X60.466 Y145.151 E0.82993
G1 X60.686 Y145.387 E0.85550
G1 X60.325 Y145.857 E0.90249
G1 X60.046 Y146.531 E0.96033
G1 X59.951 Y147.255 E1.01815
G1 X60.046 Y147.978 E1.07599
G1 X60.321 Y148.640 E1.13281
G1 X60.064 Y148.815 E1.15740
G1 X59.846 Y148.604 E1.18140
G1 X56.915 Y145.348 E1.52874
G1 X54.217 Y141.896 E1.87608
G1 X51.767 Y138.263 E2.22343
G1 X49.577 Y134.469 E2.57078
G1 X47.656 Y130.531 E2.91812
G1 X46.015 Y126.469 E3.26546
G1 X44.661 Y122.302 E3.61281
G1 X43.601 Y118.051 E3.96015
G1 X42.840 Y113.736 E4.30749
G1 X42.382 Y109.379 E4.65484
G1 X42.259 Y105.855 E4.93438
G1 X42.570 Y105.787 E4.95964
G1 X42.823 Y106.397 E5.01199
G1 X43.267 Y106.976 E5.06982
G1 X43.846 Y107.420 E5.12765
G1 X44.520 Y107.699 E5.18548
G1 X45.107 Y107.776 E5.23248
G1 X45.119 Y108.099 E5.25806
G1 X42.827 Y108.569 E5.44354
G1 X43.362 Y113.663 E5.84959
G1 X44.117 Y117.941 E6.19401
G1 X45.168 Y122.157 E6.53843
G1 X46.510 Y126.288 E6.88285
G1 X48.138 Y130.317 E7.22728
G1 X50.042 Y134.221 E7.57170
G1 X52.215 Y137.984 E7.91613
G1 X54.644 Y141.586 E8.26056
G1 X57.319 Y145.009 E8.60498
G1 X58.532 Y146.356 E8.74868
G1 E8.14868 F900.00000
G92 E0
G1 X45.800 Y107.080 F4500.000
G1 E0.65000 F900.00000
G1 F720
G1 X45.243 Y107.153 E0.69457
G1 X44.686 Y107.080 E0.73913
G1 X44.166 Y106.865 E0.78369
G1 X43.720 Y106.523 E0.82825
G1 X43.378 Y106.077 E0.87282
G1 X43.163 Y105.557 E0.91738
G1 X43.090 Y105.000 E0.96194
G1 X43.163 Y104.443 E1.00650
G1 X43.378 Y103.923 E1.05106
G1 X43.720 Y103.477 E1.09563
G1 X44.166 Y103.135 E1.14019
G1 X44.686 Y102.920 E1.18475
G1 X45.228 Y102.849 E1.22809
G1 X45.799 Y102.920 E1.27374
G1 X46.320 Y103.135 E1.31840
G1 X46.766 Y103.477 E1.36297
G1 X47.108 Y103.923 E1.40753
G1 X47.323 Y104.443 E1.45209
G1 X47.396 Y105.000 E1.49665
G1 X47.323 Y105.557 E1.54121
G1 X47.108 Y106.077 E1.58578
G1 X46.766 Y106.523 E1.63034
G1 X46.320 Y106.865 E1.67491
G1 X45.856 Y107.057 E1.71471
G1 X45.800 Y107.080 F4500.000
G1 E1.11471 F900.00000
G92 E0
G1 X42.827 Y101.431 F4500.000
G1 E0.65000 F900.00000
G1 F1920
G1 X45.119 Y101.901 E0.83548
G1 X45.107 Y102.224 E0.86106
G1 X44.520 Y102.301 E0.90806
G1 X43.846 Y102.580 E0.96589
G1 X43.267 Y103.024 E1.02372
G1 X42.823 Y103.603 E1.08155
G1 X42.570 Y104.213 E1.13390
G1 X42.259 Y104.145 E1.15916
G1 X42.382 Y100.621 E1.43870
G1 X42.840 Y96.264 E1.78604
G1 X43.601 Y91.949 E2.13339
G1 X44.629 Y87.827 E2.47023
G1 X46.015 Y83.530 E2.82813
G1 X47.656 Y79.469 E3.17539
G1 X49.577 Y75.531 E3.52274
G1 X51.767 Y71.737 E3.87008
G1 X54.217 Y68.104 E4.21743
G1 X56.915 Y64.652 E4.56478
G1 X59.846 Y61.396 E4.91211
G1 X60.064 Y61.185 E4.93611
G1 X60.321 Y61.360 E4.96071
G1 X60.046 Y62.022 E5.01752
G1 X59.951 Y62.745 E5.07536
G1 X60.046 Y63.469 E5.13319
G1 X60.325 Y64.143 E5.19102
G1 X60.686 Y64.613 E5.23801
G1 X60.466 Y64.849 E5.26359
G1 X58.572 Y63.599 E5.44352
G1 X57.319 Y64.991 E5.59197
G1 X54.644 Y68.414 E5.93640
G1 X52.215 Y72.016 E6.28082
G1 X50.042 Y75.779 E6.62525
G1 X48.138 Y79.683 E6.96967
G1 X46.510 Y83.712 E7.31410
G1 X45.168 Y87.843 E7.65853
G1 X44.117 Y92.059 E8.00294
G1 X43.362 Y96.337 E8.34737
G1 X42.833 Y101.371 E8.74866
G1 E8.14866 F900.00000
G92 E0
G1 X61.669 Y64.610 F4500.000
G1 E0.65000 F900.00000
G1 F720
G1 X61.223 Y64.268 E0.69457
G1 X60.881 Y63.822 E0.73912
G1 X60.666 Y63.303 E0.78369
G1 X60.592 Y62.745 E0.82825
G1 X60.666 Y62.188 E0.87282
G1 X60.881 Y61.669 E0.91738
G1 X61.223 Y61.223 E0.96194
G1 X61.669 Y60.881 E1.00650
G1 X62.188 Y60.666 E1.05106
G1 X62.730 Y60.594 E1.09440
G1 X63.301 Y60.665 E1.14005
G1 X63.822 Y60.881 E1.18472
G1 X64.268 Y61.223 E1.22927
G1 X64.610 Y61.669 E1.27384
G1 X64.825 Y62.188 E1.31840
G1 X64.899 Y62.745 E1.36297
G1 X64.825 Y63.303 E1.40753
G1 X64.610 Y63.822 E1.45209
G1 X64.268 Y64.268 E1.49665
G1 X63.822 Y64.610 E1.54121
G1 X63.303 Y64.825 E1.58577
G1 X62.745 Y64.899 E1.63034
